%
(1001)
(T4 D=2 CR=0 TAPER=118deg - ZMIN=-1 - drill)
N10 G90 G94
N15 G17
N20 G21
N25 G28 G91 Z0
N30 G90

(Drill1)
N35 M9
N40 T4 M6
N45 S9700 M3
N50 G54
N55 M9
N65 G0 X6.9 Y7
N70 G43 Z3 H4
N80 G98 G81 X6.9 Y7 Z-1 R3 F194
N85 Y28
N90 Y49
N95 Y70
N100 G80
N105 Z3
N115 M9
N120 G28 G91 Z0
N125 G28 X0 Y0
N130 M30
%
