%
(1002)
(T3 D=5.85 CR=0 - ZMIN=-10 - flat end mill)
N10 G90 G94
N15 G17
N20 G21
N25 G28 G91 Z0
N30 G90

(2D Contour1)
N35 M9
N40 T3 M6
N45 S5000 M3
N50 G54
N55 M8
N65 G0 X10.9 Y38.775
N70 G43 Z15 H3
N75 Z5
N80 G1 Z2 F1000
N85 Z-0.9
N90 G19 G3 Y38.875 Z-1 J0.1
N95 G1 Y38.975
N100 G17 G3 X10.8 Y39.075 I-0.1
N105 G1 X3 F800
N110 G2 X0.075 Y42 J2.925
N115 G1 Y56
N120 G2 X3 Y58.925 I2.925
N125 G1 X10.8
N130 G2 X13.725 Y56 J-2.925
N135 G1 Y42
N140 G2 X10.8 Y39.075 I-2.925
N145 G3 X10.7 Y38.975 J-0.1 F1000
N150 G1 Y38.875
N155 G19 G2 Y38.775 Z-0.9 K0.1
N160 G0 Z5
N165 X2.9 Y38.225
N170 G1 Z2 F1000
N175 Z-0.9
N180 G2 Y38.125 Z-1 J-0.1
N185 G1 Y38.025
N190 G17 G3 X3 Y37.925 I0.1
N195 G1 X10.8 F800
N200 G2 X13.725 Y35 J-2.925
N205 G1 Y21
N210 G2 X10.8 Y18.075 I-2.925
N215 G1 X3
N220 G2 X0.075 Y21 J2.925
N225 G1 Y35
N230 G2 X3 Y37.925 I2.925
N235 G3 X3.1 Y38.025 J0.1 F1000
N240 G1 Y38.125
N245 G19 G3 Y38.225 Z-0.9 K0.1
N250 G0 Z5
N255 X2.9
N260 G1 Z1 F1000
N265 Z-1.9
N270 G2 Y38.125 Z-2 J-0.1
N275 G1 Y38.025
N280 G17 G3 X3 Y37.925 I0.1
N285 G1 X10.8 F800
N290 G2 X13.725 Y35 J-2.925
N295 G1 Y21
N300 G2 X10.8 Y18.075 I-2.925
N305 G1 X3
N310 G2 X0.075 Y21 J2.925
N315 G1 Y35
N320 G2 X3 Y37.925 I2.925
N325 G3 X3.1 Y38.025 J0.1 F1000
N330 G1 Y38.125
N335 G19 G3 Y38.225 Z-1.9 K0.1
N340 G0 Z5
N345 X10.9 Y38.775
N350 G1 Z1 F1000
N355 Z-1.9
N360 G3 Y38.875 Z-2 J0.1
N365 G1 Y38.975
N370 G17 G3 X10.8 Y39.075 I-0.1
N375 G1 X3 F800
N380 G2 X0.075 Y42 J2.925
N385 G1 Y56
N390 G2 X3 Y58.925 I2.925
N395 G1 X10.8
N400 G2 X13.725 Y56 J-2.925
N405 G1 Y42
N410 G2 X10.8 Y39.075 I-2.925
N415 G3 X10.7 Y38.975 J-0.1 F1000
N420 G1 Y38.875
N425 G19 G2 Y38.775 Z-1.9 K0.1
N430 G0 Z5
N435 X10.9
N440 G1 Z0 F1000
N445 Z-2.9
N450 G3 Y38.875 Z-3 J0.1
N455 G1 Y38.975
N460 G17 G3 X10.8 Y39.075 I-0.1
N465 G1 X3 F800
N470 G2 X0.075 Y42 J2.925
N475 G1 Y56
N480 G2 X3 Y58.925 I2.925
N485 G1 X10.8
N490 G2 X13.725 Y56 J-2.925
N495 G1 Y42
N500 G2 X10.8 Y39.075 I-2.925
N505 G3 X10.7 Y38.975 J-0.1 F1000
N510 G1 Y38.875
N515 G19 G2 Y38.775 Z-2.9 K0.1
N520 G0 Z5
N525 X2.9 Y38.225
N530 G1 Z0 F1000
N535 Z-2.9
N540 G2 Y38.125 Z-3 J-0.1
N545 G1 Y38.025
N550 G17 G3 X3 Y37.925 I0.1
N555 G1 X10.8 F800
N560 G2 X13.725 Y35 J-2.925
N565 G1 Y21
N570 G2 X10.8 Y18.075 I-2.925
N575 G1 X3
N580 G2 X0.075 Y21 J2.925
N585 G1 Y35
N590 G2 X3 Y37.925 I2.925
N595 G3 X3.1 Y38.025 J0.1 F1000
N600 G1 Y38.125
N605 G19 G3 Y38.225 Z-2.9 K0.1
N610 G0 Z5
N615 X2.9
N620 G1 Z-1 F1000
N625 Z-3.9
N630 G2 Y38.125 Z-4 J-0.1
N635 G1 Y38.025
N640 G17 G3 X3 Y37.925 I0.1
N645 G1 X10.8 F800
N650 G2 X13.725 Y35 J-2.925
N655 G1 Y21
N660 G2 X10.8 Y18.075 I-2.925
N665 G1 X3
N670 G2 X0.075 Y21 J2.925
N675 G1 Y35
N680 G2 X3 Y37.925 I2.925
N685 G3 X3.1 Y38.025 J0.1 F1000
N690 G1 Y38.125
N695 G19 G3 Y38.225 Z-3.9 K0.1
N700 G0 Z5
N705 X10.9 Y38.775
N710 G1 Z-1 F1000
N715 Z-3.9
N720 G3 Y38.875 Z-4 J0.1
N725 G1 Y38.975
N730 G17 G3 X10.8 Y39.075 I-0.1
N735 G1 X3 F800
N740 G2 X0.075 Y42 J2.925
N745 G1 Y56
N750 G2 X3 Y58.925 I2.925
N755 G1 X10.8
N760 G2 X13.725 Y56 J-2.925
N765 G1 Y42
N770 G2 X10.8 Y39.075 I-2.925
N775 G3 X10.7 Y38.975 J-0.1 F1000
N780 G1 Y38.875
N785 G19 G2 Y38.775 Z-3.9 K0.1
N790 G0 Z5
N795 X10.9 Y59.775
N800 G1 Z2 F1000
N805 Z-0.9
N810 G3 Y59.875 Z-1 J0.1
N815 G1 Y59.975
N820 G17 G3 X10.8 Y60.075 I-0.1
N825 G1 X3 F800
N830 G2 X0.075 Y63 J2.925
N835 G1 Y77
N840 G2 X3 Y79.925 I2.925
N845 G1 X10.8
N850 G2 X13.725 Y77 J-2.925
N855 G1 Y63
N860 G2 X10.8 Y60.075 I-2.925
N865 G3 X10.7 Y59.975 J-0.1 F1000
N870 G1 Y59.875
N875 G19 G2 Y59.775 Z-0.9 K0.1
N880 G0 Z5
N885 X10.9
N890 G1 Z1 F1000
N895 Z-1.9
N900 G3 Y59.875 Z-2 J0.1
N905 G1 Y59.975
N910 G17 G3 X10.8 Y60.075 I-0.1
N915 G1 X3 F800
N920 G2 X0.075 Y63 J2.925
N925 G1 Y77
N930 G2 X3 Y79.925 I2.925
N935 G1 X10.8
N940 G2 X13.725 Y77 J-2.925
N945 G1 Y63
N950 G2 X10.8 Y60.075 I-2.925
N955 G3 X10.7 Y59.975 J-0.1 F1000
N960 G1 Y59.875
N965 G19 G2 Y59.775 Z-1.9 K0.1
N970 G0 Z5
N975 X10.9
N980 G1 Z0 F1000
N985 Z-2.9
N990 G3 Y59.875 Z-3 J0.1
N995 G1 Y59.975
N1000 G17 G3 X10.8 Y60.075 I-0.1
N1005 G1 X3 F800
N1010 G2 X0.075 Y63 J2.925
N1015 G1 Y77
N1020 G2 X3 Y79.925 I2.925
N1025 G1 X10.8
N1030 G2 X13.725 Y77 J-2.925
N1035 G1 Y63
N1040 G2 X10.8 Y60.075 I-2.925
N1045 G3 X10.7 Y59.975 J-0.1 F1000
N1050 G1 Y59.875
N1055 G19 G2 Y59.775 Z-2.9 K0.1
N1060 G0 Z5
N1065 X10.9
N1070 G1 Z-1 F1000
N1075 Z-3.9
N1080 G3 Y59.875 Z-4 J0.1
N1085 G1 Y59.975
N1090 G17 G3 X10.8 Y60.075 I-0.1
N1095 G1 X3 F800
N1100 G2 X0.075 Y63 J2.925
N1105 G1 Y77
N1110 G2 X3 Y79.925 I2.925
N1115 G1 X10.8
N1120 G2 X13.725 Y77 J-2.925
N1125 G1 Y63
N1130 G2 X10.8 Y60.075 I-2.925
N1135 G3 X10.7 Y59.975 J-0.1 F1000
N1140 G1 Y59.875
N1145 G19 G2 Y59.775 Z-3.9 K0.1
N1150 G0 Z5
N1155 X2.9 Y17.225
N1160 G1 Z2 F1000
N1165 Z-0.9
N1170 G2 Y17.125 Z-1 J-0.1
N1175 G1 Y17.025
N1180 G17 G3 X3 Y16.925 I0.1
N1185 G1 X10.8 F800
N1190 G2 X13.725 Y14 J-2.925
N1195 G1 Y0
N1200 G2 X10.8 Y-2.925 I-2.925
N1205 G1 X3
N1210 G2 X0.075 Y0 J2.925
N1215 G1 Y14
N1220 G2 X3 Y16.925 I2.925
N1225 G3 X3.1 Y17.025 J0.1 F1000
N1230 G1 Y17.125
N1235 G19 G3 Y17.225 Z-0.9 K0.1
N1240 G0 Z5
N1245 X2.9
N1250 G1 Z1 F1000
N1255 Z-1.9
N1260 G2 Y17.125 Z-2 J-0.1
N1265 G1 Y17.025
N1270 G17 G3 X3 Y16.925 I0.1
N1275 G1 X10.8 F800
N1280 G2 X13.725 Y14 J-2.925
N1285 G1 Y0
N1290 G2 X10.8 Y-2.925 I-2.925
N1295 G1 X3
N1300 G2 X0.075 Y0 J2.925
N1305 G1 Y14
N1310 G2 X3 Y16.925 I2.925
N1315 G3 X3.1 Y17.025 J0.1 F1000
N1320 G1 Y17.125
N1325 G19 G3 Y17.225 Z-1.9 K0.1
N1330 G0 Z5
N1335 X2.9
N1340 G1 Z0 F1000
N1345 Z-2.9
N1350 G2 Y17.125 Z-3 J-0.1
N1355 G1 Y17.025
N1360 G17 G3 X3 Y16.925 I0.1
N1365 G1 X10.8 F800
N1370 G2 X13.725 Y14 J-2.925
N1375 G1 Y0
N1380 G2 X10.8 Y-2.925 I-2.925
N1385 G1 X3
N1390 G2 X0.075 Y0 J2.925
N1395 G1 Y14
N1400 G2 X3 Y16.925 I2.925
N1405 G3 X3.1 Y17.025 J0.1 F1000
N1410 G1 Y17.125
N1415 G19 G3 Y17.225 Z-2.9 K0.1
N1420 G0 Z5
N1425 X2.9
N1430 G1 Z-1 F1000
N1435 Z-3.9
N1440 G2 Y17.125 Z-4 J-0.1
N1445 G1 Y17.025
N1450 G17 G3 X3 Y16.925 I0.1
N1455 G1 X10.8 F800
N1460 G2 X13.725 Y14 J-2.925
N1465 G1 Y0
N1470 G2 X10.8 Y-2.925 I-2.925
N1475 G1 X3
N1480 G2 X0.075 Y0 J2.925
N1485 G1 Y14
N1490 G2 X3 Y16.925 I2.925
N1495 G3 X3.1 Y17.025 J0.1 F1000
N1500 G1 Y17.125
N1505 G19 G3 Y17.225 Z-3.9 K0.1
N1510 G0 Z15
N1515 G17

(2D Contour1 2)
N1520 M8
N1525 G0 X13.611 Y38.775
N1530 Z15
N1535 Z5
N1540 G1 Z2 F1000
N1545 Z-0.9
N1550 G19 G3 Y38.875 Z-1 J0.1
N1555 G1 Y38.975
N1560 G17 G3 X13.511 Y39.075 I-0.1
N1565 G1 X0 F800
N1570 G2 X-2.925 Y42 J2.925
N1575 G1 Y56
N1580 G2 X0 Y58.925 I2.925
N1585 G1 X13.8
N1590 G2 X16.725 Y56 J-2.925
N1595 G1 Y42
N1600 G2 X13.8 Y39.075 I-2.925
N1605 G1 X13.511
N1610 G3 X13.411 Y38.975 J-0.1 F1000
N1615 G1 Y38.875
N1620 G19 G2 Y38.775 Z-0.9 K0.1
N1625 G0 Z5
N1630 X-0.1 Y38.225
N1635 G1 Z2 F1000
N1640 Z-0.9
N1645 G2 Y38.125 Z-1 J-0.1
N1650 G1 Y38.025
N1655 G17 G3 X0 Y37.925 I0.1
N1660 G1 X13.8 F800
N1665 G2 X16.725 Y35 J-2.925
N1670 G1 Y21
N1675 G2 X13.8 Y18.075 I-2.925
N1680 G1 X0
N1685 G2 X-2.925 Y21 J2.925
N1690 G1 Y35
N1695 G2 X0 Y37.925 I2.925
N1700 G3 X0.1 Y38.025 J0.1 F1000
N1705 G1 Y38.125
N1710 G19 G3 Y38.225 Z-0.9 K0.1
N1715 G0 Z5
N1720 X-0.1
N1725 G1 Z1 F1000
N1730 Z-1.9
N1735 G2 Y38.125 Z-2 J-0.1
N1740 G1 Y38.025
N1745 G17 G3 X0 Y37.925 I0.1
N1750 G1 X13.8 F800
N1755 G2 X16.725 Y35 J-2.925
N1760 G1 Y21
N1765 G2 X13.8 Y18.075 I-2.925
N1770 G1 X0
N1775 G2 X-2.925 Y21 J2.925
N1780 G1 Y35
N1785 G2 X0 Y37.925 I2.925
N1790 G3 X0.1 Y38.025 J0.1 F1000
N1795 G1 Y38.125
N1800 G19 G3 Y38.225 Z-1.9 K0.1
N1805 G0 Z5
N1810 X13.9 Y38.775
N1815 G1 Z1 F1000
N1820 Z-1.9
N1825 G3 Y38.875 Z-2 J0.1
N1830 G1 Y38.975
N1835 G17 G3 X13.8 Y39.075 I-0.1
N1840 G1 X0 F800
N1845 G2 X-2.925 Y42 J2.925
N1850 G1 Y56
N1855 G2 X0 Y58.925 I2.925
N1860 G1 X13.8
N1865 G2 X16.725 Y56 J-2.925
N1870 G1 Y42
N1875 G2 X13.8 Y39.075 I-2.925
N1880 G3 X13.7 Y38.975 J-0.1 F1000
N1885 G1 Y38.875
N1890 G19 G2 Y38.775 Z-1.9 K0.1
N1895 G0 Z5
N1900 X13.9
N1905 G1 Z0 F1000
N1910 Z-2.9
N1915 G3 Y38.875 Z-3 J0.1
N1920 G1 Y38.975
N1925 G17 G3 X13.8 Y39.075 I-0.1
N1930 G1 X0 F800
N1935 G2 X-2.925 Y42 J2.925
N1940 G1 Y56
N1945 G2 X0 Y58.925 I2.925
N1950 G1 X13.8
N1955 G2 X16.725 Y56 J-2.925
N1960 G1 Y42
N1965 G2 X13.8 Y39.075 I-2.925
N1970 G3 X13.7 Y38.975 J-0.1 F1000
N1975 G1 Y38.875
N1980 G19 G2 Y38.775 Z-2.9 K0.1
N1985 G0 Z5
N1990 X-0.1 Y38.225
N1995 G1 Z0 F1000
N2000 Z-2.9
N2005 G2 Y38.125 Z-3 J-0.1
N2010 G1 Y38.025
N2015 G17 G3 X0 Y37.925 I0.1
N2020 G1 X13.8 F800
N2025 G2 X16.725 Y35 J-2.925
N2030 G1 Y21
N2035 G2 X13.8 Y18.075 I-2.925
N2040 G1 X0
N2045 G2 X-2.925 Y21 J2.925
N2050 G1 Y35
N2055 G2 X0 Y37.925 I2.925
N2060 G3 X0.1 Y38.025 J0.1 F1000
N2065 G1 Y38.125
N2070 G19 G3 Y38.225 Z-2.9 K0.1
N2075 G0 Z5
N2080 X-0.1
N2085 G1 Z-1 F1000
N2090 Z-3.9
N2095 G2 Y38.125 Z-4 J-0.1
N2100 G1 Y38.025
N2105 G17 G3 X0 Y37.925 I0.1
N2110 G1 X13.8 F800
N2115 G2 X16.725 Y35 J-2.925
N2120 G1 Y21
N2125 G2 X13.8 Y18.075 I-2.925
N2130 G1 X0
N2135 G2 X-2.925 Y21 J2.925
N2140 G1 Y35
N2145 G2 X0 Y37.925 I2.925
N2150 G3 X0.1 Y38.025 J0.1 F1000
N2155 G1 Y38.125
N2160 G19 G3 Y38.225 Z-3.9 K0.1
N2165 G0 Z5
N2170 X13.9 Y38.775
N2175 G1 Z-1 F1000
N2180 Z-3.9
N2185 G3 Y38.875 Z-4 J0.1
N2190 G1 Y38.975
N2195 G17 G3 X13.8 Y39.075 I-0.1
N2200 G1 X0 F800
N2205 G2 X-2.925 Y42 J2.925
N2210 G1 Y56
N2215 G2 X0 Y58.925 I2.925
N2220 G1 X13.8
N2225 G2 X16.725 Y56 J-2.925
N2230 G1 Y42
N2235 G2 X13.8 Y39.075 I-2.925
N2240 G3 X13.7 Y38.975 J-0.1 F1000
N2245 G1 Y38.875
N2250 G19 G2 Y38.775 Z-3.9 K0.1
N2255 G0 Z5
N2260 X13.9
N2265 G1 Z-2 F1000
N2270 Z-4.9
N2275 G3 Y38.875 Z-5 J0.1
N2280 G1 Y38.975
N2285 G17 G3 X13.8 Y39.075 I-0.1
N2290 G1 X0 F800
N2295 G2 X-2.925 Y42 J2.925
N2300 G1 Y56
N2305 G2 X0 Y58.925 I2.925
N2310 G1 X13.8
N2315 G2 X16.725 Y56 J-2.925
N2320 G1 Y42
N2325 G2 X13.8 Y39.075 I-2.925
N2330 G3 X13.7 Y38.975 J-0.1 F1000
N2335 G1 Y38.875
N2340 G19 G2 Y38.775 Z-4.9 K0.1
N2345 G0 Z5
N2350 X-0.1 Y38.225
N2355 G1 Z-2 F1000
N2360 Z-4.9
N2365 G2 Y38.125 Z-5 J-0.1
N2370 G1 Y38.025
N2375 G17 G3 X0 Y37.925 I0.1
N2380 G1 X13.8 F800
N2385 G2 X16.725 Y35 J-2.925
N2390 G1 Y21
N2395 G2 X13.8 Y18.075 I-2.925
N2400 G1 X0
N2405 G2 X-2.925 Y21 J2.925
N2410 G1 Y35
N2415 G2 X0 Y37.925 I2.925
N2420 G3 X0.1 Y38.025 J0.1 F1000
N2425 G1 Y38.125
N2430 G19 G3 Y38.225 Z-4.9 K0.1
N2435 G0 Z5
N2440 X-0.1
N2445 G1 Z-3 F1000
N2450 Z-5.9
N2455 G2 Y38.125 Z-6 J-0.1
N2460 G1 Y38.025
N2465 G17 G3 X0 Y37.925 I0.1
N2470 G1 X13.8 F800
N2475 G2 X16.725 Y35 J-2.925
N2480 G1 Y21
N2485 G2 X13.8 Y18.075 I-2.925
N2490 G1 X0
N2495 G2 X-2.925 Y21 J2.925
N2500 G1 Y35
N2505 G2 X0 Y37.925 I2.925
N2510 G3 X0.1 Y38.025 J0.1 F1000
N2515 G1 Y38.125
N2520 G19 G3 Y38.225 Z-5.9 K0.1
N2525 G0 Z5
N2530 X13.9 Y38.775
N2535 G1 Z-3 F1000
N2540 Z-5.9
N2545 G3 Y38.875 Z-6 J0.1
N2550 G1 Y38.975
N2555 G17 G3 X13.8 Y39.075 I-0.1
N2560 G1 X0 F800
N2565 G2 X-2.925 Y42 J2.925
N2570 G1 Y56
N2575 G2 X0 Y58.925 I2.925
N2580 G1 X13.8
N2585 G2 X16.725 Y56 J-2.925
N2590 G1 Y42
N2595 G2 X13.8 Y39.075 I-2.925
N2600 G3 X13.7 Y38.975 J-0.1 F1000
N2605 G1 Y38.875
N2610 G19 G2 Y38.775 Z-5.9 K0.1
N2615 G0 Z5
N2620 X13.9
N2625 G1 Z-4 F1000
N2630 Z-6.9
N2635 G3 Y38.875 Z-7 J0.1
N2640 G1 Y38.975
N2645 G17 G3 X13.8 Y39.075 I-0.1
N2650 G1 X0 F800
N2655 G2 X-2.925 Y42 J2.925
N2660 G1 Y56
N2665 G2 X0 Y58.925 I2.925
N2670 G1 X13.8
N2675 G2 X16.725 Y56 J-2.925
N2680 G1 Y42
N2685 G2 X13.8 Y39.075 I-2.925
N2690 G3 X13.7 Y38.975 J-0.1 F1000
N2695 G1 Y38.875
N2700 G19 G2 Y38.775 Z-6.9 K0.1
N2705 G0 Z5
N2710 X-0.1 Y38.225
N2715 G1 Z-4 F1000
N2720 Z-6.9
N2725 G2 Y38.125 Z-7 J-0.1
N2730 G1 Y38.025
N2735 G17 G3 X0 Y37.925 I0.1
N2740 G1 X13.8 F800
N2745 G2 X16.725 Y35 J-2.925
N2750 G1 Y21
N2755 G2 X13.8 Y18.075 I-2.925
N2760 G1 X0
N2765 G2 X-2.925 Y21 J2.925
N2770 G1 Y35
N2775 G2 X0 Y37.925 I2.925
N2780 G3 X0.1 Y38.025 J0.1 F1000
N2785 G1 Y38.125
N2790 G19 G3 Y38.225 Z-6.9 K0.1
N2795 G0 Z5
N2800 X-0.1
N2805 G1 Z-5 F1000
N2810 Z-7.9
N2815 G2 Y38.125 Z-8 J-0.1
N2820 G1 Y38.025
N2825 G17 G3 X0 Y37.925 I0.1
N2830 G1 X13.8 F800
N2835 G2 X16.725 Y35 J-2.925
N2840 G1 Y21
N2845 G2 X13.8 Y18.075 I-2.925
N2850 G1 X0
N2855 G2 X-2.925 Y21 J2.925
N2860 G1 Y35
N2865 G2 X0 Y37.925 I2.925
N2870 G3 X0.1 Y38.025 J0.1 F1000
N2875 G1 Y38.125
N2880 G19 G3 Y38.225 Z-7.9 K0.1
N2885 G0 Z5
N2890 X13.9 Y38.775
N2895 G1 Z-5 F1000
N2900 Z-7.9
N2905 G3 Y38.875 Z-8 J0.1
N2910 G1 Y38.975
N2915 G17 G3 X13.8 Y39.075 I-0.1
N2920 G1 X0 F800
N2925 G2 X-2.925 Y42 J2.925
N2930 G1 Y56
N2935 G2 X0 Y58.925 I2.925
N2940 G1 X13.8
N2945 G2 X16.725 Y56 J-2.925
N2950 G1 Y42
N2955 G2 X13.8 Y39.075 I-2.925
N2960 G3 X13.7 Y38.975 J-0.1 F1000
N2965 G1 Y38.875
N2970 G19 G2 Y38.775 Z-7.9 K0.1
N2975 G0 Z5
N2980 X13.9
N2985 G1 Z-6 F1000
N2990 Z-8.9
N2995 G3 Y38.875 Z-9 J0.1
N3000 G1 Y38.975
N3005 G17 G3 X13.8 Y39.075 I-0.1
N3010 G1 X0 F800
N3015 G2 X-2.925 Y42 J2.925
N3020 G1 Y56
N3025 G2 X0 Y58.925 I2.925
N3030 G1 X13.8
N3035 G2 X16.725 Y56 J-2.925
N3040 G1 Y42
N3045 G2 X13.8 Y39.075 I-2.925
N3050 G3 X13.7 Y38.975 J-0.1 F1000
N3055 G1 Y38.875
N3060 G19 G2 Y38.775 Z-8.9 K0.1
N3065 G0 Z5
N3070 X-0.1 Y38.225
N3075 G1 Z-6 F1000
N3080 Z-8.9
N3085 G2 Y38.125 Z-9 J-0.1
N3090 G1 Y38.025
N3095 G17 G3 X0 Y37.925 I0.1
N3100 G1 X13.8 F800
N3105 G2 X16.725 Y35 J-2.925
N3110 G1 Y21
N3115 G2 X13.8 Y18.075 I-2.925
N3120 G1 X0
N3125 G2 X-2.925 Y21 J2.925
N3130 G1 Y35
N3135 G2 X0 Y37.925 I2.925
N3140 G3 X0.1 Y38.025 J0.1 F1000
N3145 G1 Y38.125
N3150 G19 G3 Y38.225 Z-8.9 K0.1
N3155 G0 Z5
N3160 X-0.1
N3165 G1 Z-7 F1000
N3170 Z-9.9
N3175 G2 Y38.125 Z-10 J-0.1
N3180 G1 Y38.025
N3185 G17 G3 X0 Y37.925 I0.1
N3190 G1 X3.56 F800
N3195 Z-9
N3200 X10.41
N3205 Z-10 F333.3
N3210 X13.8 F800
N3215 G2 X16.725 Y35 J-2.925
N3220 G1 Y31.182
N3225 Z-9
N3230 Y24.332
N3235 Z-10 F333.3
N3240 Y21 F800
N3245 G2 X13.8 Y18.075 I-2.925
N3250 G1 X10.516
N3255 Z-9
N3260 X3.666
N3265 Z-10 F333.3
N3270 X0 F800
N3275 G2 X-2.925 Y21 J2.925
N3280 G1 Y24.862
N3285 Z-9
N3290 Y31.712
N3295 Z-10 F333.3
N3300 Y35 F800
N3305 G2 X0 Y37.925 I2.925
N3310 G3 X0.1 Y38.025 J0.1 F1000
N3315 G1 Y38.125
N3320 G19 G3 Y38.225 Z-9.9 K0.1
N3325 G0 Z5
N3330 X13.9 Y38.775
N3335 G1 Z-7 F1000
N3340 Z-9.9
N3345 G3 Y38.875 Z-10 J0.1
N3350 G1 Y38.975
N3355 G17 G3 X13.8 Y39.075 I-0.1
N3360 G1 X10.41 F800
N3365 Z-9
N3370 X3.56
N3375 Z-10 F333.3
N3380 X0 F800
N3385 G2 X-2.925 Y42 J2.925
N3390 G1 Y45.534
N3395 Z-9
N3400 Y52.384
N3405 Z-10 F333.3
N3410 Y56 F800
N3415 G2 X0 Y58.925 I2.925
N3420 G1 X3.772
N3425 Z-9
N3430 X10.622
N3435 Z-10 F333.3
N3440 X13.8 F800
N3445 G2 X16.725 Y56 J-2.925
N3450 G1 Y51.642
N3455 Z-9
N3460 Y44.792
N3465 Z-10 F333.3
N3470 Y42 F800
N3475 G2 X13.8 Y39.075 I-2.925
N3480 G3 X13.7 Y38.975 J-0.1 F1000
N3485 G1 Y38.875
N3490 G19 G2 Y38.775 Z-9.9 K0.1
N3495 G0 Z5
N3500 X13.9 Y59.775
N3505 G1 Z2 F1000
N3510 Z-0.9
N3515 G3 Y59.875 Z-1 J0.1
N3520 G1 Y59.975
N3525 G17 G3 X13.8 Y60.075 I-0.1
N3530 G1 X0 F800
N3535 G2 X-2.925 Y63 J2.925
N3540 G1 Y77
N3545 G2 X0 Y79.925 I2.925
N3550 G1 X13.8
N3555 G2 X16.725 Y77 J-2.925
N3560 G1 Y63
N3565 G2 X13.8 Y60.075 I-2.925
N3570 G3 X13.7 Y59.975 J-0.1 F1000
N3575 G1 Y59.875
N3580 G19 G2 Y59.775 Z-0.9 K0.1
N3585 G0 Z5
N3590 X17.025 Y77.1
N3595 G1 Z1 F1000
N3600 Z-1.9
N3605 G18 G3 X16.925 Z-2 I-0.1
N3610 G1 X16.825
N3615 G17 G3 X16.725 Y77 J-0.1
N3620 G1 Y63 F800
N3625 G2 X13.8 Y60.075 I-2.925
N3630 G1 X0
N3635 G2 X-2.925 Y63 J2.925
N3640 G1 Y77
N3645 G2 X0 Y79.925 I2.925
N3650 G1 X13.8
N3655 G2 X16.725 Y77 J-2.925
N3660 G3 X16.825 Y76.9 I0.1 F1000
N3665 G1 X16.925
N3670 G18 G2 X17.025 Z-1.9 K0.1
N3675 G0 Z5
N3680 Y77.1
N3685 G1 Z0 F1000
N3690 Z-2.9
N3695 G3 X16.925 Z-3 I-0.1
N3700 G1 X16.825
N3705 G17 G3 X16.725 Y77 J-0.1
N3710 G1 Y63 F800
N3715 G2 X13.8 Y60.075 I-2.925
N3720 G1 X0
N3725 G2 X-2.925 Y63 J2.925
N3730 G1 Y77
N3735 G2 X0 Y79.925 I2.925
N3740 G1 X13.8
N3745 G2 X16.725 Y77 J-2.925
N3750 G3 X16.825 Y76.9 I0.1 F1000
N3755 G1 X16.925
N3760 G18 G2 X17.025 Z-2.9 K0.1
N3765 G0 Z5
N3770 Y77.1
N3775 G1 Z-1 F1000
N3780 Z-3.9
N3785 G3 X16.925 Z-4 I-0.1
N3790 G1 X16.825
N3795 G17 G3 X16.725 Y77 J-0.1
N3800 G1 Y63 F800
N3805 G2 X13.8 Y60.075 I-2.925
N3810 G1 X0
N3815 G2 X-2.925 Y63 J2.925
N3820 G1 Y77
N3825 G2 X0 Y79.925 I2.925
N3830 G1 X13.8
N3835 G2 X16.725 Y77 J-2.925
N3840 G3 X16.825 Y76.9 I0.1 F1000
N3845 G1 X16.925
N3850 G18 G2 X17.025 Z-3.9 K0.1
N3855 G0 Z5
N3860 Y77.1
N3865 G1 Z-2 F1000
N3870 Z-4.9
N3875 G3 X16.925 Z-5 I-0.1
N3880 G1 X16.825
N3885 G17 G3 X16.725 Y77 J-0.1
N3890 G1 Y63 F800
N3895 G2 X13.8 Y60.075 I-2.925
N3900 G1 X0
N3905 G2 X-2.925 Y63 J2.925
N3910 G1 Y77
N3915 G2 X0 Y79.925 I2.925
N3920 G1 X13.8
N3925 G2 X16.725 Y77 J-2.925
N3930 G3 X16.825 Y76.9 I0.1 F1000
N3935 G1 X16.925
N3940 G18 G2 X17.025 Z-4.9 K0.1
N3945 G0 Z5
N3950 Y77.1
N3955 G1 Z-3 F1000
N3960 Z-5.9
N3965 G3 X16.925 Z-6 I-0.1
N3970 G1 X16.825
N3975 G17 G3 X16.725 Y77 J-0.1
N3980 G1 Y63 F800
N3985 G2 X13.8 Y60.075 I-2.925
N3990 G1 X0
N3995 G2 X-2.925 Y63 J2.925
N4000 G1 Y77
N4005 G2 X0 Y79.925 I2.925
N4010 G1 X13.8
N4015 G2 X16.725 Y77 J-2.925
N4020 G3 X16.825 Y76.9 I0.1 F1000
N4025 G1 X16.925
N4030 G18 G2 X17.025 Z-5.9 K0.1
N4035 G0 Z5
N4040 Y77.1
N4045 G1 Z-4 F1000
N4050 Z-6.9
N4055 G3 X16.925 Z-7 I-0.1
N4060 G1 X16.825
N4065 G17 G3 X16.725 Y77 J-0.1
N4070 G1 Y63 F800
N4075 G2 X13.8 Y60.075 I-2.925
N4080 G1 X0
N4085 G2 X-2.925 Y63 J2.925
N4090 G1 Y77
N4095 G2 X0 Y79.925 I2.925
N4100 G1 X13.8
N4105 G2 X16.725 Y77 J-2.925
N4110 G3 X16.825 Y76.9 I0.1 F1000
N4115 G1 X16.925
N4120 G18 G2 X17.025 Z-6.9 K0.1
N4125 G0 Z5
N4130 Y77.1
N4135 G1 Z-5 F1000
N4140 Z-7.9
N4145 G3 X16.925 Z-8 I-0.1
N4150 G1 X16.825
N4155 G17 G3 X16.725 Y77 J-0.1
N4160 G1 Y63 F800
N4165 G2 X13.8 Y60.075 I-2.925
N4170 G1 X0
N4175 G2 X-2.925 Y63 J2.925
N4180 G1 Y77
N4185 G2 X0 Y79.925 I2.925
N4190 G1 X13.8
N4195 G2 X16.725 Y77 J-2.925
N4200 G3 X16.825 Y76.9 I0.1 F1000
N4205 G1 X16.925
N4210 G18 G2 X17.025 Z-7.9 K0.1
N4215 G0 Z5
N4220 Y77.1
N4225 G1 Z-6 F1000
N4230 Z-8.9
N4235 G3 X16.925 Z-9 I-0.1
N4240 G1 X16.825
N4245 G17 G3 X16.725 Y77 J-0.1
N4250 G1 Y63 F800
N4255 G2 X13.8 Y60.075 I-2.925
N4260 G1 X0
N4265 G2 X-2.925 Y63 J2.925
N4270 G1 Y77
N4275 G2 X0 Y79.925 I2.925
N4280 G1 X13.8
N4285 G2 X16.725 Y77 J-2.925
N4290 G3 X16.825 Y76.9 I0.1 F1000
N4295 G1 X16.925
N4300 G18 G2 X17.025 Z-8.9 K0.1
N4305 G0 Z5
N4310 Y77.1
N4315 G1 Z-7 F1000
N4320 Z-9.9
N4325 G3 X16.925 Z-10 I-0.1
N4330 G1 X16.825
N4335 G17 G3 X16.725 Y77 J-0.1
N4340 G1 Y74.116 F800
N4345 Z-9
N4350 Y67.266
N4355 Z-10 F333.3
N4360 Y63 F800
N4365 G2 X13.8 Y60.075 I-2.925
N4370 G1 X10.622
N4375 Z-9
N4380 X3.772
N4385 Z-10 F333.3
N4390 X0 F800
N4395 G2 X-2.925 Y63 J2.925
N4400 G1 Y67.054
N4405 Z-9
N4410 Y73.904
N4415 Z-10 F333.3
N4420 Y77 F800
N4425 G2 X0 Y79.925 I2.925
N4430 G1 X3.772
N4435 Z-9
N4440 X10.622
N4445 Z-10 F333.3
N4450 X13.8 F800
N4455 G2 X16.725 Y77 J-2.925
N4460 G3 X16.825 Y76.9 I0.1 F1000
N4465 G1 X16.925
N4470 G18 G2 X17.025 Z-9.9 K0.1
N4475 G0 Z5
N4480 X-3.225 Y-0.1
N4485 G1 Z2 F1000
N4490 Z-0.9
N4495 G2 X-3.125 Z-1 I0.1
N4500 G1 X-3.025
N4505 G17 G3 X-2.925 Y0 J0.1
N4510 G1 Y14 F800
N4515 G2 X0 Y16.925 I2.925
N4520 G1 X13.8
N4525 G2 X16.725 Y14 J-2.925
N4530 G1 Y0
N4535 G2 X13.8 Y-2.925 I-2.925
N4540 G1 X0
N4545 G2 X-2.925 Y0 J2.925
N4550 G3 X-3.025 Y0.1 I-0.1 F1000
N4555 G1 X-3.125
N4560 G18 G3 X-3.225 Z-0.9 K0.1
N4565 G0 Z5
N4570 Y-0.1
N4575 G1 Z1 F1000
N4580 Z-1.9
N4585 G2 X-3.125 Z-2 I0.1
N4590 G1 X-3.025
N4595 G17 G3 X-2.925 Y0 J0.1
N4600 G1 Y14 F800
N4605 G2 X0 Y16.925 I2.925
N4610 G1 X13.8
N4615 G2 X16.725 Y14 J-2.925
N4620 G1 Y0
N4625 G2 X13.8 Y-2.925 I-2.925
N4630 G1 X0
N4635 G2 X-2.925 Y0 J2.925
N4640 G3 X-3.025 Y0.1 I-0.1 F1000
N4645 G1 X-3.125
N4650 G18 G3 X-3.225 Z-1.9 K0.1
N4655 G0 Z5
N4660 Y-0.1
N4665 G1 Z0 F1000
N4670 Z-2.9
N4675 G2 X-3.125 Z-3 I0.1
N4680 G1 X-3.025
N4685 G17 G3 X-2.925 Y0 J0.1
N4690 G1 Y14 F800
N4695 G2 X0 Y16.925 I2.925
N4700 G1 X13.8
N4705 G2 X16.725 Y14 J-2.925
N4710 G1 Y0
N4715 G2 X13.8 Y-2.925 I-2.925
N4720 G1 X0
N4725 G2 X-2.925 Y0 J2.925
N4730 G3 X-3.025 Y0.1 I-0.1 F1000
N4735 G1 X-3.125
N4740 G18 G3 X-3.225 Z-2.9 K0.1
N4745 G0 Z5
N4750 Y-0.1
N4755 G1 Z-1 F1000
N4760 Z-3.9
N4765 G2 X-3.125 Z-4 I0.1
N4770 G1 X-3.025
N4775 G17 G3 X-2.925 Y0 J0.1
N4780 G1 Y14 F800
N4785 G2 X0 Y16.925 I2.925
N4790 G1 X13.8
N4795 G2 X16.725 Y14 J-2.925
N4800 G1 Y0
N4805 G2 X13.8 Y-2.925 I-2.925
N4810 G1 X0
N4815 G2 X-2.925 Y0 J2.925
N4820 G3 X-3.025 Y0.1 I-0.1 F1000
N4825 G1 X-3.125
N4830 G18 G3 X-3.225 Z-3.9 K0.1
N4835 G0 Z5
N4840 Y-0.1
N4845 G1 Z-2 F1000
N4850 Z-4.9
N4855 G2 X-3.125 Z-5 I0.1
N4860 G1 X-3.025
N4865 G17 G3 X-2.925 Y0 J0.1
N4870 G1 Y14 F800
N4875 G2 X0 Y16.925 I2.925
N4880 G1 X13.8
N4885 G2 X16.725 Y14 J-2.925
N4890 G1 Y0
N4895 G2 X13.8 Y-2.925 I-2.925
N4900 G1 X0
N4905 G2 X-2.925 Y0 J2.925
N4910 G3 X-3.025 Y0.1 I-0.1 F1000
N4915 G1 X-3.125
N4920 G18 G3 X-3.225 Z-4.9 K0.1
N4925 G0 Z5
N4930 Y-0.1
N4935 G1 Z-3 F1000
N4940 Z-5.9
N4945 G2 X-3.125 Z-6 I0.1
N4950 G1 X-3.025
N4955 G17 G3 X-2.925 Y0 J0.1
N4960 G1 Y14 F800
N4965 G2 X0 Y16.925 I2.925
N4970 G1 X13.8
N4975 G2 X16.725 Y14 J-2.925
N4980 G1 Y0
N4985 G2 X13.8 Y-2.925 I-2.925
N4990 G1 X0
N4995 G2 X-2.925 Y0 J2.925
N5000 G3 X-3.025 Y0.1 I-0.1 F1000
N5005 G1 X-3.125
N5010 G18 G3 X-3.225 Z-5.9 K0.1
N5015 G0 Z5
N5020 Y-0.1
N5025 G1 Z-4 F1000
N5030 Z-6.9
N5035 G2 X-3.125 Z-7 I0.1
N5040 G1 X-3.025
N5045 G17 G3 X-2.925 Y0 J0.1
N5050 G1 Y14 F800
N5055 G2 X0 Y16.925 I2.925
N5060 G1 X13.8
N5065 G2 X16.725 Y14 J-2.925
N5070 G1 Y0
N5075 G2 X13.8 Y-2.925 I-2.925
N5080 G1 X0
N5085 G2 X-2.925 Y0 J2.925
N5090 G3 X-3.025 Y0.1 I-0.1 F1000
N5095 G1 X-3.125
N5100 G18 G3 X-3.225 Z-6.9 K0.1
N5105 G0 Z5
N5110 Y-0.1
N5115 G1 Z-5 F1000
N5120 Z-7.9
N5125 G2 X-3.125 Z-8 I0.1
N5130 G1 X-3.025
N5135 G17 G3 X-2.925 Y0 J0.1
N5140 G1 Y14 F800
N5145 G2 X0 Y16.925 I2.925
N5150 G1 X13.8
N5155 G2 X16.725 Y14 J-2.925
N5160 G1 Y0
N5165 G2 X13.8 Y-2.925 I-2.925
N5170 G1 X0
N5175 G2 X-2.925 Y0 J2.925
N5180 G3 X-3.025 Y0.1 I-0.1 F1000
N5185 G1 X-3.125
N5190 G18 G3 X-3.225 Z-7.9 K0.1
N5195 G0 Z5
N5200 Y-0.1
N5205 G1 Z-6 F1000
N5210 Z-8.9
N5215 G2 X-3.125 Z-9 I0.1
N5220 G1 X-3.025
N5225 G17 G3 X-2.925 Y0 J0.1
N5230 G1 Y14 F800
N5235 G2 X0 Y16.925 I2.925
N5240 G1 X13.8
N5245 G2 X16.725 Y14 J-2.925
N5250 G1 Y0
N5255 G2 X13.8 Y-2.925 I-2.925
N5260 G1 X0
N5265 G2 X-2.925 Y0 J2.925
N5270 G3 X-3.025 Y0.1 I-0.1 F1000
N5275 G1 X-3.125
N5280 G18 G3 X-3.225 Z-8.9 K0.1
N5285 G0 Z5
N5290 Y-0.1
N5295 G1 Z-7 F1000
N5300 Z-9.9
N5305 G2 X-3.125 Z-10 I0.1
N5310 G1 X-3.025
N5315 G17 G3 X-2.925 Y0 J0.1
N5320 G1 Y3.872 F800
N5325 Z-9
N5330 Y10.722
N5335 Z-10 F333.3
N5340 Y14 F800
N5345 G2 X0 Y16.925 I2.925
N5350 G1 X3.666
N5355 Z-9
N5360 X10.516
N5365 Z-10 F333.3
N5370 X13.8 F800
N5375 G2 X16.725 Y14 J-2.925
N5380 G1 Y9.98
N5385 Z-9
N5390 Y3.13
N5395 Z-10 F333.3
N5400 Y0 F800
N5405 G2 X13.8 Y-2.925 I-2.925
N5410 G1 X10.41
N5415 Z-9
N5420 X3.56
N5425 Z-10 F333.3
N5430 X0 F800
N5435 G2 X-2.925 Y0 J2.925
N5440 G3 X-3.025 Y0.1 I-0.1 F1000
N5445 G1 X-3.125
N5450 G18 G3 X-3.225 Z-9.9 K0.1
N5455 G0 Z15
N5460 G17
N5465 M9
N5470 G28 G91 Z0
N5475 G28 X0 Y0
N5480 M30
%
