%
O00001001
(T1  D=8. CR=0. - ZMIN=-1. - FLAT END MILL)
G90 G94 G17
G21
G91
G28 Z0.
G90
(FACE1)
T1 M6
S8000 M3
G54
G0 X145.2 Y3.584
G43 Z15. H1
G0 Z5.
G1 Z-0.2 F300.
G18 G3 X144.4 Z-1. I-0.8
G1 X140.
X40. F1600.
G17 G2 Y11.092 J3.754
G1 X140.
G3 Y18.6 J3.754
G1 X40.
G2 Y26.108 J3.754
G1 X138.706
G3 Y33.616 J3.754
G1 X121.536
X40.
G2 Y41.124 J3.754
G1 X91.504
G18 G2 X92.304 Z-0.2 K0.8 F300.
G0 Z5.
X15.2 Y7.751
G1 Z-0.2 F300.
G3 X14.4 Z-1. I-0.8
G1 X10.
X0. F1600.
G17 G2 Y14.425 J3.337
G1 X10.
G3 Y21.1 J3.337
G1 X0.
G2 Y27.775 J3.337
G1 X10.
G3 Y34.449 J3.337
G1 X0.
G2 Y41.124 J3.337
G1 X10.
G18 G2 X10.8 Z-0.2 K0.8 F300.
G0 Z15.
G17
G91
G28 Z0.
G90
M5
G91
G28 X0. Y0.
G90
M30
%
