%
O00001003
(T1  D=10. CR=0. - ZMIN=-21. - FLAT END MILL)
G90 G94 G17
G21
G91
G28 Z0.
G90
(2D POCKET1)
T1 M6
S12000 M3
G54
G0 X23.227 Y49.932
G43 Z15. H1
G0 Z5.
G1 Z2. F600.
Z-1.
Y49.893
Y0.113 F2400.
G3 X23.427 Y-0.087 I0.2
G1 X26.572 Y-0.093
G3 X26.773 Y0.107 J0.2
G1 Y49.887
G3 X26.573 Y50.087 I-0.2
G1 X15.2 Y50.089
G3 X15. Y49.889 J-0.2
G1 Y0.103
G3 X15.2 Y-0.097 I0.2
G1 X34.8 Y-0.089
G3 X35. Y0.111 J0.2
G1 Y49.897
G3 X34.801 Y50.097 I-0.2
G1 X23.428 Y50.132
G3 X23.227 Y49.932 I-0.001 J-0.2
G1 Z-2. F600.
Y49.893
Y0.113 F2400.
G3 X23.427 Y-0.087 I0.2
G1 X26.572 Y-0.093
G3 X26.773 Y0.107 J0.2
G1 Y49.887
G3 X26.573 Y50.087 I-0.2
G1 X15.2 Y50.089
G3 X15. Y49.889 J-0.2
G1 Y0.103
G3 X15.2 Y-0.097 I0.2
G1 X34.8 Y-0.089
G3 X35. Y0.111 J0.2
G1 Y49.897
G3 X34.801 Y50.097 I-0.2
G1 X23.428 Y50.132
G3 X23.227 Y49.932 I-0.001 J-0.2
G1 Z-3. F600.
Y49.893
Y0.113 F2400.
G3 X23.427 Y-0.087 I0.2
G1 X26.572 Y-0.093
G3 X26.773 Y0.107 J0.2
G1 Y49.887
G3 X26.573 Y50.087 I-0.2
G1 X15.2 Y50.089
G3 X15. Y49.889 J-0.2
G1 Y0.103
G3 X15.2 Y-0.097 I0.2
G1 X34.8 Y-0.089
G3 X35. Y0.111 J0.2
G1 Y49.897
G3 X34.801 Y50.097 I-0.2
G1 X23.428 Y50.132
G3 X23.227 Y49.932 I-0.001 J-0.2
G1 Z-4. F600.
Y49.893
Y0.113 F2400.
G3 X23.427 Y-0.087 I0.2
G1 X26.572 Y-0.093
G3 X26.773 Y0.107 J0.2
G1 Y49.887
G3 X26.573 Y50.087 I-0.2
G1 X15.2 Y50.089
G3 X15. Y49.889 J-0.2
G1 Y0.103
G3 X15.2 Y-0.097 I0.2
G1 X34.8 Y-0.089
G3 X35. Y0.111 J0.2
G1 Y49.897
G3 X34.801 Y50.097 I-0.2
G1 X23.428 Y50.132
G3 X23.227 Y49.932 I-0.001 J-0.2
G1 Z-5. F600.
Y49.893
Y0.113 F2400.
G3 X23.427 Y-0.087 I0.2
G1 X26.572 Y-0.093
G3 X26.773 Y0.107 J0.2
G1 Y49.887
G3 X26.573 Y50.087 I-0.2
G1 X15.2 Y50.089
G3 X15. Y49.889 J-0.2
G1 Y0.103
G3 X15.2 Y-0.097 I0.2
G1 X34.8 Y-0.089
G3 X35. Y0.111 J0.2
G1 Y49.897
G3 X34.801 Y50.097 I-0.2
G1 X23.428 Y50.132
G3 X23.227 Y49.932 I-0.001 J-0.2
G1 Z-6. F600.
Y49.893
Y0.113 F2400.
G3 X23.427 Y-0.087 I0.2
G1 X26.572 Y-0.093
G3 X26.773 Y0.107 J0.2
G1 Y49.887
G3 X26.573 Y50.087 I-0.2
G1 X15.2 Y50.089
G3 X15. Y49.889 J-0.2
G1 Y0.103
G3 X15.2 Y-0.097 I0.2
G1 X34.8 Y-0.089
G3 X35. Y0.111 J0.2
G1 Y49.897
G3 X34.801 Y50.097 I-0.2
G1 X23.428 Y50.132
G3 X23.227 Y49.932 I-0.001 J-0.2
G1 Z-7. F600.
Y49.893
Y0.113 F2400.
G3 X23.427 Y-0.087 I0.2
G1 X26.572 Y-0.093
G3 X26.773 Y0.107 J0.2
G1 Y49.887
G3 X26.573 Y50.087 I-0.2
G1 X15.2 Y50.089
G3 X15. Y49.889 J-0.2
G1 Y0.103
G3 X15.2 Y-0.097 I0.2
G1 X34.8 Y-0.089
G3 X35. Y0.111 J0.2
G1 Y49.897
G3 X34.801 Y50.097 I-0.2
G1 X23.428 Y50.132
G3 X23.227 Y49.932 I-0.001 J-0.2
G1 Z-8. F600.
Y49.893
Y0.113 F2400.
G3 X23.427 Y-0.087 I0.2
G1 X26.572 Y-0.093
G3 X26.773 Y0.107 J0.2
G1 Y49.887
G3 X26.573 Y50.087 I-0.2
G1 X15.2 Y50.089
G3 X15. Y49.889 J-0.2
G1 Y0.103
G3 X15.2 Y-0.097 I0.2
G1 X34.8 Y-0.089
G3 X35. Y0.111 J0.2
G1 Y49.897
G3 X34.801 Y50.097 I-0.2
G1 X23.428 Y50.132
G3 X23.227 Y49.932 I-0.001 J-0.2
G1 Z-9. F600.
Y49.893
Y0.113 F2400.
G3 X23.427 Y-0.087 I0.2
G1 X26.572 Y-0.093
G3 X26.773 Y0.107 J0.2
G1 Y49.887
G3 X26.573 Y50.087 I-0.2
G1 X15.2 Y50.089
G3 X15. Y49.889 J-0.2
G1 Y0.103
G3 X15.2 Y-0.097 I0.2
G1 X34.8 Y-0.089
G3 X35. Y0.111 J0.2
G1 Y49.897
G3 X34.801 Y50.097 I-0.2
G1 X23.428 Y50.132
G3 X23.227 Y49.932 I-0.001 J-0.2
G1 Z-10. F600.
Y49.893
Y0.113 F2400.
G3 X23.427 Y-0.087 I0.2
G1 X26.572 Y-0.093
G3 X26.773 Y0.107 J0.2
G1 Y49.887
G3 X26.573 Y50.087 I-0.2
G1 X15.2 Y50.089
G3 X15. Y49.889 J-0.2
G1 Y0.103
G3 X15.2 Y-0.097 I0.2
G1 X34.8 Y-0.089
G3 X35. Y0.111 J0.2
G1 Y49.897
G3 X34.801 Y50.097 I-0.2
G1 X23.428 Y50.132
G3 X23.227 Y49.932 I-0.001 J-0.2
G1 Z-11. F600.
Y49.893
Y0.113 F2400.
G3 X23.427 Y-0.087 I0.2
G1 X26.572 Y-0.093
G3 X26.773 Y0.107 J0.2
G1 Y49.887
G3 X26.573 Y50.087 I-0.2
G1 X15.2 Y50.089
G3 X15. Y49.889 J-0.2
G1 Y0.103
G3 X15.2 Y-0.097 I0.2
G1 X34.8 Y-0.089
G3 X35. Y0.111 J0.2
G1 Y49.897
G3 X34.801 Y50.097 I-0.2
G1 X23.428 Y50.132
G3 X23.227 Y49.932 I-0.001 J-0.2
G1 Z-12. F600.
Y49.893
Y0.113 F2400.
G3 X23.427 Y-0.087 I0.2
G1 X26.572 Y-0.093
G3 X26.773 Y0.107 J0.2
G1 Y49.887
G3 X26.573 Y50.087 I-0.2
G1 X15.2 Y50.089
G3 X15. Y49.889 J-0.2
G1 Y0.103
G3 X15.2 Y-0.097 I0.2
G1 X34.8 Y-0.089
G3 X35. Y0.111 J0.2
G1 Y49.897
G3 X34.801 Y50.097 I-0.2
G1 X23.428 Y50.132
G3 X23.227 Y49.932 I-0.001 J-0.2
G1 Z-13. F600.
Y49.893
Y0.113 F2400.
G3 X23.427 Y-0.087 I0.2
G1 X26.572 Y-0.093
G3 X26.773 Y0.107 J0.2
G1 Y49.887
G3 X26.573 Y50.087 I-0.2
G1 X15.2 Y50.089
G3 X15. Y49.889 J-0.2
G1 Y0.103
G3 X15.2 Y-0.097 I0.2
G1 X34.8 Y-0.089
G3 X35. Y0.111 J0.2
G1 Y49.897
G3 X34.801 Y50.097 I-0.2
G1 X23.428 Y50.132
G3 X23.227 Y49.932 I-0.001 J-0.2
G1 Z-14. F600.
Y49.893
Y0.113 F2400.
G3 X23.427 Y-0.087 I0.2
G1 X26.572 Y-0.093
G3 X26.773 Y0.107 J0.2
G1 Y49.887
G3 X26.573 Y50.087 I-0.2
G1 X15.2 Y50.089
G3 X15. Y49.889 J-0.2
G1 Y0.103
G3 X15.2 Y-0.097 I0.2
G1 X34.8 Y-0.089
G3 X35. Y0.111 J0.2
G1 Y49.897
G3 X34.801 Y50.097 I-0.2
G1 X23.428 Y50.132
G3 X23.227 Y49.932 I-0.001 J-0.2
G1 Z-15. F600.
Y49.893
Y0.113 F2400.
G3 X23.427 Y-0.087 I0.2
G1 X26.572 Y-0.093
G3 X26.773 Y0.107 J0.2
G1 Y49.887
G3 X26.573 Y50.087 I-0.2
G1 X15.2 Y50.089
G3 X15. Y49.889 J-0.2
G1 Y0.103
G3 X15.2 Y-0.097 I0.2
G1 X34.8 Y-0.089
G3 X35. Y0.111 J0.2
G1 Y49.897
G3 X34.801 Y50.097 I-0.2
G1 X23.428 Y50.132
G3 X23.227 Y49.932 I-0.001 J-0.2
G1 Z-16. F600.
Y49.893
Y0.113 F2400.
G3 X23.427 Y-0.087 I0.2
G1 X26.572 Y-0.093
G3 X26.773 Y0.107 J0.2
G1 Y49.887
G3 X26.573 Y50.087 I-0.2
G1 X15.2 Y50.089
G3 X15. Y49.889 J-0.2
G1 Y0.103
G3 X15.2 Y-0.097 I0.2
G1 X34.8 Y-0.089
G3 X35. Y0.111 J0.2
G1 Y49.897
G3 X34.801 Y50.097 I-0.2
G1 X23.428 Y50.132
G3 X23.227 Y49.932 I-0.001 J-0.2
G1 Z-17. F600.
Y49.893
Y0.113 F2400.
G3 X23.427 Y-0.087 I0.2
G1 X26.572 Y-0.093
G3 X26.773 Y0.107 J0.2
G1 Y49.887
G3 X26.573 Y50.087 I-0.2
G1 X15.2 Y50.089
G3 X15. Y49.889 J-0.2
G1 Y0.103
G3 X15.2 Y-0.097 I0.2
G1 X34.8 Y-0.089
G3 X35. Y0.111 J0.2
G1 Y49.897
G3 X34.801 Y50.097 I-0.2
G1 X23.428 Y50.132
G3 X23.227 Y49.932 I-0.001 J-0.2
G1 Z-18. F600.
Y49.893
Y0.113 F2400.
G3 X23.427 Y-0.087 I0.2
G1 X26.572 Y-0.093
G3 X26.773 Y0.107 J0.2
G1 Y49.887
G3 X26.573 Y50.087 I-0.2
G1 X15.2 Y50.089
G3 X15. Y49.889 J-0.2
G1 Y0.103
G3 X15.2 Y-0.097 I0.2
G1 X34.8 Y-0.089
G3 X35. Y0.111 J0.2
G1 Y49.897
G3 X34.801 Y50.097 I-0.2
G1 X23.428 Y50.132
G3 X23.227 Y49.932 I-0.001 J-0.2
G1 Z-19. F600.
Y49.893
Y0.113 F2400.
G3 X23.427 Y-0.087 I0.2
G1 X26.572 Y-0.093
G3 X26.773 Y0.107 J0.2
G1 Y49.887
G3 X26.573 Y50.087 I-0.2
G1 X15.2 Y50.089
G3 X15. Y49.889 J-0.2
G1 Y0.103
G3 X15.2 Y-0.097 I0.2
G1 X34.8 Y-0.089
G3 X35. Y0.111 J0.2
G1 Y49.897
G3 X34.801 Y50.097 I-0.2
G1 X23.428 Y50.132
G3 X23.227 Y49.932 I-0.001 J-0.2
G1 Z-20. F600.
Y49.893
Y0.113 F2400.
G3 X23.427 Y-0.087 I0.2
G1 X26.572 Y-0.093
G3 X26.773 Y0.107 J0.2
G1 Y49.887
G3 X26.573 Y50.087 I-0.2
G1 X15.2 Y50.089
G3 X15. Y49.889 J-0.2
G1 Y0.103
G3 X15.2 Y-0.097 I0.2
G1 X34.8 Y-0.089
G3 X35. Y0.111 J0.2
G1 Y49.897
G3 X34.801 Y50.097 I-0.2
G1 X23.428 Y50.132
G3 X23.227 Y49.932 I-0.001 J-0.2
G1 Z-21. F600.
Y49.893
Y0.113 F2400.
G3 X23.427 Y-0.087 I0.2
G1 X26.572 Y-0.093
G3 X26.773 Y0.107 J0.2
G1 Y49.887
G3 X26.573 Y50.087 I-0.2
G1 X15.2 Y50.089
G3 X15. Y49.889 J-0.2
G1 Y0.103
G3 X15.2 Y-0.097 I0.2
G1 X34.8 Y-0.089
G3 X35. Y0.111 J0.2
G1 Y49.897
G0 Z15.
G91
G28 Z0.
G90
M5
G91
G28 X0. Y0.
G90
M30
%
