%
O00001001
(T1  D=4. CR=0. - ZMIN=-0.1 - FLAT END MILL)
G90 G94 G17
G21
G91
G28 Z0.
G90
(2D CONTOUR2)
T1 M6
S10000 M3
G54
G0 X-78.2 Y-0.4
G43 Z32. H1
G0 Z22.
G1 Z19. F500.
Z16.45
G18 G2 X-77.8 Z16.05 I0.4 F2000.
G1 X-77.4
G17 G3 X-77. Y0. J0.4
G1 Y53.
G2 X-73. Y57. I4.
G1 X-67.
G2 X-63. Y53. J-4.
G1 Y10.
G3 X-60. Y7. I3.
G1 X-39.525
G3 X-36.54 Y9.701 J3.
G1 X-32.17 Y53.398
G2 X-28.19 Y57. I3.98 J-0.398
G1 X28.19
G2 X32.17 Y53.398 J-4.
G1 X36.54 Y9.701
G3 X39.525 Y7. I2.985 J0.298
G1 X60.
G3 X63. Y10. J3.
G1 Y53.
G2 X67. Y57. I4.
G1 X73.
G2 X77. Y53. J-4.
G1 Y-52.
G2 X72. Y-57. I-5.
G1 X-72.
G2 X-77. Y-52. J5.
G1 Y0.
G3 X-77.4 Y0.4 I-0.4
G1 X-77.8
G18 G3 X-78.2 Z16.45 K0.4
G0 Z22.
Y-0.4
G1 Z18.05 F500.
Z15.5
G2 X-77.8 Z15.1 I0.4 F2000.
G1 X-77.4
G17 G3 X-77. Y0. J0.4
G1 Y53.
G2 X-73. Y57. I4.
G1 X-67.
G2 X-63. Y53. J-4.
G1 Y10.
G3 X-60. Y7. I3.
G1 X-39.525
G3 X-36.54 Y9.701 J3.
G1 X-32.17 Y53.398
G2 X-28.19 Y57. I3.98 J-0.398
G1 X28.19
G2 X32.17 Y53.398 J-4.
G1 X36.54 Y9.701
G3 X39.525 Y7. I2.985 J0.298
G1 X60.
G3 X63. Y10. J3.
G1 Y53.
G2 X67. Y57. I4.
G1 X73.
G2 X77. Y53. J-4.
G1 Y-52.
G2 X72. Y-57. I-5.
G1 X-72.
G2 X-77. Y-52. J5.
G1 Y0.
G3 X-77.4 Y0.4 I-0.4
G1 X-77.8
G18 G3 X-78.2 Z15.5 K0.4
G0 Z22.
Y-0.4
G1 Z17.1 F500.
Z14.55
G2 X-77.8 Z14.15 I0.4 F2000.
G1 X-77.4
G17 G3 X-77. Y0. J0.4
G1 Y53.
G2 X-73. Y57. I4.
G1 X-67.
G2 X-63. Y53. J-4.
G1 Y10.
G3 X-60. Y7. I3.
G1 X-39.525
G3 X-36.54 Y9.701 J3.
G1 X-32.17 Y53.398
G2 X-28.19 Y57. I3.98 J-0.398
G1 X28.19
G2 X32.17 Y53.398 J-4.
G1 X36.54 Y9.701
G3 X39.525 Y7. I2.985 J0.298
G1 X60.
G3 X63. Y10. J3.
G1 Y53.
G2 X67. Y57. I4.
G1 X73.
G2 X77. Y53. J-4.
G1 Y-52.
G2 X72. Y-57. I-5.
G1 X-72.
G2 X-77. Y-52. J5.
G1 Y0.
G3 X-77.4 Y0.4 I-0.4
G1 X-77.8
G18 G3 X-78.2 Z14.55 K0.4
G0 Z22.
Y-0.4
G1 Z16.15 F500.
Z13.6
G2 X-77.8 Z13.2 I0.4 F2000.
G1 X-77.4
G17 G3 X-77. Y0. J0.4
G1 Y53.
G2 X-73. Y57. I4.
G1 X-67.
G2 X-63. Y53. J-4.
G1 Y10.
G3 X-60. Y7. I3.
G1 X-39.525
G3 X-36.54 Y9.701 J3.
G1 X-32.17 Y53.398
G2 X-28.19 Y57. I3.98 J-0.398
G1 X28.19
G2 X32.17 Y53.398 J-4.
G1 X36.54 Y9.701
G3 X39.525 Y7. I2.985 J0.298
G1 X60.
G3 X63. Y10. J3.
G1 Y53.
G2 X67. Y57. I4.
G1 X73.
G2 X77. Y53. J-4.
G1 Y-52.
G2 X72. Y-57. I-5.
G1 X-72.
G2 X-77. Y-52. J5.
G1 Y0.
G3 X-77.4 Y0.4 I-0.4
G1 X-77.8
G18 G3 X-78.2 Z13.6 K0.4
G0 Z22.
Y-0.4
G1 Z15.2 F500.
Z12.65
G2 X-77.8 Z12.25 I0.4 F2000.
G1 X-77.4
G17 G3 X-77. Y0. J0.4
G1 Y53.
G2 X-73. Y57. I4.
G1 X-67.
G2 X-63. Y53. J-4.
G1 Y10.
G3 X-60. Y7. I3.
G1 X-39.525
G3 X-36.54 Y9.701 J3.
G1 X-32.17 Y53.398
G2 X-28.19 Y57. I3.98 J-0.398
G1 X28.19
G2 X32.17 Y53.398 J-4.
G1 X36.54 Y9.701
G3 X39.525 Y7. I2.985 J0.298
G1 X60.
G3 X63. Y10. J3.
G1 Y53.
G2 X67. Y57. I4.
G1 X73.
G2 X77. Y53. J-4.
G1 Y-52.
G2 X72. Y-57. I-5.
G1 X-72.
G2 X-77. Y-52. J5.
G1 Y0.
G3 X-77.4 Y0.4 I-0.4
G1 X-77.8
G18 G3 X-78.2 Z12.65 K0.4
G0 Z22.
Y-0.4
G1 Z14.25 F500.
Z11.7
G2 X-77.8 Z11.3 I0.4 F2000.
G1 X-77.4
G17 G3 X-77. Y0. J0.4
G1 Y53.
G2 X-73. Y57. I4.
G1 X-67.
G2 X-63. Y53. J-4.
G1 Y10.
G3 X-60. Y7. I3.
G1 X-39.525
G3 X-36.54 Y9.701 J3.
G1 X-32.17 Y53.398
G2 X-28.19 Y57. I3.98 J-0.398
G1 X28.19
G2 X32.17 Y53.398 J-4.
G1 X36.54 Y9.701
G3 X39.525 Y7. I2.985 J0.298
G1 X60.
G3 X63. Y10. J3.
G1 Y53.
G2 X67. Y57. I4.
G1 X73.
G2 X77. Y53. J-4.
G1 Y-52.
G2 X72. Y-57. I-5.
G1 X-72.
G2 X-77. Y-52. J5.
G1 Y0.
G3 X-77.4 Y0.4 I-0.4
G1 X-77.8
G18 G3 X-78.2 Z11.7 K0.4
G0 Z22.
Y-0.4
G1 Z13.3 F500.
Z10.75
G2 X-77.8 Z10.35 I0.4 F2000.
G1 X-77.4
G17 G3 X-77. Y0. J0.4
G1 Y53.
G2 X-73. Y57. I4.
G1 X-67.
G2 X-63. Y53. J-4.
G1 Y10.
G3 X-60. Y7. I3.
G1 X-39.525
G3 X-36.54 Y9.701 J3.
G1 X-32.17 Y53.398
G2 X-28.19 Y57. I3.98 J-0.398
G1 X28.19
G2 X32.17 Y53.398 J-4.
G1 X36.54 Y9.701
G3 X39.525 Y7. I2.985 J0.298
G1 X60.
G3 X63. Y10. J3.
G1 Y53.
G2 X67. Y57. I4.
G1 X73.
G2 X77. Y53. J-4.
G1 Y-52.
G2 X72. Y-57. I-5.
G1 X-72.
G2 X-77. Y-52. J5.
G1 Y0.
G3 X-77.4 Y0.4 I-0.4
G1 X-77.8
G18 G3 X-78.2 Z10.75 K0.4
G0 Z22.
Y-0.4
G1 Z12.35 F500.
Z9.8
G2 X-77.8 Z9.4 I0.4 F2000.
G1 X-77.4
G17 G3 X-77. Y0. J0.4
G1 Y53.
G2 X-73. Y57. I4.
G1 X-67.
G2 X-63. Y53. J-4.
G1 Y10.
G3 X-60. Y7. I3.
G1 X-39.525
G3 X-36.54 Y9.701 J3.
G1 X-32.17 Y53.398
G2 X-28.19 Y57. I3.98 J-0.398
G1 X28.19
G2 X32.17 Y53.398 J-4.
G1 X36.54 Y9.701
G3 X39.525 Y7. I2.985 J0.298
G1 X60.
G3 X63. Y10. J3.
G1 Y53.
G2 X67. Y57. I4.
G1 X73.
G2 X77. Y53. J-4.
G1 Y-52.
G2 X72. Y-57. I-5.
G1 X-72.
G2 X-77. Y-52. J5.
G1 Y0.
G3 X-77.4 Y0.4 I-0.4
G1 X-77.8
G18 G3 X-78.2 Z9.8 K0.4
G0 Z22.
Y-0.4
G1 Z11.4 F500.
Z8.85
G2 X-77.8 Z8.45 I0.4 F2000.
G1 X-77.4
G17 G3 X-77. Y0. J0.4
G1 Y53.
G2 X-73. Y57. I4.
G1 X-67.
G2 X-63. Y53. J-4.
G1 Y10.
G3 X-60. Y7. I3.
G1 X-39.525
G3 X-36.54 Y9.701 J3.
G1 X-32.17 Y53.398
G2 X-28.19 Y57. I3.98 J-0.398
G1 X28.19
G2 X32.17 Y53.398 J-4.
G1 X36.54 Y9.701
G3 X39.525 Y7. I2.985 J0.298
G1 X60.
G3 X63. Y10. J3.
G1 Y53.
G2 X67. Y57. I4.
G1 X73.
G2 X77. Y53. J-4.
G1 Y-52.
G2 X72. Y-57. I-5.
G1 X-72.
G2 X-77. Y-52. J5.
G1 Y0.
G3 X-77.4 Y0.4 I-0.4
G1 X-77.8
G18 G3 X-78.2 Z8.85 K0.4
G0 Z22.
Y-0.4
G1 Z10.45 F500.
Z7.9
G2 X-77.8 Z7.5 I0.4 F2000.
G1 X-77.4
G17 G3 X-77. Y0. J0.4
G1 Y53.
G2 X-73. Y57. I4.
G1 X-67.
G2 X-63. Y53. J-4.
G1 Y10.
G3 X-60. Y7. I3.
G1 X-39.525
G3 X-36.54 Y9.701 J3.
G1 X-32.17 Y53.398
G2 X-28.19 Y57. I3.98 J-0.398
G1 X28.19
G2 X32.17 Y53.398 J-4.
G1 X36.54 Y9.701
G3 X39.525 Y7. I2.985 J0.298
G1 X60.
G3 X63. Y10. J3.
G1 Y53.
G2 X67. Y57. I4.
G1 X73.
G2 X77. Y53. J-4.
G1 Y-52.
G2 X72. Y-57. I-5.
G1 X-72.
G2 X-77. Y-52. J5.
G1 Y0.
G3 X-77.4 Y0.4 I-0.4
G1 X-77.8
G18 G3 X-78.2 Z7.9 K0.4
G0 Z22.
Y-0.4
G1 Z9.5 F500.
Z6.95
G2 X-77.8 Z6.55 I0.4 F2000.
G1 X-77.4
G17 G3 X-77. Y0. J0.4
G1 Y53.
G2 X-73. Y57. I4.
G1 X-67.
G2 X-63. Y53. J-4.
G1 Y10.
G3 X-60. Y7. I3.
G1 X-39.525
G3 X-36.54 Y9.701 J3.
G1 X-32.17 Y53.398
G2 X-28.19 Y57. I3.98 J-0.398
G1 X28.19
G2 X32.17 Y53.398 J-4.
G1 X36.54 Y9.701
G3 X39.525 Y7. I2.985 J0.298
G1 X60.
G3 X63. Y10. J3.
G1 Y53.
G2 X67. Y57. I4.
G1 X73.
G2 X77. Y53. J-4.
G1 Y-52.
G2 X72. Y-57. I-5.
G1 X-72.
G2 X-77. Y-52. J5.
G1 Y0.
G3 X-77.4 Y0.4 I-0.4
G1 X-77.8
G18 G3 X-78.2 Z6.95 K0.4
G0 Z22.
Y-0.4
G1 Z8.55 F500.
Z6.
G2 X-77.8 Z5.6 I0.4 F2000.
G1 X-77.4
G17 G3 X-77. Y0. J0.4
G1 Y53.
G2 X-73. Y57. I4.
G1 X-67.
G2 X-63. Y53. J-4.
G1 Y10.
G3 X-60. Y7. I3.
G1 X-39.525
G3 X-36.54 Y9.701 J3.
G1 X-32.17 Y53.398
G2 X-28.19 Y57. I3.98 J-0.398
G1 X28.19
G2 X32.17 Y53.398 J-4.
G1 X36.54 Y9.701
G3 X39.525 Y7. I2.985 J0.298
G1 X60.
G3 X63. Y10. J3.
G1 Y53.
G2 X67. Y57. I4.
G1 X73.
G2 X77. Y53. J-4.
G1 Y-52.
G2 X72. Y-57. I-5.
G1 X-72.
G2 X-77. Y-52. J5.
G1 Y0.
G3 X-77.4 Y0.4 I-0.4
G1 X-77.8
G18 G3 X-78.2 Z6. K0.4
G0 Z22.
Y-0.4
G1 Z7.6 F500.
Z5.05
G2 X-77.8 Z4.65 I0.4 F2000.
G1 X-77.4
G17 G3 X-77. Y0. J0.4
G1 Y53.
G2 X-73. Y57. I4.
G1 X-67.
G2 X-63. Y53. J-4.
G1 Y10.
G3 X-60. Y7. I3.
G1 X-39.525
G3 X-36.54 Y9.701 J3.
G1 X-32.17 Y53.398
G2 X-28.19 Y57. I3.98 J-0.398
G1 X28.19
G2 X32.17 Y53.398 J-4.
G1 X36.54 Y9.701
G3 X39.525 Y7. I2.985 J0.298
G1 X60.
G3 X63. Y10. J3.
G1 Y53.
G2 X67. Y57. I4.
G1 X73.
G2 X77. Y53. J-4.
G1 Y-52.
G2 X72. Y-57. I-5.
G1 X-72.
G2 X-77. Y-52. J5.
G1 Y0.
G3 X-77.4 Y0.4 I-0.4
G1 X-77.8
G18 G3 X-78.2 Z5.05 K0.4
G0 Z22.
Y-0.4
G1 Z6.65 F500.
Z4.1
G2 X-77.8 Z3.7 I0.4 F2000.
G1 X-77.4
G17 G3 X-77. Y0. J0.4
G1 Y53.
G2 X-73. Y57. I4.
G1 X-67.
G2 X-63. Y53. J-4.
G1 Y10.
G3 X-60. Y7. I3.
G1 X-39.525
G3 X-36.54 Y9.701 J3.
G1 X-32.17 Y53.398
G2 X-28.19 Y57. I3.98 J-0.398
G1 X28.19
G2 X32.17 Y53.398 J-4.
G1 X36.54 Y9.701
G3 X39.525 Y7. I2.985 J0.298
G1 X60.
G3 X63. Y10. J3.
G1 Y53.
G2 X67. Y57. I4.
G1 X73.
G2 X77. Y53. J-4.
G1 Y-52.
G2 X72. Y-57. I-5.
G1 X-72.
G2 X-77. Y-52. J5.
G1 Y0.
G3 X-77.4 Y0.4 I-0.4
G1 X-77.8
G18 G3 X-78.2 Z4.1 K0.4
G0 Z22.
Y-0.4
G1 Z5.7 F500.
Z3.15
G2 X-77.8 Z2.75 I0.4 F2000.
G1 X-77.4
G17 G3 X-77. Y0. J0.4
G1 Y53.
G2 X-73. Y57. I4.
G1 X-67.
G2 X-63. Y53. J-4.
G1 Y10.
G3 X-60. Y7. I3.
G1 X-39.525
G3 X-36.54 Y9.701 J3.
G1 X-32.17 Y53.398
G2 X-28.19 Y57. I3.98 J-0.398
G1 X28.19
G2 X32.17 Y53.398 J-4.
G1 X36.54 Y9.701
G3 X39.525 Y7. I2.985 J0.298
G1 X60.
G3 X63. Y10. J3.
G1 Y53.
G2 X67. Y57. I4.
G1 X73.
G2 X77. Y53. J-4.
G1 Y-52.
G2 X72. Y-57. I-5.
G1 X-72.
G2 X-77. Y-52. J5.
G1 Y0.
G3 X-77.4 Y0.4 I-0.4
G1 X-77.8
G18 G3 X-78.2 Z3.15 K0.4
G0 Z22.
Y-0.4
G1 Z4.75 F500.
Z2.2
G2 X-77.8 Z1.8 I0.4 F2000.
G1 X-77.4
G17 G3 X-77. Y0. J0.4
G1 Y23.75
Z1.9
Y29.75
Z1.8 F500.
Y53. F2000.
G2 X-73. Y57. I4.
G1 X-67.
G2 X-63. Y53. J-4.
G1 Y10.
G3 X-60. Y7. I3.
G1 X-39.525
G3 X-36.54 Y9.701 J3.
G1 X-32.17 Y53.398
G2 X-28.19 Y57. I3.98 J-0.398
G1 X-3.
Z1.9
X3.
Z1.8 F500.
X28.19 F2000.
G2 X32.17 Y53.398 J-4.
G1 X36.54 Y9.701
G3 X39.525 Y7. I2.985 J0.298
G1 X60.
G3 X63. Y10. J3.
G1 Y53.
G2 X67. Y57. I4.
G1 X73.
G2 X77. Y53. J-4.
G1 Y29.75
Z1.9
Y23.75
Z1.8 F500.
Y-22.75 F2000.
Z1.9
Y-28.75
Z1.8 F500.
Y-52. F2000.
G2 X72. Y-57. I-5.
G1 X51.
Z1.9
X45.
Z1.8 F500.
X3. F2000.
Z1.9
X-3.
Z1.8 F500.
X-45. F2000.
Z1.9
X-51.
Z1.8 F500.
X-72. F2000.
G2 X-77. Y-52. J5.
G1 Y-28.75
Z1.9
Y-22.75
Z1.8 F500.
Y0. F2000.
G3 X-77.4 Y0.4 I-0.4
G1 X-77.8
G18 G3 X-78.2 Z2.2 K0.4
G0 Z22.
Y-0.4
G1 Z3.8 F500.
Z1.25
G2 X-77.8 Z0.85 I0.4 F2000.
G1 X-77.4
G17 G3 X-77. Y0. J0.4
G1 Y23.75
Z1.9
Y29.75
Z0.85 F500.
Y53. F2000.
G2 X-73. Y57. I4.
G1 X-67.
G2 X-63. Y53. J-4.
G1 Y10.
G3 X-60. Y7. I3.
G1 X-39.525
G3 X-36.54 Y9.701 J3.
G1 X-32.17 Y53.398
G2 X-28.19 Y57. I3.98 J-0.398
G1 X-3.
Z1.9
X3.
Z0.85 F500.
X28.19 F2000.
G2 X32.17 Y53.398 J-4.
G1 X36.54 Y9.701
G3 X39.525 Y7. I2.985 J0.298
G1 X60.
G3 X63. Y10. J3.
G1 Y53.
G2 X67. Y57. I4.
G1 X73.
G2 X77. Y53. J-4.
G1 Y29.75
Z1.9
Y23.75
Z0.85 F500.
Y-22.75 F2000.
Z1.9
Y-28.75
Z0.85 F500.
Y-52. F2000.
G2 X72. Y-57. I-5.
G1 X51.
Z1.9
X45.
Z0.85 F500.
X3. F2000.
Z1.9
X-3.
Z0.85 F500.
X-45. F2000.
Z1.9
X-51.
Z0.85 F500.
X-72. F2000.
G2 X-77. Y-52. J5.
G1 Y-28.75
Z1.9
Y-22.75
Z0.85 F500.
Y0. F2000.
G3 X-77.4 Y0.4 I-0.4
G1 X-77.8
G18 G3 X-78.2 Z1.25 K0.4
G0 Z22.
Y-0.4
G1 Z2.85 F500.
Z0.3
G2 X-77.8 Z-0.1 I0.4 F2000.
G1 X-77.4
G17 G3 X-77. Y0. J0.4
G1 Y23.75
Z1.9
Y29.75
Z-0.1 F500.
Y53. F2000.
G2 X-73. Y57. I4.
G1 X-67.
G2 X-63. Y53. J-4.
G1 Y10.
G3 X-60. Y7. I3.
G1 X-39.525
G3 X-36.54 Y9.701 J3.
G1 X-32.17 Y53.398
G2 X-28.19 Y57. I3.98 J-0.398
G1 X-3.
Z1.9
X3.
Z-0.1 F500.
X28.19 F2000.
G2 X32.17 Y53.398 J-4.
G1 X36.54 Y9.701
G3 X39.525 Y7. I2.985 J0.298
G1 X60.
G3 X63. Y10. J3.
G1 Y53.
G2 X67. Y57. I4.
G1 X73.
G2 X77. Y53. J-4.
G1 Y29.75
Z1.9
Y23.75
Z-0.1 F500.
Y-22.75 F2000.
Z1.9
Y-28.75
Z-0.1 F500.
Y-52. F2000.
G2 X72. Y-57. I-5.
G1 X51.
Z1.9
X45.
Z-0.1 F500.
X3. F2000.
Z1.9
X-3.
Z-0.1 F500.
X-45. F2000.
Z1.9
X-51.
Z-0.1 F500.
X-72. F2000.
G2 X-77. Y-52. J5.
G1 Y-28.75
Z1.9
Y-22.75
Z-0.1 F500.
Y0. F2000.
G3 X-77.4 Y0.4 I-0.4
G1 X-77.8
G18 G3 X-78.2 Z0.3 K0.4
G0 Z32.
G17
G91
G28 Z0.
G90
M5
G91
G28 X0. Y0.
G90
M30
%
