%
O00001001
(T1  D=3. CR=0. - ZMIN=-7. - FLAT END MILL)
G90 G94 G17
G21
G91
G28 Z0.
G90
(FACE1)
T1 M6
S10000 M3
G54
G0 X-8.351 Y-8.026
G43 Z15. H1
G0 Z5.
G1 Z-0.7 F1500.
G18 G3 X-8.651 Z-1. I-0.3
G1 X-9.38
X-18.626
X-20.189
G17 G2 Y-6.568 J0.729
G1 X-7.815
G18 G2 X-7.515 Z-0.7 K0.3
G0 Z5.
X10.381
G1 Z-0.7 F1500.
G2 X10.681 Z-1. I0.3
G1 X11.436
X19.569
X20.904
G17 G3 Y-5.109 J0.729
G1 X-21.137
X-21.705
G2 Y-3.65 J0.729
G1 X21.629
X21.959
G3 Y-2.192 J0.729
G1 X-21.966
X-22.
G2 Y-0.733 J0.729
G1 X22.
G3 Y0.725 J0.729
G1 X-22.
G2 Y2.184 J0.729
G1 X-21.967
X21.959
G3 Y3.643 J0.729
G1 X21.632
X-21.707
G2 Y5.101 J0.729
G1 X-21.141
X20.908
G3 Y6.56 J0.729
G1 X19.578
X11.427
G18 G3 X11.127 Z-0.7 K0.3
G0 Z5.
X-6.628
G1 Z-0.7 F1500.
G3 X-6.928 Z-1. I-0.3
G1 X-7.809
X-20.196
G3 X-20.496 Z-0.7 K0.3
G0 Z15.
G17
(CONTOUR 2D1)
G0 X14.872 Y-8.883
Z15.
Z5.
G1 Z2. F200.
Z-0.7
X14.873 Y-8.875 Z-0.767 F1500.
X14.875 Y-8.853 Z-0.83
X14.879 Y-8.818 Z-0.887
X14.884 Y-8.771 Z-0.935
X14.89 Y-8.714 Z-0.97
X14.896 Y-8.651 Z-0.992
X14.903 Y-8.584 Z-1.
X14.934 Y-8.286
G3 X14.667 Y-7.957 I-0.298 J0.031
G2 X9.833 Y-5.647 I0.833 J7.957
G3 X9.479 Y-5.5 I-0.354 J-0.353
G1 X-6.
G3 X-6.4 Y-5.7 J-0.5
G2 X-21.6 Y5.7 I-7.6 J5.7
X-6.4 I7.6 J-5.7
G3 X-6. Y5.5 I0.4 J0.3
G1 X9.479
G3 X9.833 Y5.647 J0.5
G2 X21.167 Y-5.647 I5.667 J-5.647
X14.667 Y-7.957 I-5.667 J5.647
G3 X14.338 Y-8.224 I-0.031 J-0.298
G1 X14.306 Y-8.522
X14.299 Y-8.588 Z-0.992
X14.293 Y-8.651 Z-0.97
X14.287 Y-8.708 Z-0.935
X14.282 Y-8.755 Z-0.887
X14.278 Y-8.791 Z-0.83
X14.276 Y-8.813 Z-0.767
X14.275 Y-8.82 Z-0.7
G0 Z5.
X14.872 Y-8.883
G1 Z1. F200.
Z-1.7
X14.873 Y-8.875 Z-1.767 F1500.
X14.875 Y-8.853 Z-1.83
X14.879 Y-8.818 Z-1.887
X14.884 Y-8.771 Z-1.935
X14.89 Y-8.714 Z-1.97
X14.896 Y-8.651 Z-1.992
X14.903 Y-8.584 Z-2.
X14.934 Y-8.286
G3 X14.667 Y-7.957 I-0.298 J0.031
G2 X9.833 Y-5.647 I0.833 J7.957
G3 X9.479 Y-5.5 I-0.354 J-0.353
G1 X-6.
G3 X-6.4 Y-5.7 J-0.5
G2 X-21.6 Y5.7 I-7.6 J5.7
X-6.4 I7.6 J-5.7
G3 X-6. Y5.5 I0.4 J0.3
G1 X9.479
G3 X9.833 Y5.647 J0.5
G2 X21.167 Y-5.647 I5.667 J-5.647
X14.667 Y-7.957 I-5.667 J5.647
G3 X14.338 Y-8.224 I-0.031 J-0.298
G1 X14.306 Y-8.522
X14.299 Y-8.588 Z-1.992
X14.293 Y-8.651 Z-1.97
X14.287 Y-8.708 Z-1.935
X14.282 Y-8.755 Z-1.887
X14.278 Y-8.791 Z-1.83
X14.276 Y-8.813 Z-1.767
X14.275 Y-8.82 Z-1.7
G0 Z5.
X14.872 Y-8.883
G1 Z0. F200.
Z-2.7
X14.873 Y-8.875 Z-2.767 F1500.
X14.875 Y-8.853 Z-2.83
X14.879 Y-8.818 Z-2.887
X14.884 Y-8.771 Z-2.935
X14.89 Y-8.714 Z-2.97
X14.896 Y-8.651 Z-2.992
X14.903 Y-8.584 Z-3.
X14.934 Y-8.286
G3 X14.667 Y-7.957 I-0.298 J0.031
G2 X9.833 Y-5.647 I0.833 J7.957
G3 X9.479 Y-5.5 I-0.354 J-0.353
G1 X-6.
G3 X-6.4 Y-5.7 J-0.5
G2 X-21.6 Y5.7 I-7.6 J5.7
X-6.4 I7.6 J-5.7
G3 X-6. Y5.5 I0.4 J0.3
G1 X9.479
G3 X9.833 Y5.647 J0.5
G2 X21.167 Y-5.647 I5.667 J-5.647
X14.667 Y-7.957 I-5.667 J5.647
G3 X14.338 Y-8.224 I-0.031 J-0.298
G1 X14.306 Y-8.522
X14.299 Y-8.588 Z-2.992
X14.293 Y-8.651 Z-2.97
X14.287 Y-8.708 Z-2.935
X14.282 Y-8.755 Z-2.887
X14.278 Y-8.791 Z-2.83
X14.276 Y-8.813 Z-2.767
X14.275 Y-8.82 Z-2.7
G0 Z5.
X14.872 Y-8.883
G1 Z-1. F200.
Z-3.7
X14.873 Y-8.875 Z-3.767 F1500.
X14.875 Y-8.853 Z-3.83
X14.879 Y-8.818 Z-3.887
X14.884 Y-8.771 Z-3.935
X14.89 Y-8.714 Z-3.97
X14.896 Y-8.651 Z-3.992
X14.903 Y-8.584 Z-4.
X14.934 Y-8.286
G3 X14.667 Y-7.957 I-0.298 J0.031
G2 X9.833 Y-5.647 I0.833 J7.957
G3 X9.479 Y-5.5 I-0.354 J-0.353
G1 X-6.
G3 X-6.4 Y-5.7 J-0.5
G2 X-21.6 Y5.7 I-7.6 J5.7
X-6.4 I7.6 J-5.7
G3 X-6. Y5.5 I0.4 J0.3
G1 X9.479
G3 X9.833 Y5.647 J0.5
G2 X21.167 Y-5.647 I5.667 J-5.647
X14.667 Y-7.957 I-5.667 J5.647
G3 X14.338 Y-8.224 I-0.031 J-0.298
G1 X14.306 Y-8.522
X14.299 Y-8.588 Z-3.992
X14.293 Y-8.651 Z-3.97
X14.287 Y-8.708 Z-3.935
X14.282 Y-8.755 Z-3.887
X14.278 Y-8.791 Z-3.83
X14.276 Y-8.813 Z-3.767
X14.275 Y-8.82 Z-3.7
G0 Z5.
X14.872 Y-8.883
G1 Z-2. F200.
Z-4.7
X14.873 Y-8.875 Z-4.767 F1500.
X14.875 Y-8.853 Z-4.83
X14.879 Y-8.818 Z-4.887
X14.884 Y-8.771 Z-4.935
X14.89 Y-8.714 Z-4.97
X14.896 Y-8.651 Z-4.992
X14.903 Y-8.584 Z-5.
X14.934 Y-8.286
G3 X14.667 Y-7.957 I-0.298 J0.031
G2 X9.833 Y-5.647 I0.833 J7.957
G3 X9.479 Y-5.5 I-0.354 J-0.353
G1 X-6.
G3 X-6.4 Y-5.7 J-0.5
G2 X-21.6 Y5.7 I-7.6 J5.7
X-6.4 I7.6 J-5.7
G3 X-6. Y5.5 I0.4 J0.3
G1 X9.479
G3 X9.833 Y5.647 J0.5
G2 X21.167 Y-5.647 I5.667 J-5.647
X14.667 Y-7.957 I-5.667 J5.647
G3 X14.338 Y-8.224 I-0.031 J-0.298
G1 X14.306 Y-8.522
X14.299 Y-8.588 Z-4.992
X14.293 Y-8.651 Z-4.97
X14.287 Y-8.708 Z-4.935
X14.282 Y-8.755 Z-4.887
X14.278 Y-8.791 Z-4.83
X14.276 Y-8.813 Z-4.767
X14.275 Y-8.82 Z-4.7
G0 Z5.
X14.872 Y-8.883
G1 Z-3. F200.
Z-5.7
X14.873 Y-8.875 Z-5.767 F1500.
X14.875 Y-8.853 Z-5.83
X14.879 Y-8.818 Z-5.887
X14.884 Y-8.771 Z-5.935
X14.89 Y-8.714 Z-5.97
X14.896 Y-8.651 Z-5.992
X14.903 Y-8.584 Z-6.
X14.934 Y-8.286
G3 X14.667 Y-7.957 I-0.298 J0.031
G2 X9.833 Y-5.647 I0.833 J7.957
G3 X9.479 Y-5.5 I-0.354 J-0.353
G1 X-6.
G3 X-6.4 Y-5.7 J-0.5
G2 X-21.6 Y5.7 I-7.6 J5.7
X-6.4 I7.6 J-5.7
G3 X-6. Y5.5 I0.4 J0.3
G1 X9.479
G3 X9.833 Y5.647 J0.5
G2 X21.167 Y-5.647 I5.667 J-5.647
X14.667 Y-7.957 I-5.667 J5.647
G3 X14.338 Y-8.224 I-0.031 J-0.298
G1 X14.306 Y-8.522
X14.299 Y-8.588 Z-5.992
X14.293 Y-8.651 Z-5.97
X14.287 Y-8.708 Z-5.935
X14.282 Y-8.755 Z-5.887
X14.278 Y-8.791 Z-5.83
X14.276 Y-8.813 Z-5.767
X14.275 Y-8.82 Z-5.7
G0 Z5.
X14.872 Y-8.883
G1 Z-4. F200.
Z-6.7
X14.873 Y-8.875 Z-6.767 F1500.
X14.875 Y-8.853 Z-6.83
X14.879 Y-8.818 Z-6.887
X14.884 Y-8.771 Z-6.935
X14.89 Y-8.714 Z-6.97
X14.896 Y-8.651 Z-6.992
X14.903 Y-8.584 Z-7.
X14.934 Y-8.286
G3 X14.667 Y-7.957 I-0.298 J0.031
G2 X9.833 Y-5.647 I0.833 J7.957
G3 X9.479 Y-5.5 I-0.354 J-0.353
G1 X4.898
Z-6.25
X-0.102
Z-7. F200.
X-6. F1500.
G3 X-6.4 Y-5.7 J-0.5
G2 X-21.6 Y5.7 I-7.6 J5.7
X-6.4 I7.6 J-5.7
G3 X-6. Y5.5 I0.4 J0.3
G1 X-0.142
Z-6.25
X4.858
Z-7. F200.
X9.479 F1500.
G3 X9.833 Y5.647 J0.5
G2 X21.167 Y-5.647 I5.667 J-5.647
X14.667 Y-7.957 I-5.667 J5.647
G3 X14.338 Y-8.224 I-0.031 J-0.298
G1 X14.306 Y-8.522
X14.299 Y-8.588 Z-6.992
X14.293 Y-8.651 Z-6.97
X14.287 Y-8.708 Z-6.935
X14.282 Y-8.755 Z-6.887
X14.278 Y-8.791 Z-6.83
X14.276 Y-8.813 Z-6.767
X14.275 Y-8.82 Z-6.7
G0 Z5.
X15.6 Y-0.3
G1 Z2. F200.
Z-0.7
G18 G2 X15.9 Z-1. I0.3 F1500.
G1 X16.2
G17 G3 X16.5 Y0. J0.3
X14.5 I-1.
X16.5 I1.
X16.2 Y0.3 I-0.3
G1 X15.9
G18 G3 X15.6 Z-0.7 K0.3
G0 Z5.
Y-0.3
G1 Z1. F200.
Z-1.7
G2 X15.9 Z-2. I0.3 F1500.
G1 X16.2
G17 G3 X16.5 Y0. J0.3
X14.5 I-1.
X16.5 I1.
X16.2 Y0.3 I-0.3
G1 X15.9
G18 G3 X15.6 Z-1.7 K0.3
G0 Z5.
Y-0.3
G1 Z0. F200.
Z-2.7
G2 X15.9 Z-3. I0.3 F1500.
G1 X16.2
G17 G3 X16.5 Y0. J0.3
X14.5 I-1.
X16.5 I1.
X16.2 Y0.3 I-0.3
G1 X15.9
G18 G3 X15.6 Z-2.7 K0.3
G0 Z5.
Y-0.3
G1 Z-1. F200.
Z-3.7
G2 X15.9 Z-4. I0.3 F1500.
G1 X16.2
G17 G3 X16.5 Y0. J0.3
X14.5 I-1.
X16.5 I1.
X16.2 Y0.3 I-0.3
G1 X15.9
G18 G3 X15.6 Z-3.7 K0.3
G0 Z5.
Y-0.3
G1 Z-2. F200.
Z-4.7
G2 X15.9 Z-5. I0.3 F1500.
G1 X16.2
G17 G3 X16.5 Y0. J0.3
X14.5 I-1.
X16.5 I1.
X16.2 Y0.3 I-0.3
G1 X15.9
G18 G3 X15.6 Z-4.7 K0.3
G0 Z5.
Y-0.3
G1 Z-3. F200.
Z-5.7
G2 X15.9 Z-6. I0.3 F1500.
G1 X16.2
G17 G3 X16.5 Y0. J0.3
X14.5 I-1.
X16.5 I1.
X16.2 Y0.3 I-0.3
G1 X15.9
G18 G3 X15.6 Z-5.7 K0.3
G0 Z5.
Y-0.3
G1 Z-4. F200.
Z-6.7
G2 X15.9 Z-7. I0.3 F1500.
G1 X16.2
G17 G3 X16.5 Y0. J0.3
X14.5 I-1.
X16.5 I1.
X16.2 Y0.3 I-0.3
G1 X15.9
G18 G3 X15.6 Z-6.7 K0.3
G0 Z5.
X-13.4 Y-0.3
G1 Z2. F200.
Z-0.7
G2 X-13.1 Z-1. I0.3 F1500.
G1 X-12.8
G17 G3 X-12.5 Y0. J0.3
X-15.5 I-1.5
X-12.5 I1.5
X-12.8 Y0.3 I-0.3
G1 X-13.1
G18 G3 X-13.4 Z-0.7 K0.3
G0 Z5.
Y-0.3
G1 Z1. F200.
Z-1.7
G2 X-13.1 Z-2. I0.3 F1500.
G1 X-12.8
G17 G3 X-12.5 Y0. J0.3
X-15.5 I-1.5
X-12.5 I1.5
X-12.8 Y0.3 I-0.3
G1 X-13.1
G18 G3 X-13.4 Z-1.7 K0.3
G0 Z5.
Y-0.3
G1 Z0. F200.
Z-2.7
G2 X-13.1 Z-3. I0.3 F1500.
G1 X-12.8
G17 G3 X-12.5 Y0. J0.3
X-15.5 I-1.5
X-12.5 I1.5
X-12.8 Y0.3 I-0.3
G1 X-13.1
G18 G3 X-13.4 Z-2.7 K0.3
G0 Z5.
Y-0.3
G1 Z-1. F200.
Z-3.7
G2 X-13.1 Z-4. I0.3 F1500.
G1 X-12.8
G17 G3 X-12.5 Y0. J0.3
X-15.5 I-1.5
X-12.5 I1.5
X-12.8 Y0.3 I-0.3
G1 X-13.1
G18 G3 X-13.4 Z-3.7 K0.3
G0 Z5.
Y-0.3
G1 Z-2. F200.
Z-4.7
G2 X-13.1 Z-5. I0.3 F1500.
G1 X-12.8
G17 G3 X-12.5 Y0. J0.3
X-15.5 I-1.5
X-12.5 I1.5
X-12.8 Y0.3 I-0.3
G1 X-13.1
G18 G3 X-13.4 Z-4.7 K0.3
G0 Z5.
Y-0.3
G1 Z-3. F200.
Z-5.7
G2 X-13.1 Z-6. I0.3 F1500.
G1 X-12.8
G17 G3 X-12.5 Y0. J0.3
X-15.5 I-1.5
X-12.5 I1.5
X-12.8 Y0.3 I-0.3
G1 X-13.1
G18 G3 X-13.4 Z-5.7 K0.3
G0 Z5.
Y-0.3
G1 Z-4. F200.
Z-6.7
G2 X-13.1 Z-7. I0.3 F1500.
G1 X-12.8
G17 G3 X-12.5 Y0. J0.3
X-15.5 I-1.5
X-12.5 I1.5
X-12.8 Y0.3 I-0.3
G1 X-13.1
G18 G3 X-13.4 Z-6.7 K0.3
G0 Z15.
G17
G91
G28 Z0.
G90
M5
G91
G28 X0. Y0.
G90
M30
%
