%
O00001004
(T1  D=3. CR=0. - ZMIN=-0.2 - FLAT END MILL)
G90 G94 G17
G21
G91
G28 Z0.
G90
(FACE1)
T1 M6
S10000 M3
G54
G0 X-8.351 Y-8.026
G43 Z22. H1
G0 Z12.
G1 Z6.3 F1500.
G18 G3 X-8.651 Z6. I-0.3
G1 X-9.38
X-18.626
X-20.189
G17 G2 Y-6.568 J0.729
G1 X-7.815
G18 G2 X-7.515 Z6.3 K0.3
G0 Z12.
X10.381
G1 Z6.3 F1500.
G2 X10.681 Z6. I0.3
G1 X11.436
X19.569
X20.904
G17 G3 Y-5.109 J0.729
G1 X-21.137
X-21.705
G2 Y-3.65 J0.729
G1 X21.629
X21.959
G3 Y-2.192 J0.729
G1 X-21.966
X-22.
G2 Y-0.733 J0.729
G1 X22.
G3 Y0.725 J0.729
G1 X-22.
G2 Y2.184 J0.729
G1 X-21.967
X21.959
G3 Y3.643 J0.729
G1 X21.632
X-21.707
G2 Y5.101 J0.729
G1 X-21.141
X20.908
G3 Y6.56 J0.729
G1 X19.578
X11.427
G18 G3 X11.127 Z6.3 K0.3
G0 Z12.
X-6.628
G1 Z6.3 F1500.
G3 X-6.928 Z6. I-0.3
G1 X-7.809
X-20.196
G3 X-20.496 Z6.3 K0.3
G0 Z22.
G17
(BORE1)
G0 X-13.25 Y-0.3
Z22.
Z8.
G1 Z6.3 F1500.
G18 G2 X-12.95 Z6. I0.3
G1 X-12.8
G17 G3 X-12.5 Y0. J0.3
X-15.5 Z5.5 I-1.5
X-12.5 Z5. I1.5
X-15.5 Z4.5 I-1.5
X-12.5 Z4. I1.5
X-15.5 Z3.5 I-1.5
X-12.5 Z3. I1.5
X-15.5 Z2.5 I-1.5
X-12.5 Z2. I1.5
X-15.5 Z1.5 I-1.5
X-12.5 Z1. I1.5
X-15.5 Z0.5 I-1.5
X-12.5 Z0. I1.5
X-13.536 Y1.427 Z-0.2 I-1.5
X-14.464 Y-1.427 I-0.464 J-1.427
X-13.536 Y1.427 I0.464 J1.427
X-13.914 Y1.234 I-0.093 J-0.285
G1 X-13.961 Y1.091
X-13.981 Y1.028 Z-0.192
X-14.001 Y0.968 Z-0.17
X-14.019 Y0.913 Z-0.135
X-14.033 Y0.868 Z-0.087
X-14.044 Y0.834 Z-0.03
X-14.051 Y0.813 Z0.033
X-14.054 Y0.806 Z0.1
G0 Z12.
X15.75 Y-0.3
Z8.
G1 Z6.3 F1500.
G18 G2 X16.05 Z6. I0.3
G1 X16.2
G17 G3 X16.5 Y0. J0.3
X14.5 Z5.5 I-1.
X16.5 Z5. I1.
X14.5 Z4.5 I-1.
X16.5 Z4. I1.
X14.5 Z3.5 I-1.
X16.5 Z3. I1.
X14.5 Z2.5 I-1.
X16.5 Z2. I1.
X14.5 Z1.5 I-1.
X16.5 Z1. I1.
X14.5 Z0.5 I-1.
X16.5 Z0. I1.
X15.809 Y0.951 Z-0.2 I-1.
X15.191 Y-0.951 I-0.309 J-0.951
X15.809 Y0.951 I0.309 J0.951
X15.431 Y0.758 I-0.093 J-0.285
G1 X15.385 Y0.616
X15.364 Y0.552 Z-0.192
X15.344 Y0.492 Z-0.17
X15.327 Y0.438 Z-0.135
X15.312 Y0.393 Z-0.087
X15.301 Y0.359 Z-0.03
X15.294 Y0.338 Z0.033
X15.292 Y0.33 Z0.1
G0 Z22.
(CONTOUR 2D1)
G0 X14.872 Y-8.883
Z22.
Z12.
G1 Z9. F200.
Z6.3
X14.873 Y-8.875 Z6.233 F1500.
X14.875 Y-8.853 Z6.17
X14.879 Y-8.818 Z6.113
X14.884 Y-8.771 Z6.065
X14.89 Y-8.714 Z6.03
X14.896 Y-8.651 Z6.008
X14.903 Y-8.584 Z6.
X14.934 Y-8.286
G3 X14.667 Y-7.957 I-0.298 J0.031
G2 X9.833 Y-5.647 I0.833 J7.957
G3 X9.479 Y-5.5 I-0.354 J-0.353
G1 X-6.
G3 X-6.4 Y-5.7 J-0.5
G2 X-21.6 Y5.7 I-7.6 J5.7
X-6.4 I7.6 J-5.7
G3 X-6. Y5.5 I0.4 J0.3
G1 X9.479
G3 X9.833 Y5.647 J0.5
G2 X21.167 Y-5.647 I5.667 J-5.647
X14.667 Y-7.957 I-5.667 J5.647
G3 X14.338 Y-8.224 I-0.031 J-0.298
G1 X14.306 Y-8.522
X14.299 Y-8.588 Z6.008
X14.293 Y-8.651 Z6.03
X14.287 Y-8.708 Z6.065
X14.282 Y-8.755 Z6.113
X14.278 Y-8.791 Z6.17
X14.276 Y-8.813 Z6.233
X14.275 Y-8.82 Z6.3
G0 Z12.
X14.872 Y-8.883
G1 Z8. F200.
Z5.3
X14.873 Y-8.875 Z5.233 F1500.
X14.875 Y-8.853 Z5.17
X14.879 Y-8.818 Z5.113
X14.884 Y-8.771 Z5.065
X14.89 Y-8.714 Z5.03
X14.896 Y-8.651 Z5.008
X14.903 Y-8.584 Z5.
X14.934 Y-8.286
G3 X14.667 Y-7.957 I-0.298 J0.031
G2 X9.833 Y-5.647 I0.833 J7.957
G3 X9.479 Y-5.5 I-0.354 J-0.353
G1 X-6.
G3 X-6.4 Y-5.7 J-0.5
G2 X-21.6 Y5.7 I-7.6 J5.7
X-6.4 I7.6 J-5.7
G3 X-6. Y5.5 I0.4 J0.3
G1 X9.479
G3 X9.833 Y5.647 J0.5
G2 X21.167 Y-5.647 I5.667 J-5.647
X14.667 Y-7.957 I-5.667 J5.647
G3 X14.338 Y-8.224 I-0.031 J-0.298
G1 X14.306 Y-8.522
X14.299 Y-8.588 Z5.008
X14.293 Y-8.651 Z5.03
X14.287 Y-8.708 Z5.065
X14.282 Y-8.755 Z5.113
X14.278 Y-8.791 Z5.17
X14.276 Y-8.813 Z5.233
X14.275 Y-8.82 Z5.3
G0 Z12.
X14.872 Y-8.883
G1 Z7. F200.
Z4.3
X14.873 Y-8.875 Z4.233 F1500.
X14.875 Y-8.853 Z4.17
X14.879 Y-8.818 Z4.113
X14.884 Y-8.771 Z4.065
X14.89 Y-8.714 Z4.03
X14.896 Y-8.651 Z4.008
X14.903 Y-8.584 Z4.
X14.934 Y-8.286
G3 X14.667 Y-7.957 I-0.298 J0.031
G2 X9.833 Y-5.647 I0.833 J7.957
G3 X9.479 Y-5.5 I-0.354 J-0.353
G1 X-6.
G3 X-6.4 Y-5.7 J-0.5
G2 X-21.6 Y5.7 I-7.6 J5.7
X-6.4 I7.6 J-5.7
G3 X-6. Y5.5 I0.4 J0.3
G1 X9.479
G3 X9.833 Y5.647 J0.5
G2 X21.167 Y-5.647 I5.667 J-5.647
X14.667 Y-7.957 I-5.667 J5.647
G3 X14.338 Y-8.224 I-0.031 J-0.298
G1 X14.306 Y-8.522
X14.299 Y-8.588 Z4.008
X14.293 Y-8.651 Z4.03
X14.287 Y-8.708 Z4.065
X14.282 Y-8.755 Z4.113
X14.278 Y-8.791 Z4.17
X14.276 Y-8.813 Z4.233
X14.275 Y-8.82 Z4.3
G0 Z12.
X14.872 Y-8.883
G1 Z6. F200.
Z3.3
X14.873 Y-8.875 Z3.233 F1500.
X14.875 Y-8.853 Z3.17
X14.879 Y-8.818 Z3.113
X14.884 Y-8.771 Z3.065
X14.89 Y-8.714 Z3.03
X14.896 Y-8.651 Z3.008
X14.903 Y-8.584 Z3.
X14.934 Y-8.286
G3 X14.667 Y-7.957 I-0.298 J0.031
G2 X9.833 Y-5.647 I0.833 J7.957
G3 X9.479 Y-5.5 I-0.354 J-0.353
G1 X-6.
G3 X-6.4 Y-5.7 J-0.5
G2 X-21.6 Y5.7 I-7.6 J5.7
X-6.4 I7.6 J-5.7
G3 X-6. Y5.5 I0.4 J0.3
G1 X9.479
G3 X9.833 Y5.647 J0.5
G2 X21.167 Y-5.647 I5.667 J-5.647
X14.667 Y-7.957 I-5.667 J5.647
G3 X14.338 Y-8.224 I-0.031 J-0.298
G1 X14.306 Y-8.522
X14.299 Y-8.588 Z3.008
X14.293 Y-8.651 Z3.03
X14.287 Y-8.708 Z3.065
X14.282 Y-8.755 Z3.113
X14.278 Y-8.791 Z3.17
X14.276 Y-8.813 Z3.233
X14.275 Y-8.82 Z3.3
G0 Z12.
X14.872 Y-8.883
G1 Z5. F200.
Z2.3
X14.873 Y-8.875 Z2.233 F1500.
X14.875 Y-8.853 Z2.17
X14.879 Y-8.818 Z2.113
X14.884 Y-8.771 Z2.065
X14.89 Y-8.714 Z2.03
X14.896 Y-8.651 Z2.008
X14.903 Y-8.584 Z2.
X14.934 Y-8.286
G3 X14.667 Y-7.957 I-0.298 J0.031
G2 X9.833 Y-5.647 I0.833 J7.957
G3 X9.479 Y-5.5 I-0.354 J-0.353
G1 X-6.
G3 X-6.4 Y-5.7 J-0.5
G2 X-21.6 Y5.7 I-7.6 J5.7
X-6.4 I7.6 J-5.7
G3 X-6. Y5.5 I0.4 J0.3
G1 X9.479
G3 X9.833 Y5.647 J0.5
G2 X21.167 Y-5.647 I5.667 J-5.647
X14.667 Y-7.957 I-5.667 J5.647
G3 X14.338 Y-8.224 I-0.031 J-0.298
G1 X14.306 Y-8.522
X14.299 Y-8.588 Z2.008
X14.293 Y-8.651 Z2.03
X14.287 Y-8.708 Z2.065
X14.282 Y-8.755 Z2.113
X14.278 Y-8.791 Z2.17
X14.276 Y-8.813 Z2.233
X14.275 Y-8.82 Z2.3
G0 Z12.
X14.872 Y-8.883
G1 Z4. F200.
Z1.3
X14.873 Y-8.875 Z1.233 F1500.
X14.875 Y-8.853 Z1.17
X14.879 Y-8.818 Z1.113
X14.884 Y-8.771 Z1.065
X14.89 Y-8.714 Z1.03
X14.896 Y-8.651 Z1.008
X14.903 Y-8.584 Z1.
X14.934 Y-8.286
G3 X14.667 Y-7.957 I-0.298 J0.031
G2 X9.833 Y-5.647 I0.833 J7.957
G3 X9.479 Y-5.5 I-0.354 J-0.353
G1 X-6.
G3 X-6.4 Y-5.7 J-0.5
G2 X-21.6 Y5.7 I-7.6 J5.7
X-6.4 I7.6 J-5.7
G3 X-6. Y5.5 I0.4 J0.3
G1 X9.479
G3 X9.833 Y5.647 J0.5
G2 X21.167 Y-5.647 I5.667 J-5.647
X14.667 Y-7.957 I-5.667 J5.647
G3 X14.338 Y-8.224 I-0.031 J-0.298
G1 X14.306 Y-8.522
X14.299 Y-8.588 Z1.008
X14.293 Y-8.651 Z1.03
X14.287 Y-8.708 Z1.065
X14.282 Y-8.755 Z1.113
X14.278 Y-8.791 Z1.17
X14.276 Y-8.813 Z1.233
X14.275 Y-8.82 Z1.3
G0 Z12.
X14.872 Y-8.883
G1 Z3. F200.
Z0.3
X14.873 Y-8.875 Z0.233 F1500.
X14.875 Y-8.853 Z0.17
X14.879 Y-8.818 Z0.113
X14.884 Y-8.771 Z0.065
X14.89 Y-8.714 Z0.03
X14.896 Y-8.651 Z0.008
X14.903 Y-8.584 Z0.
X14.934 Y-8.286
G3 X14.667 Y-7.957 I-0.298 J0.031
G2 X9.833 Y-5.647 I0.833 J7.957
G3 X9.479 Y-5.5 I-0.354 J-0.353
G1 X4.898
Z0.75
X-0.102
Z0. F200.
X-6. F1500.
G3 X-6.4 Y-5.7 J-0.5
G2 X-21.6 Y5.7 I-7.6 J5.7
X-6.4 I7.6 J-5.7
G3 X-6. Y5.5 I0.4 J0.3
G1 X-0.142
Z0.75
X4.858
Z0. F200.
X9.479 F1500.
G3 X9.833 Y5.647 J0.5
G2 X21.167 Y-5.647 I5.667 J-5.647
X14.667 Y-7.957 I-5.667 J5.647
G3 X14.338 Y-8.224 I-0.031 J-0.298
G1 X14.306 Y-8.522
X14.299 Y-8.588 Z0.008
X14.293 Y-8.651 Z0.03
X14.287 Y-8.708 Z0.065
X14.282 Y-8.755 Z0.113
X14.278 Y-8.791 Z0.17
X14.276 Y-8.813 Z0.233
X14.275 Y-8.82 Z0.3
G0 Z12.
X15.6 Y-0.3
G1 Z9. F200.
Z6.3
G18 G2 X15.9 Z6. I0.3 F1500.
G1 X16.2
G17 G3 X16.5 Y0. J0.3
X14.5 I-1.
X16.5 I1.
X16.2 Y0.3 I-0.3
G1 X15.9
G18 G3 X15.6 Z6.3 K0.3
G0 Z12.
Y-0.3
G1 Z8. F200.
Z5.3
G2 X15.9 Z5. I0.3 F1500.
G1 X16.2
G17 G3 X16.5 Y0. J0.3
X14.5 I-1.
X16.5 I1.
X16.2 Y0.3 I-0.3
G1 X15.9
G18 G3 X15.6 Z5.3 K0.3
G0 Z12.
Y-0.3
G1 Z7. F200.
Z4.3
G2 X15.9 Z4. I0.3 F1500.
G1 X16.2
G17 G3 X16.5 Y0. J0.3
X14.5 I-1.
X16.5 I1.
X16.2 Y0.3 I-0.3
G1 X15.9
G18 G3 X15.6 Z4.3 K0.3
G0 Z12.
Y-0.3
G1 Z6. F200.
Z3.3
G2 X15.9 Z3. I0.3 F1500.
G1 X16.2
G17 G3 X16.5 Y0. J0.3
X14.5 I-1.
X16.5 I1.
X16.2 Y0.3 I-0.3
G1 X15.9
G18 G3 X15.6 Z3.3 K0.3
G0 Z12.
Y-0.3
G1 Z5. F200.
Z2.3
G2 X15.9 Z2. I0.3 F1500.
G1 X16.2
G17 G3 X16.5 Y0. J0.3
X14.5 I-1.
X16.5 I1.
X16.2 Y0.3 I-0.3
G1 X15.9
G18 G3 X15.6 Z2.3 K0.3
G0 Z12.
Y-0.3
G1 Z4. F200.
Z1.3
G2 X15.9 Z1. I0.3 F1500.
G1 X16.2
G17 G3 X16.5 Y0. J0.3
X14.5 I-1.
X16.5 I1.
X16.2 Y0.3 I-0.3
G1 X15.9
G18 G3 X15.6 Z1.3 K0.3
G0 Z12.
Y-0.3
G1 Z3. F200.
Z0.3
G2 X15.9 Z0. I0.3 F1500.
G1 X16.2
G17 G3 X16.5 Y0. J0.3
X14.5 I-1.
X16.5 I1.
X16.2 Y0.3 I-0.3
G1 X15.9
G18 G3 X15.6 Z0.3 K0.3
G0 Z12.
X-13.4 Y-0.3
G1 Z9. F200.
Z6.3
G2 X-13.1 Z6. I0.3 F1500.
G1 X-12.8
G17 G3 X-12.5 Y0. J0.3
X-15.5 I-1.5
X-12.5 I1.5
X-12.8 Y0.3 I-0.3
G1 X-13.1
G18 G3 X-13.4 Z6.3 K0.3
G0 Z12.
Y-0.3
G1 Z8. F200.
Z5.3
G2 X-13.1 Z5. I0.3 F1500.
G1 X-12.8
G17 G3 X-12.5 Y0. J0.3
X-15.5 I-1.5
X-12.5 I1.5
X-12.8 Y0.3 I-0.3
G1 X-13.1
G18 G3 X-13.4 Z5.3 K0.3
G0 Z12.
Y-0.3
G1 Z7. F200.
Z4.3
G2 X-13.1 Z4. I0.3 F1500.
G1 X-12.8
G17 G3 X-12.5 Y0. J0.3
X-15.5 I-1.5
X-12.5 I1.5
X-12.8 Y0.3 I-0.3
G1 X-13.1
G18 G3 X-13.4 Z4.3 K0.3
G0 Z12.
Y-0.3
G1 Z6. F200.
Z3.3
G2 X-13.1 Z3. I0.3 F1500.
G1 X-12.8
G17 G3 X-12.5 Y0. J0.3
X-15.5 I-1.5
X-12.5 I1.5
X-12.8 Y0.3 I-0.3
G1 X-13.1
G18 G3 X-13.4 Z3.3 K0.3
G0 Z12.
Y-0.3
G1 Z5. F200.
Z2.3
G2 X-13.1 Z2. I0.3 F1500.
G1 X-12.8
G17 G3 X-12.5 Y0. J0.3
X-15.5 I-1.5
X-12.5 I1.5
X-12.8 Y0.3 I-0.3
G1 X-13.1
G18 G3 X-13.4 Z2.3 K0.3
G0 Z12.
Y-0.3
G1 Z4. F200.
Z1.3
G2 X-13.1 Z1. I0.3 F1500.
G1 X-12.8
G17 G3 X-12.5 Y0. J0.3
X-15.5 I-1.5
X-12.5 I1.5
X-12.8 Y0.3 I-0.3
G1 X-13.1
G18 G3 X-13.4 Z1.3 K0.3
G0 Z12.
Y-0.3
G1 Z3. F200.
Z0.3
G2 X-13.1 Z0. I0.3 F1500.
G1 X-12.8
G17 G3 X-12.5 Y0. J0.3
X-15.5 I-1.5
X-12.5 I1.5
X-12.8 Y0.3 I-0.3
G1 X-13.1
G18 G3 X-13.4 Z0.3 K0.3
G0 Z22.
G17
G91
G28 Z0.
G90
M5
G91
G28 X0. Y0.
G90
M30
%
