%
O00001001
(T1  D=4. CR=0. - ZMIN=0. - FLAT END MILL)
G90 G94 G17
G21
G91
G28 Z0.
G90
(2D POCKET1 (2))
T1 M6
S10000 M3
G54
G0 X43.983 Y23.458
G43 Z35. H1
G0 Z25.
G1 Z18.971 F2000.
X43.986 Y23.451 Z18.893
X43.994 Y23.429 Z18.818
X44.006 Y23.394 Z18.749
X44.023 Y23.347 Z18.689
X44.043 Y23.29 Z18.639
X44.066 Y23.225 Z18.602
X44.091 Y23.154 Z18.579
X44.117 Y23.081 Z18.571
X45.324 Y19.664
G2 X46.65 Y11.929 I-21.895 J-7.735
X45.381 Y4.381 I-23.079
G3 X46.023 Y3.183 I0.874 J-0.303
X47.166 Y3.918 I0.232 J0.895
G1 X48.522 Y11.616
G3 X48.5 Y12.035 I-0.911 J0.161
G1 X46.196 Y19.972
G3 X45.879 Y20.442 I-0.888 J-0.258
G1 X40.694 Y24.51
G3 X39.368 Y23.247 I-0.571 J-0.728
G2 X42.95 Y12.071 I-15.868 J-11.247
X39.307 Y0.716 I-19.522
G3 X39.638 Y-0.645 I0.752 J-0.538
X40.936 Y-0.119 I0.422 J0.823
G1 X44.816 Y11.326
G3 X44.8 Y11.963 I-0.876 J0.297
G1 X40.123 Y23.782
G3 X39.574 Y24.313 I-0.86 J-0.34
G1 X33.392 Y26.519
G3 X32.55 Y24.89 I-0.311 J-0.871
G2 X39.211 Y13.106 I-9.05 J-12.891
G1 X39.216 Y10.895
G2 X32.599 Y-0.89 I-15.645 J1.034
G1 X32.569 Y-0.917
X32.544 Y-0.949
X30.395 Y-4.444
X30.364 Y-4.482
X30.325 Y-4.512
X30.279 Y-4.531
X30.231 Y-4.539
X30.182 Y-4.535
X1.809 Y1.639
G2 X1.652 Y1.834 I0.043 J0.195
G1 X1.654 Y4.306
X1.651 Y4.339
X1.643 Y4.372
G2 X1.647 Y19.641 I21.857 J7.628
G3 X1.009 Y20.841 I-0.873 J0.305
X-0.136 Y20.11 I-0.235 J-0.895
G1 X-1.521 Y12.425
G3 X-1.5 Y12.007 I0.91 J-0.164
G1 X0.77 Y4.067
G3 X1.087 Y3.594 I0.889 J0.254
G1 X6.305 Y-0.509
G3 X7.632 Y0.753 I0.572 J0.727
G2 X4.05 Y12. I15.868 J11.247
X7.626 Y23.239 I19.45
G3 X7.289 Y24.599 I-0.755 J0.534
X5.993 Y24.066 I-0.418 J-0.825
G1 X2.182 Y12.628
G3 X2.2 Y11.994 I0.878 J-0.292
G1 X6.877 Y0.218
G3 X7.426 Y-0.312 I0.86 J0.341
G1 X13.608 Y-2.519
G3 X14.45 Y-0.89 I0.311 J0.871
G2 X7.789 Y10.894 I9.05 J12.89
G1 Y13.112
G2 X14.455 Y24.894 I15.711 J-1.111
X18.182 Y24.817 I1.812 J-2.582
G3 X21.79 Y23.878 I2.922 J3.823
G2 X23.5 Y24. I1.71 J-11.878
X35.5 Y12.071 J-12.
G1 Y12.
G2 X11.5 I-12.
X21.79 Y23.878 I12.
G1 X21.836 Y23.89
X21.877 Y23.912
X21.912 Y23.943
X21.938 Y23.982
X22.095 Y24.278
X22.123 Y24.319
X22.161 Y24.351
X22.205 Y24.373
X22.254 Y24.384
X22.304 Y24.382
X45.03 Y20.684
G3 X45.084 Y21.019 I0.027 J0.167
X44.901 Y20.785 I-0.027 J-0.167
G1 X45.052 Y20.433
X45.078 Y20.359 Z18.564
X45.103 Y20.288 Z18.541
X45.126 Y20.223 Z18.504
X45.146 Y20.166 Z18.454
X45.163 Y20.119 Z18.394
X45.175 Y20.084 Z18.325
X45.183 Y20.063 Z18.249
X45.185 Y20.056 Z18.171
Z17.543
X45.188 Y20.048 Z17.465
X45.196 Y20.027 Z17.39
X45.208 Y19.992 Z17.321
X45.224 Y19.945 Z17.26
X45.245 Y19.888 Z17.21
X45.268 Y19.823 Z17.173
X45.293 Y19.752 Z17.151
X45.319 Y19.678 Z17.143
X45.324 Y19.664
G2 X46.65 Y11.929 I-21.895 J-7.735
X45.381 Y4.381 I-23.079
G3 X46.023 Y3.183 I0.874 J-0.303
X47.166 Y3.918 I0.232 J0.895
G1 X48.522 Y11.616
G3 X48.5 Y12.035 I-0.911 J0.161
G1 X46.196 Y19.972
G3 X45.879 Y20.442 I-0.888 J-0.258
G1 X40.694 Y24.51
G3 X39.368 Y23.247 I-0.571 J-0.728
G2 X42.95 Y12.071 I-15.868 J-11.247
X39.307 Y0.716 I-19.522
G3 X39.638 Y-0.645 I0.752 J-0.538
X40.936 Y-0.119 I0.422 J0.823
G1 X44.816 Y11.326
G3 X44.8 Y11.963 I-0.876 J0.297
G1 X40.123 Y23.782
G3 X39.574 Y24.313 I-0.86 J-0.34
G1 X33.392 Y26.519
G3 X32.55 Y24.89 I-0.311 J-0.871
G2 X39.211 Y13.106 I-9.05 J-12.891
G1 X39.216 Y10.895
G2 X32.599 Y-0.89 I-15.645 J1.034
G1 X32.569 Y-0.917
X32.544 Y-0.949
X30.395 Y-4.444
X30.364 Y-4.482
X30.325 Y-4.512
X30.279 Y-4.531
X30.231 Y-4.539
X30.182 Y-4.535
X1.809 Y1.639
G2 X1.652 Y1.834 I0.043 J0.195
G1 X1.654 Y4.306
X1.651 Y4.339
X1.643 Y4.372
G2 X1.647 Y19.641 I21.857 J7.628
G3 X1.009 Y20.841 I-0.873 J0.305
X-0.136 Y20.11 I-0.235 J-0.895
G1 X-1.521 Y12.425
G3 X-1.5 Y12.007 I0.91 J-0.164
G1 X0.77 Y4.067
G3 X1.087 Y3.594 I0.889 J0.254
G1 X6.305 Y-0.509
G3 X7.632 Y0.753 I0.572 J0.727
G2 X4.05 Y12. I15.868 J11.247
X7.626 Y23.239 I19.45
G3 X7.289 Y24.599 I-0.755 J0.534
X5.993 Y24.066 I-0.418 J-0.825
G1 X2.182 Y12.628
G3 X2.2 Y11.994 I0.878 J-0.292
G1 X6.877 Y0.218
G3 X7.426 Y-0.312 I0.86 J0.341
G1 X13.608 Y-2.519
G3 X14.45 Y-0.89 I0.311 J0.871
G2 X7.789 Y10.894 I9.05 J12.89
G1 Y13.112
G2 X14.455 Y24.894 I15.711 J-1.111
X18.182 Y24.817 I1.812 J-2.582
G3 X21.79 Y23.878 I2.922 J3.823
G2 X23.5 Y24. I1.71 J-11.878
X35.5 Y12.071 J-12.
G1 Y12.
G2 X11.5 I-12.
X21.79 Y23.878 I12.
G1 X21.836 Y23.89
X21.877 Y23.912
X21.912 Y23.943
X21.938 Y23.982
X22.095 Y24.278
X22.123 Y24.319
X22.161 Y24.351
X22.205 Y24.373
X22.254 Y24.384
X22.304 Y24.382
X45.03 Y20.684
G3 X45.084 Y21.019 I0.027 J0.167
X44.901 Y20.785 I-0.027 J-0.167
G1 X45.052 Y20.433
X45.078 Y20.359 Z17.135
X45.103 Y20.288 Z17.112
X45.126 Y20.223 Z17.075
X45.146 Y20.166 Z17.026
X45.163 Y20.119 Z16.965
X45.175 Y20.084 Z16.896
X45.183 Y20.063 Z16.821
X45.185 Y20.056 Z16.743
Z16.114
X45.188 Y20.048 Z16.036
X45.196 Y20.027 Z15.961
X45.208 Y19.992 Z15.892
X45.224 Y19.945 Z15.831
X45.245 Y19.888 Z15.782
X45.268 Y19.823 Z15.745
X45.293 Y19.752 Z15.722
X45.319 Y19.678 Z15.714
X45.324 Y19.664
G2 X46.65 Y11.929 I-21.895 J-7.735
X45.381 Y4.381 I-23.079
G3 X46.023 Y3.183 I0.874 J-0.303
X47.166 Y3.918 I0.232 J0.895
G1 X48.522 Y11.616
G3 X48.5 Y12.035 I-0.911 J0.161
G1 X46.196 Y19.972
G3 X45.879 Y20.442 I-0.888 J-0.258
G1 X40.694 Y24.51
G3 X39.368 Y23.247 I-0.571 J-0.728
G2 X42.95 Y12.071 I-15.868 J-11.247
X39.307 Y0.716 I-19.522
G3 X39.638 Y-0.645 I0.752 J-0.538
X40.936 Y-0.119 I0.422 J0.823
G1 X44.816 Y11.326
G3 X44.8 Y11.963 I-0.876 J0.297
G1 X40.123 Y23.782
G3 X39.574 Y24.313 I-0.86 J-0.34
G1 X33.392 Y26.519
G3 X32.55 Y24.89 I-0.311 J-0.871
G2 X39.211 Y13.106 I-9.05 J-12.891
G1 X39.216 Y10.895
G2 X32.599 Y-0.89 I-15.645 J1.034
G1 X32.569 Y-0.917
X32.544 Y-0.949
X30.395 Y-4.444
X30.364 Y-4.482
X30.325 Y-4.512
X30.279 Y-4.531
X30.231 Y-4.539
X30.182 Y-4.535
X1.809 Y1.639
G2 X1.652 Y1.834 I0.043 J0.195
G1 X1.654 Y4.306
X1.651 Y4.339
X1.643 Y4.372
G2 X1.647 Y19.641 I21.857 J7.628
G3 X1.009 Y20.841 I-0.873 J0.305
X-0.136 Y20.11 I-0.235 J-0.895
G1 X-1.521 Y12.425
G3 X-1.5 Y12.007 I0.91 J-0.164
G1 X0.77 Y4.067
G3 X1.087 Y3.594 I0.889 J0.254
G1 X6.305 Y-0.509
G3 X7.632 Y0.753 I0.572 J0.727
G2 X4.05 Y12. I15.868 J11.247
X7.626 Y23.239 I19.45
G3 X7.289 Y24.599 I-0.755 J0.534
X5.993 Y24.066 I-0.418 J-0.825
G1 X2.182 Y12.628
G3 X2.2 Y11.994 I0.878 J-0.292
G1 X6.877 Y0.218
G3 X7.426 Y-0.312 I0.86 J0.341
G1 X13.608 Y-2.519
G3 X14.45 Y-0.89 I0.311 J0.871
G2 X7.789 Y10.894 I9.05 J12.89
G1 Y13.112
G2 X14.455 Y24.894 I15.711 J-1.111
X18.182 Y24.817 I1.812 J-2.582
G3 X21.79 Y23.878 I2.922 J3.823
G2 X23.5 Y24. I1.71 J-11.878
X35.5 Y12.071 J-12.
G1 Y12.
G2 X11.5 I-12.
X21.79 Y23.878 I12.
G1 X21.836 Y23.89
X21.877 Y23.912
X21.912 Y23.943
X21.938 Y23.982
X22.095 Y24.278
X22.123 Y24.319
X22.161 Y24.351
X22.205 Y24.373
X22.254 Y24.384
X22.304 Y24.382
X45.03 Y20.684
G3 X45.084 Y21.019 I0.027 J0.167
X44.901 Y20.785 I-0.027 J-0.167
G1 X45.052 Y20.433
X45.078 Y20.359 Z15.707
X45.103 Y20.288 Z15.684
X45.126 Y20.223 Z15.647
X45.146 Y20.166 Z15.597
X45.163 Y20.119 Z15.537
X45.175 Y20.084 Z15.467
X45.183 Y20.063 Z15.392
X45.185 Y20.056 Z15.314
Z14.686
X45.188 Y20.048 Z14.608
X45.196 Y20.027 Z14.533
X45.208 Y19.992 Z14.463
X45.224 Y19.945 Z14.403
X45.245 Y19.888 Z14.353
X45.268 Y19.823 Z14.316
X45.293 Y19.752 Z14.293
X45.319 Y19.678 Z14.286
X45.324 Y19.664
G2 X46.65 Y11.929 I-21.895 J-7.735
X45.381 Y4.381 I-23.079
G3 X46.023 Y3.183 I0.874 J-0.303
X47.166 Y3.918 I0.232 J0.895
G1 X48.522 Y11.616
G3 X48.5 Y12.035 I-0.911 J0.161
G1 X46.196 Y19.972
G3 X45.879 Y20.442 I-0.888 J-0.258
G1 X40.694 Y24.51
G3 X39.368 Y23.247 I-0.571 J-0.728
G2 X42.95 Y12.071 I-15.868 J-11.247
X39.307 Y0.716 I-19.522
G3 X39.638 Y-0.645 I0.752 J-0.538
X40.936 Y-0.119 I0.422 J0.823
G1 X44.816 Y11.326
G3 X44.8 Y11.963 I-0.876 J0.297
G1 X40.123 Y23.782
G3 X39.574 Y24.313 I-0.86 J-0.34
G1 X33.392 Y26.519
G3 X32.55 Y24.89 I-0.311 J-0.871
G2 X39.211 Y13.106 I-9.05 J-12.891
G1 X39.216 Y10.895
G2 X32.599 Y-0.89 I-15.645 J1.034
G1 X32.569 Y-0.917
X32.544 Y-0.949
X30.395 Y-4.444
X30.364 Y-4.482
X30.325 Y-4.512
X30.279 Y-4.531
X30.231 Y-4.539
X30.182 Y-4.535
X1.809 Y1.639
G2 X1.652 Y1.834 I0.043 J0.195
G1 X1.654 Y4.306
X1.651 Y4.339
X1.643 Y4.372
G2 X1.647 Y19.641 I21.857 J7.628
G3 X1.009 Y20.841 I-0.873 J0.305
X-0.136 Y20.11 I-0.235 J-0.895
G1 X-1.521 Y12.425
G3 X-1.5 Y12.007 I0.91 J-0.164
G1 X0.77 Y4.067
G3 X1.087 Y3.594 I0.889 J0.254
G1 X6.305 Y-0.509
G3 X7.632 Y0.753 I0.572 J0.727
G2 X4.05 Y12. I15.868 J11.247
X7.626 Y23.239 I19.45
G3 X7.289 Y24.599 I-0.755 J0.534
X5.993 Y24.066 I-0.418 J-0.825
G1 X2.182 Y12.628
G3 X2.2 Y11.994 I0.878 J-0.292
G1 X6.877 Y0.218
G3 X7.426 Y-0.312 I0.86 J0.341
G1 X13.608 Y-2.519
G3 X14.45 Y-0.89 I0.311 J0.871
G2 X7.789 Y10.894 I9.05 J12.89
G1 Y13.112
G2 X14.455 Y24.894 I15.711 J-1.111
X18.182 Y24.817 I1.812 J-2.582
G3 X21.79 Y23.878 I2.922 J3.823
G2 X23.5 Y24. I1.71 J-11.878
X35.5 Y12.071 J-12.
G1 Y12.
G2 X11.5 I-12.
X21.79 Y23.878 I12.
G1 X21.836 Y23.89
X21.877 Y23.912
X21.912 Y23.943
X21.938 Y23.982
X22.095 Y24.278
X22.123 Y24.319
X22.161 Y24.351
X22.205 Y24.373
X22.254 Y24.384
X22.304 Y24.382
X45.03 Y20.684
G3 X45.084 Y21.019 I0.027 J0.167
X44.901 Y20.785 I-0.027 J-0.167
G1 X45.052 Y20.433
X45.078 Y20.359 Z14.278
X45.103 Y20.288 Z14.255
X45.126 Y20.223 Z14.218
X45.146 Y20.166 Z14.169
X45.163 Y20.119 Z14.108
X45.175 Y20.084 Z14.039
X45.183 Y20.063 Z13.964
X45.185 Y20.056 Z13.886
Z13.257
X45.188 Y20.048 Z13.179
X45.196 Y20.027 Z13.104
X45.208 Y19.992 Z13.035
X45.224 Y19.945 Z12.974
X45.245 Y19.888 Z12.925
X45.268 Y19.823 Z12.888
X45.293 Y19.752 Z12.865
X45.319 Y19.678 Z12.857
X45.324 Y19.664
G2 X46.65 Y11.929 I-21.895 J-7.735
X45.381 Y4.381 I-23.079
G3 X46.023 Y3.183 I0.874 J-0.303
X47.166 Y3.918 I0.232 J0.895
G1 X48.522 Y11.616
G3 X48.5 Y12.035 I-0.911 J0.161
G1 X46.196 Y19.972
G3 X45.879 Y20.442 I-0.888 J-0.258
G1 X40.694 Y24.51
G3 X39.368 Y23.247 I-0.571 J-0.728
G2 X42.95 Y12.071 I-15.868 J-11.247
X39.307 Y0.716 I-19.522
G3 X39.638 Y-0.645 I0.752 J-0.538
X40.936 Y-0.119 I0.422 J0.823
G1 X44.816 Y11.326
G3 X44.8 Y11.963 I-0.876 J0.297
G1 X40.123 Y23.782
G3 X39.574 Y24.313 I-0.86 J-0.34
G1 X33.392 Y26.519
G3 X32.55 Y24.89 I-0.311 J-0.871
G2 X39.211 Y13.106 I-9.05 J-12.891
G1 X39.216 Y10.895
G2 X32.599 Y-0.89 I-15.645 J1.034
G1 X32.569 Y-0.917
X32.544 Y-0.949
X30.395 Y-4.444
X30.364 Y-4.482
X30.325 Y-4.512
X30.279 Y-4.531
X30.231 Y-4.539
X30.182 Y-4.535
X1.809 Y1.639
G2 X1.652 Y1.834 I0.043 J0.195
G1 X1.654 Y4.306
X1.651 Y4.339
X1.643 Y4.372
G2 X1.647 Y19.641 I21.857 J7.628
G3 X1.009 Y20.841 I-0.873 J0.305
X-0.136 Y20.11 I-0.235 J-0.895
G1 X-1.521 Y12.425
G3 X-1.5 Y12.007 I0.91 J-0.164
G1 X0.77 Y4.067
G3 X1.087 Y3.594 I0.889 J0.254
G1 X6.305 Y-0.509
G3 X7.632 Y0.753 I0.572 J0.727
G2 X4.05 Y12. I15.868 J11.247
X7.626 Y23.239 I19.45
G3 X7.289 Y24.599 I-0.755 J0.534
X5.993 Y24.066 I-0.418 J-0.825
G1 X2.182 Y12.628
G3 X2.2 Y11.994 I0.878 J-0.292
G1 X6.877 Y0.218
G3 X7.426 Y-0.312 I0.86 J0.341
G1 X13.608 Y-2.519
G3 X14.45 Y-0.89 I0.311 J0.871
G2 X7.789 Y10.894 I9.05 J12.89
G1 Y13.112
G2 X14.455 Y24.894 I15.711 J-1.111
X18.182 Y24.817 I1.812 J-2.582
G3 X21.79 Y23.878 I2.922 J3.823
G2 X23.5 Y24. I1.71 J-11.878
X35.5 Y12.071 J-12.
G1 Y12.
G2 X11.5 I-12.
X21.79 Y23.878 I12.
G1 X21.836 Y23.89
X21.877 Y23.912
X21.912 Y23.943
X21.938 Y23.982
X22.095 Y24.278
X22.123 Y24.319
X22.161 Y24.351
X22.205 Y24.373
X22.254 Y24.384
X22.304 Y24.382
X45.03 Y20.684
G3 X45.084 Y21.019 I0.027 J0.167
X44.901 Y20.785 I-0.027 J-0.167
G1 X45.052 Y20.433
X45.078 Y20.359 Z12.849
X45.103 Y20.288 Z12.827
X45.126 Y20.223 Z12.79
X45.146 Y20.166 Z12.74
X45.163 Y20.119 Z12.679
X45.175 Y20.084 Z12.61
X45.183 Y20.063 Z12.535
X45.185 Y20.056 Z12.457
Z11.829
X45.188 Y20.048 Z11.751
X45.196 Y20.027 Z11.675
X45.208 Y19.992 Z11.606
X45.224 Y19.945 Z11.546
X45.245 Y19.888 Z11.496
X45.268 Y19.823 Z11.459
X45.293 Y19.752 Z11.436
X45.319 Y19.678 Z11.429
X45.324 Y19.664
G2 X46.65 Y11.929 I-21.895 J-7.735
X45.381 Y4.381 I-23.079
G3 X46.023 Y3.183 I0.874 J-0.303
X47.166 Y3.918 I0.232 J0.895
G1 X48.522 Y11.616
G3 X48.5 Y12.035 I-0.911 J0.161
G1 X46.196 Y19.972
G3 X45.879 Y20.442 I-0.888 J-0.258
G1 X40.694 Y24.51
G3 X39.368 Y23.247 I-0.571 J-0.728
G2 X42.95 Y12.071 I-15.868 J-11.247
X39.307 Y0.716 I-19.522
G3 X39.638 Y-0.645 I0.752 J-0.538
X40.936 Y-0.119 I0.422 J0.823
G1 X44.816 Y11.326
G3 X44.8 Y11.963 I-0.876 J0.297
G1 X40.123 Y23.782
G3 X39.574 Y24.313 I-0.86 J-0.34
G1 X33.392 Y26.519
G3 X32.55 Y24.89 I-0.311 J-0.871
G2 X39.211 Y13.106 I-9.05 J-12.891
G1 X39.216 Y10.895
G2 X32.599 Y-0.89 I-15.645 J1.034
G1 X32.569 Y-0.917
X32.544 Y-0.949
X30.395 Y-4.444
X30.364 Y-4.482
X30.325 Y-4.512
X30.279 Y-4.531
X30.231 Y-4.539
X30.182 Y-4.535
X1.809 Y1.639
G2 X1.652 Y1.834 I0.043 J0.195
G1 X1.654 Y4.306
X1.651 Y4.339
X1.643 Y4.372
G2 X1.647 Y19.641 I21.857 J7.628
G3 X1.009 Y20.841 I-0.873 J0.305
X-0.136 Y20.11 I-0.235 J-0.895
G1 X-1.521 Y12.425
G3 X-1.5 Y12.007 I0.91 J-0.164
G1 X0.77 Y4.067
G3 X1.087 Y3.594 I0.889 J0.254
G1 X6.305 Y-0.509
G3 X7.632 Y0.753 I0.572 J0.727
G2 X4.05 Y12. I15.868 J11.247
X7.626 Y23.239 I19.45
G3 X7.289 Y24.599 I-0.755 J0.534
X5.993 Y24.066 I-0.418 J-0.825
G1 X2.182 Y12.628
G3 X2.2 Y11.994 I0.878 J-0.292
G1 X6.877 Y0.218
G3 X7.426 Y-0.312 I0.86 J0.341
G1 X13.608 Y-2.519
G3 X14.45 Y-0.89 I0.311 J0.871
G2 X7.789 Y10.894 I9.05 J12.89
G1 Y13.112
G2 X14.455 Y24.894 I15.711 J-1.111
X18.182 Y24.817 I1.812 J-2.582
G3 X21.79 Y23.878 I2.922 J3.823
G2 X23.5 Y24. I1.71 J-11.878
X35.5 Y12.071 J-12.
G1 Y12.
G2 X11.5 I-12.
X21.79 Y23.878 I12.
G1 X21.836 Y23.89
X21.877 Y23.912
X21.912 Y23.943
X21.938 Y23.982
X22.095 Y24.278
X22.123 Y24.319
X22.161 Y24.351
X22.205 Y24.373
X22.254 Y24.384
X22.304 Y24.382
X45.03 Y20.684
G3 X45.084 Y21.019 I0.027 J0.167
X44.901 Y20.785 I-0.027 J-0.167
G1 X45.052 Y20.433
X45.078 Y20.359 Z11.421
X45.103 Y20.288 Z11.398
X45.126 Y20.223 Z11.361
X45.146 Y20.166 Z11.311
X45.163 Y20.119 Z11.251
X45.175 Y20.084 Z11.182
X45.183 Y20.063 Z11.107
X45.185 Y20.056 Z11.029
Z10.4
X45.188 Y20.048 Z10.322
X45.196 Y20.027 Z10.247
X45.208 Y19.992 Z10.178
X45.224 Y19.945 Z10.117
X45.245 Y19.888 Z10.067
X45.268 Y19.823 Z10.03
X45.293 Y19.752 Z10.008
X45.319 Y19.678 Z10.
X45.324 Y19.664
G2 X46.65 Y11.929 I-21.895 J-7.735
X45.381 Y4.381 I-23.079
G3 X46.023 Y3.183 I0.874 J-0.303
X47.166 Y3.918 I0.232 J0.895
G1 X48.522 Y11.616
G3 X48.5 Y12.035 I-0.911 J0.161
G1 X46.196 Y19.972
G3 X45.879 Y20.442 I-0.888 J-0.258
G1 X40.694 Y24.51
G3 X39.368 Y23.247 I-0.571 J-0.728
G2 X42.95 Y12.071 I-15.868 J-11.247
X39.307 Y0.716 I-19.522
G3 X39.638 Y-0.645 I0.752 J-0.538
X40.936 Y-0.119 I0.422 J0.823
G1 X44.816 Y11.326
G3 X44.8 Y11.963 I-0.876 J0.297
G1 X40.123 Y23.782
G3 X39.574 Y24.313 I-0.86 J-0.34
G1 X33.392 Y26.519
G3 X32.55 Y24.89 I-0.311 J-0.871
G2 X39.211 Y13.106 I-9.05 J-12.891
G1 X39.216 Y10.895
G2 X32.599 Y-0.89 I-15.645 J1.034
G1 X32.569 Y-0.917
X32.544 Y-0.949
X30.395 Y-4.444
X30.364 Y-4.482
X30.325 Y-4.512
X30.279 Y-4.531
X30.231 Y-4.539
X30.182 Y-4.535
X1.809 Y1.639
G2 X1.652 Y1.834 I0.043 J0.195
G1 X1.654 Y4.306
X1.651 Y4.339
X1.643 Y4.372
G2 X1.647 Y19.641 I21.857 J7.628
G3 X1.009 Y20.841 I-0.873 J0.305
X-0.136 Y20.11 I-0.235 J-0.895
G1 X-1.521 Y12.425
G3 X-1.5 Y12.007 I0.91 J-0.164
G1 X0.77 Y4.067
G3 X1.087 Y3.594 I0.889 J0.254
G1 X6.305 Y-0.509
G3 X7.632 Y0.753 I0.572 J0.727
G2 X4.05 Y12. I15.868 J11.247
X7.626 Y23.239 I19.45
G3 X7.289 Y24.599 I-0.755 J0.534
X5.993 Y24.066 I-0.418 J-0.825
G1 X2.182 Y12.628
G3 X2.2 Y11.994 I0.878 J-0.292
G1 X6.877 Y0.218
G3 X7.426 Y-0.312 I0.86 J0.341
G1 X13.608 Y-2.519
G3 X14.45 Y-0.89 I0.311 J0.871
G2 X7.789 Y10.894 I9.05 J12.89
G1 Y13.112
G2 X14.455 Y24.894 I15.711 J-1.111
X18.182 Y24.817 I1.812 J-2.582
G3 X21.79 Y23.878 I2.922 J3.823
G2 X23.5 Y24. I1.71 J-11.878
X35.5 Y12.071 J-12.
G1 Y12.
G2 X11.5 I-12.
X21.79 Y23.878 I12.
G1 X21.851 Y23.891
X21.91 Y23.915
X21.964 Y23.947
X23.598 Y25.099
X23.662 Y25.144 Z10.008
X23.723 Y25.187 Z10.03
X23.78 Y25.227 Z10.067
X23.829 Y25.262 Z10.117
X23.87 Y25.291 Z10.178
X23.9 Y25.312 Z10.247
X23.919 Y25.325 Z10.322
X23.925 Y25.33 Z10.4
G0 Z35.
(2D POCKET1)
G0 X26.091 Y13.174
Z35.
Z25.
G1 Z22.894 F2000.
X26.076 Y13.193 Z22.757
X26.031 Y13.246 Z22.637
X25.959 Y13.324 Z22.548
X25.865 Y13.415 Z22.5
G3 X23.329 Y10.585 Z21.447 I-1.268 J-1.415
X25.865 Y13.415 Z20.395 I1.268 J1.415
X23.329 Y10.585 Z19.342 I-1.268 J-1.415
X26.497 Y12. Z18.571 I1.268 J1.415
X24.3 I-1.098
X26.5 I1.1
X20.5 I-3.
X26.5 I3.
G1 X26.494 Y12.05
X26.475 Y12.097
X26.445 Y12.137
X26.406 Y12.169
X23.966 Y13.701
X23.921 Y13.723
X23.871 Y13.732
X23.821 Y13.728
X23.773 Y13.712
G3 X25.42 Y10.288 Z17.519 I0.823 J-1.712
X26.497 Y12. Z17.143 I-0.823 J1.712
X24.3 I-1.098
X26.5 I1.1
X20.5 I-3.
X26.5 I3.
G1 X26.494 Y12.05
X26.475 Y12.097
X26.445 Y12.137
X26.406 Y12.169
X23.966 Y13.701
X23.921 Y13.723
X23.871 Y13.732
X23.821 Y13.728
X23.773 Y13.712
G3 X25.42 Y10.288 Z16.09 I0.823 J-1.712
X26.497 Y12. Z15.714 I-0.823 J1.712
X24.3 I-1.098
X26.5 I1.1
X20.5 I-3.
X26.5 I3.
G1 X26.494 Y12.05
X26.475 Y12.097
X26.445 Y12.137
X26.406 Y12.169
X23.966 Y13.701
X23.921 Y13.723
X23.871 Y13.732
X23.821 Y13.728
X23.773 Y13.712
G3 X25.42 Y10.288 Z14.662 I0.823 J-1.712
X26.497 Y12. Z14.286 I-0.823 J1.712
X24.3 I-1.098
X26.5 I1.1
X20.5 I-3.
X26.5 I3.
G1 X26.494 Y12.05
X26.475 Y12.097
X26.445 Y12.137
X26.406 Y12.169
X23.966 Y13.701
X23.921 Y13.723
X23.871 Y13.732
X23.821 Y13.728
X23.773 Y13.712
G3 X25.42 Y10.288 Z13.233 I0.823 J-1.712
X26.497 Y12. Z12.857 I-0.823 J1.712
X24.3 I-1.098
X26.5 I1.1
X20.5 I-3.
X26.5 I3.
G1 X26.494 Y12.05
X26.475 Y12.097
X26.445 Y12.137
X26.406 Y12.169
X23.966 Y13.701
X23.921 Y13.723
X23.871 Y13.732
X23.821 Y13.728
X23.773 Y13.712
G3 X25.42 Y10.288 Z11.805 I0.823 J-1.712
X26.497 Y12. Z11.429 I-0.823 J1.712
X24.3 I-1.098
X26.5 I1.1
X20.5 I-3.
X26.5 I3.
G1 X26.494 Y12.05
X26.475 Y12.097
X26.445 Y12.137
X26.406 Y12.169
X23.966 Y13.701
X23.921 Y13.723
X23.871 Y13.732
X23.821 Y13.728
X23.773 Y13.712
G3 X25.42 Y10.288 Z10.376 I0.823 J-1.712
X26.497 Y12. Z10. I-0.823 J1.712
X24.3 I-1.098
X26.5 I1.1
X20.5 I-3.
X26.5 I3.
G1 X26.494 Y12.05
X26.475 Y12.097
X26.445 Y12.137
X26.406 Y12.169
X23.966 Y13.701
X23.921 Y13.723
X23.871 Y13.732
X23.821 Y13.728
X23.773 Y13.712
G3 X25.42 Y10.288 Z8.947 I0.823 J-1.712
X26.497 Y12. Z8.571 I-0.823 J1.712
X24.3 I-1.098
X26.5 I1.1
X20.5 I-3.
X26.5 I3.
G1 X26.494 Y12.05
X26.475 Y12.097
X26.445 Y12.137
X26.406 Y12.169
X23.966 Y13.701
X23.921 Y13.723
X23.871 Y13.732
X23.821 Y13.728
X23.773 Y13.712
G3 X25.42 Y10.288 Z7.519 I0.823 J-1.712
X26.497 Y12. Z7.143 I-0.823 J1.712
X24.3 I-1.098
X26.5 I1.1
X20.5 I-3.
X26.5 I3.
G1 X26.494 Y12.05
X26.475 Y12.097
X26.445 Y12.137
X26.406 Y12.169
X23.966 Y13.701
X23.921 Y13.723
X23.871 Y13.732
X23.821 Y13.728
X23.773 Y13.712
G3 X25.42 Y10.288 Z6.09 I0.823 J-1.712
X26.497 Y12. Z5.714 I-0.823 J1.712
X24.3 I-1.098
X26.5 I1.1
X20.5 I-3.
X26.5 I3.
G1 X26.494 Y12.05
X26.475 Y12.097
X26.445 Y12.137
X26.406 Y12.169
X23.966 Y13.701
X23.921 Y13.723
X23.871 Y13.732
X23.821 Y13.728
X23.773 Y13.712
G3 X25.42 Y10.288 Z4.662 I0.823 J-1.712
X26.497 Y12. Z4.286 I-0.823 J1.712
X24.3 I-1.098
X26.5 I1.1
X20.5 I-3.
X26.5 I3.
G1 X26.494 Y12.05
X26.475 Y12.097
X26.445 Y12.137
X26.406 Y12.169
X23.966 Y13.701
X23.921 Y13.723
X23.871 Y13.732
X23.821 Y13.728
X23.773 Y13.712
G3 X25.42 Y10.288 Z3.233 I0.823 J-1.712
X26.497 Y12. Z2.857 I-0.823 J1.712
X24.3 I-1.098
X26.5 I1.1
X20.5 I-3.
X26.5 I3.
G1 X26.494 Y12.05
X26.475 Y12.097
X26.445 Y12.137
X26.406 Y12.169
X23.966 Y13.701
X23.921 Y13.723
X23.871 Y13.732
X23.821 Y13.728
X23.773 Y13.712
G3 X25.42 Y10.288 Z1.805 I0.823 J-1.712
X26.497 Y12. Z1.429 I-0.823 J1.712
X24.3 I-1.098
X26.5 I1.1
X20.5 I-3.
X26.5 I3.
G1 X26.494 Y12.05
X26.475 Y12.097
X26.445 Y12.137
X26.406 Y12.169
X23.966 Y13.701
X23.921 Y13.723
X23.871 Y13.732
X23.821 Y13.728
X23.773 Y13.712
G3 X25.42 Y10.288 Z0.376 I0.823 J-1.712
X26.497 Y12. Z0. I-0.823 J1.712
X24.3 I-1.098
X26.5 I1.1
X20.5 I-3.
X26.5 I3.
G1 X26.493 Y12.076 Z0.015
X26.471 Y12.149 Z0.03
X26.442 Y12.207 Z0.074
X26.404 Y12.26 Z0.117
X26.374 Y12.291 Z0.182
X26.341 Y12.319 Z0.247
X26.316 Y12.337 Z0.4
G0 Z25.
X38.837 Y13.066
G1 Z22.5 F2000.
Z18.971 F500.
X38.819 Y13.091 Z18.818
X38.791 Y13.124 Z18.753
X38.76 Y13.154 Z18.689
X38.707 Y13.192 Z18.645
X38.649 Y13.221 Z18.602
X38.576 Y13.243 Z18.587
X38.5 Y13.25 Z18.571
G3 Y10.75 J-1.25 F2000.
Y13.25 J1.25
Y10.75 Z17.879 J-1.25
X39.744 Y12.124 Z17.511 J1.25
X38.254 Y13.226 Z17.143 I-1.244 J-0.124
X38.746 Y10.774 I0.246 J-1.226
X38.254 Y13.226 I-0.246 J1.226
X38.746 Y10.774 Z16.45 I0.246 J-1.226
X39.695 Y12.366 Z16.082 I-0.246 J1.226
X38.017 Y13.153 Z15.714 I-1.195 J-0.366
X38.983 Y10.847 I0.483 J-1.153
X38.017 Y13.153 I-0.483 J1.153
X38.983 Y10.847 Z15.022 I0.483 J-1.153
X39.6 Y12.595 Z14.654 I-0.483 J1.153
X37.8 Y13.035 Z14.286 I-1.1 J-0.595
X39.2 Y10.965 I0.7 J-1.035
X37.8 Y13.035 I-0.7 J1.035
X39.2 Y10.965 Z13.593 I0.7 J-1.035
X39.461 Y12.8 Z13.225 I-0.7 J1.035
X37.609 Y12.877 Z12.857 I-0.961 J-0.8
X39.391 Y11.123 I0.891 J-0.877
X37.609 Y12.877 I-0.891 J0.877
X39.391 Y11.123 Z12.165 I0.891 J-0.877
X39.285 Y12.973 Z11.797 I-0.891 J0.877
X37.454 Y12.684 Z11.429 I-0.785 J-0.973
X39.546 Y11.316 I1.046 J-0.684
X37.454 Y12.684 I-1.046 J0.684
X39.546 Y11.316 Z10.736 I1.046 J-0.684
X39.078 Y13.109 Z10.368 I-1.046 J0.684
X37.34 Y12.465 Z10. I-0.578 J-1.109
X39.66 Y11.535 I1.16 J-0.465
X37.34 Y12.465 I-1.16 J0.465
X39.66 Y11.535 Z9.308 I1.16 J-0.465
X38.848 Y13.201 Z8.939 I-1.16 J0.465
X37.271 Y12.227 Z8.571 I-0.348 J-1.201
X39.729 Y11.773 I1.229 J-0.227
X37.271 Y12.227 I-1.229 J0.227
X39.729 Y11.773 Z7.879 I1.229 J-0.227
X38.605 Y13.246 Z7.511 I-1.229 J0.227
X37.25 Y11.981 Z7.143 I-0.105 J-1.246
X39.75 Y12.019 I1.25 J0.019
X37.25 Y11.981 I-1.25 J-0.019
X39.75 Y12.019 Z6.45 I1.25 J0.019
X38.357 Y13.242 Z6.082 I-1.25 J-0.019
X37.278 Y11.735 Z5.714 I0.143 J-1.242
X39.722 Y12.265 I1.222 J0.265
X37.278 Y11.735 I-1.222 J-0.265
X39.722 Y12.265 Z5.022 I1.222 J0.265
X38.115 Y13.189 Z4.654 I-1.222 J-0.265
X37.355 Y11.499 Z4.286 I0.385 J-1.189
X39.645 Y12.501 I1.145 J0.501
X37.355 Y11.499 I-1.145 J-0.501
X39.645 Y12.501 Z3.593 I1.145 J0.501
X37.889 Y13.09 Z3.225 I-1.145 J-0.501
X37.476 Y11.284 Z2.857 I0.611 J-1.09
X39.524 Y12.716 I1.024 J0.716
X37.476 Y11.284 I-1.024 J-0.716
X39.524 Y12.716 Z2.165 I1.024 J0.716
X37.686 Y12.948 Z1.797 I-1.024 J-0.716
X37.637 Y11.096 Z1.429 I0.814 J-0.948
X39.363 Y12.904 I0.863 J0.904
X37.637 Y11.096 I-0.863 J-0.904
X39.363 Y12.904 Z0.736 I0.863 J0.904
X37.515 Y12.769 Z0.368 I-0.863 J-0.904
X37.832 Y10.944 Z0. I0.985 J-0.769
X39.168 Y13.056 I0.668 J1.056
X37.832 Y10.944 I-0.668 J-1.056
G1 X37.9 Y10.909 Z0.015
X37.974 Y10.888 Z0.03
X38.038 Y10.882 Z0.074
X38.103 Y10.886 Z0.117
X38.145 Y10.894 Z0.182
X38.187 Y10.907 Z0.247
X38.215 Y10.919 Z0.4
G0 Z25.
X7.434 Y12.337
G1 Z22.5 F2000.
Z18.971 F500.
X7.409 Y12.319 Z18.818
X7.376 Y12.291 Z18.753
X7.346 Y12.26 Z18.689
X7.308 Y12.207 Z18.645
X7.279 Y12.149 Z18.602
X7.257 Y12.076 Z18.587
X7.25 Y12. Z18.571
G3 X9.75 I1.25 F2000.
X7.25 I-1.25
X9.75 Z17.879 I1.25
X8.376 Y13.244 Z17.511 I-1.25
X7.274 Y11.754 Z17.143 I0.124 J-1.244
X9.726 Y12.246 I1.226 J0.246
X7.274 Y11.754 I-1.226 J-0.246
G1 X7.305 Y11.634 Z17.121
X7.347 Y11.517 Z17.099
G3 X9.653 Y12.483 Z16.407 I1.153 J0.483
X7.347 Y11.517 Z15.714 I-1.153 J-0.483
X9.653 Y12.483 I1.153 J0.483
X7.347 Y11.517 I-1.153 J-0.483
X9.653 Y12.483 Z15.022 I1.153 J0.483
X7.905 Y13.1 Z14.654 I-1.153 J-0.483
X7.465 Y11.3 Z14.286 I0.595 J-1.1
X9.535 Y12.7 I1.035 J0.7
X7.465 Y11.3 I-1.035 J-0.7
X9.535 Y12.7 Z13.593 I1.035 J0.7
X7.7 Y12.961 Z13.225 I-1.035 J-0.7
X7.623 Y11.109 Z12.857 I0.8 J-0.961
X9.377 Y12.891 I0.877 J0.891
X7.623 Y11.109 I-0.877 J-0.891
X9.377 Y12.891 Z12.165 I0.877 J0.891
X7.527 Y12.785 Z11.797 I-0.877 J-0.891
X7.816 Y10.954 Z11.429 I0.973 J-0.785
X9.184 Y13.046 I0.684 J1.046
X7.816 Y10.954 I-0.684 J-1.046
X9.184 Y13.046 Z10.736 I0.684 J1.046
X7.391 Y12.578 Z10.368 I-0.684 J-1.046
X8.035 Y10.84 Z10. I1.109 J-0.578
X8.965 Y13.16 I0.465 J1.16
X8.035 Y10.84 I-0.465 J-1.16
X8.965 Y13.16 Z9.308 I0.465 J1.16
X7.299 Y12.348 Z8.939 I-0.465 J-1.16
X8.273 Y10.771 Z8.571 I1.201 J-0.348
X8.727 Y13.229 I0.227 J1.229
X8.273 Y10.771 I-0.227 J-1.229
X8.727 Y13.229 Z7.879 I0.227 J1.229
X7.254 Y12.105 Z7.511 I-0.227 J-1.229
X8.519 Y10.75 Z7.143 I1.246 J-0.105
X8.481 Y13.25 I-0.019 J1.25
X8.519 Y10.75 I0.019 J-1.25
X8.481 Y13.25 Z6.45 I-0.019 J1.25
X7.258 Y11.857 Z6.082 I0.019 J-1.25
X8.765 Y10.778 Z5.714 I1.242 J0.143
X8.235 Y13.222 I-0.265 J1.222
X8.765 Y10.778 I0.265 J-1.222
X8.235 Y13.222 Z5.022 I-0.265 J1.222
X7.311 Y11.615 Z4.654 I0.265 J-1.222
X9.001 Y10.855 Z4.286 I1.189 J0.385
X7.999 Y13.145 I-0.501 J1.145
X9.001 Y10.855 I0.501 J-1.145
X7.999 Y13.145 Z3.593 I-0.501 J1.145
X7.41 Y11.389 Z3.225 I0.501 J-1.145
X9.216 Y10.976 Z2.857 I1.09 J0.611
X7.784 Y13.024 I-0.716 J1.024
X9.216 Y10.976 I0.716 J-1.024
X7.784 Y13.024 Z2.165 I-0.716 J1.024
X7.552 Y11.186 Z1.797 I0.716 J-1.024
X9.404 Y11.137 Z1.429 I0.948 J0.814
X7.596 Y12.863 I-0.904 J0.863
X9.404 Y11.137 I0.904 J-0.863
X7.596 Y12.863 Z0.736 I-0.904 J0.863
X7.731 Y11.015 Z0.368 I0.904 J-0.863
X9.556 Y11.332 Z0. I0.769 J0.985
X7.444 Y12.668 I-1.056 J0.668
X9.556 Y11.332 I1.056 J-0.668
G1 X9.591 Y11.4 Z0.015
X9.612 Y11.474 Z0.03
X9.618 Y11.538 Z0.074
X9.614 Y11.603 Z0.117
X9.606 Y11.645 Z0.182
X9.593 Y11.687 Z0.247
X9.581 Y11.715 Z0.4
G0 Z35.
(2D CONTOUR1)
G0 X-2.2 Y11.6
Z35.
Z25.
G1 Z22.5 F500.
Z18.971
G18 G2 X-1.8 Z18.571 I0.4
G1 X-1.4 F2000.
G17 G3 X-1. Y12. J0.4
G1 Y14.34
G2 X2.5 Y20.402 I7.
G1 X8.84 Y24.062
G2 X12.34 Y25. I3.5 J-6.062
G1 X34.66
G2 X38.16 Y24.062 J-7.
G1 X44.5 Y20.402
G2 X48. Y14.34 I-3.5 J-6.062
G1 Y9.66
G2 X44.5 Y3.598 I-7.
G1 X38.16 Y-0.062
G2 X34.66 Y-1. I-3.5 J6.062
G1 X12.34
G2 X8.84 Y-0.062 J7.
G1 X2.5 Y3.598
G2 X-1. Y9.66 I3.5 J6.062
G1 Y12.
G3 X-1.4 Y12.4 I-0.4
G1 X-1.8
G18 G3 X-2.2 Z18.971 K0.4
G0 Z25.
Y11.6
G1 Z21.071 F500.
Z17.543
G2 X-1.8 Z17.143 I0.4
G1 X-1.4 F2000.
G17 G3 X-1. Y12. J0.4
G1 Y14.34
G2 X2.5 Y20.402 I7.
G1 X8.84 Y24.062
G2 X12.34 Y25. I3.5 J-6.062
G1 X34.66
G2 X38.16 Y24.062 J-7.
G1 X44.5 Y20.402
G2 X48. Y14.34 I-3.5 J-6.062
G1 Y9.66
G2 X44.5 Y3.598 I-7.
G1 X38.16 Y-0.062
G2 X34.66 Y-1. I-3.5 J6.062
G1 X12.34
G2 X8.84 Y-0.062 J7.
G1 X2.5 Y3.598
G2 X-1. Y9.66 I3.5 J6.062
G1 Y12.
G3 X-1.4 Y12.4 I-0.4
G1 X-1.8
G18 G3 X-2.2 Z17.543 K0.4
G0 Z25.
Y11.6
G1 Z19.643 F500.
Z16.114
G2 X-1.8 Z15.714 I0.4
G1 X-1.4 F2000.
G17 G3 X-1. Y12. J0.4
G1 Y14.34
G2 X2.5 Y20.402 I7.
G1 X8.84 Y24.062
G2 X12.34 Y25. I3.5 J-6.062
G1 X34.66
G2 X38.16 Y24.062 J-7.
G1 X44.5 Y20.402
G2 X48. Y14.34 I-3.5 J-6.062
G1 Y9.66
G2 X44.5 Y3.598 I-7.
G1 X38.16 Y-0.062
G2 X34.66 Y-1. I-3.5 J6.062
G1 X12.34
G2 X8.84 Y-0.062 J7.
G1 X2.5 Y3.598
G2 X-1. Y9.66 I3.5 J6.062
G1 Y12.
G3 X-1.4 Y12.4 I-0.4
G1 X-1.8
G18 G3 X-2.2 Z16.114 K0.4
G0 Z25.
Y11.6
G1 Z18.214 F500.
Z14.686
G2 X-1.8 Z14.286 I0.4
G1 X-1.4 F2000.
G17 G3 X-1. Y12. J0.4
G1 Y14.34
G2 X2.5 Y20.402 I7.
G1 X8.84 Y24.062
G2 X12.34 Y25. I3.5 J-6.062
G1 X34.66
G2 X38.16 Y24.062 J-7.
G1 X44.5 Y20.402
G2 X48. Y14.34 I-3.5 J-6.062
G1 Y9.66
G2 X44.5 Y3.598 I-7.
G1 X38.16 Y-0.062
G2 X34.66 Y-1. I-3.5 J6.062
G1 X12.34
G2 X8.84 Y-0.062 J7.
G1 X2.5 Y3.598
G2 X-1. Y9.66 I3.5 J6.062
G1 Y12.
G3 X-1.4 Y12.4 I-0.4
G1 X-1.8
G18 G3 X-2.2 Z14.686 K0.4
G0 Z25.
Y11.6
G1 Z16.786 F500.
Z13.257
G2 X-1.8 Z12.857 I0.4
G1 X-1.4 F2000.
G17 G3 X-1. Y12. J0.4
G1 Y14.34
G2 X2.5 Y20.402 I7.
G1 X8.84 Y24.062
G2 X12.34 Y25. I3.5 J-6.062
G1 X34.66
G2 X38.16 Y24.062 J-7.
G1 X44.5 Y20.402
G2 X48. Y14.34 I-3.5 J-6.062
G1 Y9.66
G2 X44.5 Y3.598 I-7.
G1 X38.16 Y-0.062
G2 X34.66 Y-1. I-3.5 J6.062
G1 X12.34
G2 X8.84 Y-0.062 J7.
G1 X2.5 Y3.598
G2 X-1. Y9.66 I3.5 J6.062
G1 Y12.
G3 X-1.4 Y12.4 I-0.4
G1 X-1.8
G18 G3 X-2.2 Z13.257 K0.4
G0 Z25.
Y11.6
G1 Z15.357 F500.
Z11.829
G2 X-1.8 Z11.429 I0.4
G1 X-1.4 F2000.
G17 G3 X-1. Y12. J0.4
G1 Y14.34
G2 X2.5 Y20.402 I7.
G1 X8.84 Y24.062
G2 X12.34 Y25. I3.5 J-6.062
G1 X34.66
G2 X38.16 Y24.062 J-7.
G1 X44.5 Y20.402
G2 X48. Y14.34 I-3.5 J-6.062
G1 Y9.66
G2 X44.5 Y3.598 I-7.
G1 X38.16 Y-0.062
G2 X34.66 Y-1. I-3.5 J6.062
G1 X12.34
G2 X8.84 Y-0.062 J7.
G1 X2.5 Y3.598
G2 X-1. Y9.66 I3.5 J6.062
G1 Y12.
G3 X-1.4 Y12.4 I-0.4
G1 X-1.8
G18 G3 X-2.2 Z11.829 K0.4
G0 Z25.
Y11.6
G1 Z13.929 F500.
Z10.4
G2 X-1.8 Z10. I0.4
G1 X-1.4 F2000.
G17 G3 X-1. Y12. J0.4
G1 Y14.34
G2 X2.5 Y20.402 I7.
G1 X8.84 Y24.062
G2 X12.34 Y25. I3.5 J-6.062
G1 X34.66
G2 X38.16 Y24.062 J-7.
G1 X44.5 Y20.402
G2 X48. Y14.34 I-3.5 J-6.062
G1 Y9.66
G2 X44.5 Y3.598 I-7.
G1 X38.16 Y-0.062
G2 X34.66 Y-1. I-3.5 J6.062
G1 X12.34
G2 X8.84 Y-0.062 J7.
G1 X2.5 Y3.598
G2 X-1. Y9.66 I3.5 J6.062
G1 Y12.
G3 X-1.4 Y12.4 I-0.4
G1 X-1.8
G18 G3 X-2.2 Z10.4 K0.4
G0 Z25.
Y11.6
G1 Z12.5 F500.
Z8.971
G2 X-1.8 Z8.571 I0.4
G1 X-1.4 F2000.
G17 G3 X-1. Y12. J0.4
G1 Y14.34
G2 X2.5 Y20.402 I7.
G1 X8.84 Y24.062
G2 X12.34 Y25. I3.5 J-6.062
G1 X34.66
G2 X38.16 Y24.062 J-7.
G1 X44.5 Y20.402
G2 X48. Y14.34 I-3.5 J-6.062
G1 Y9.66
G2 X44.5 Y3.598 I-7.
G1 X38.16 Y-0.062
G2 X34.66 Y-1. I-3.5 J6.062
G1 X12.34
G2 X8.84 Y-0.062 J7.
G1 X2.5 Y3.598
G2 X-1. Y9.66 I3.5 J6.062
G1 Y12.
G3 X-1.4 Y12.4 I-0.4
G1 X-1.8
G18 G3 X-2.2 Z8.971 K0.4
G0 Z25.
Y11.6
G1 Z11.071 F500.
Z7.543
G2 X-1.8 Z7.143 I0.4
G1 X-1.4 F2000.
G17 G3 X-1. Y12. J0.4
G1 Y14.34
G2 X2.5 Y20.402 I7.
G1 X8.84 Y24.062
G2 X12.34 Y25. I3.5 J-6.062
G1 X34.66
G2 X38.16 Y24.062 J-7.
G1 X44.5 Y20.402
G2 X48. Y14.34 I-3.5 J-6.062
G1 Y9.66
G2 X44.5 Y3.598 I-7.
G1 X38.16 Y-0.062
G2 X34.66 Y-1. I-3.5 J6.062
G1 X12.34
G2 X8.84 Y-0.062 J7.
G1 X2.5 Y3.598
G2 X-1. Y9.66 I3.5 J6.062
G1 Y12.
G3 X-1.4 Y12.4 I-0.4
G1 X-1.8
G18 G3 X-2.2 Z7.543 K0.4
G0 Z25.
Y11.6
G1 Z9.643 F500.
Z6.114
G2 X-1.8 Z5.714 I0.4
G1 X-1.4 F2000.
G17 G3 X-1. Y12. J0.4
G1 Y14.34
G2 X2.5 Y20.402 I7.
G1 X8.84 Y24.062
G2 X12.34 Y25. I3.5 J-6.062
G1 X34.66
G2 X38.16 Y24.062 J-7.
G1 X44.5 Y20.402
G2 X48. Y14.34 I-3.5 J-6.062
G1 Y9.66
G2 X44.5 Y3.598 I-7.
G1 X38.16 Y-0.062
G2 X34.66 Y-1. I-3.5 J6.062
G1 X12.34
G2 X8.84 Y-0.062 J7.
G1 X2.5 Y3.598
G2 X-1. Y9.66 I3.5 J6.062
G1 Y12.
G3 X-1.4 Y12.4 I-0.4
G1 X-1.8
G18 G3 X-2.2 Z6.114 K0.4
G0 Z25.
Y11.6
G1 Z8.214 F500.
Z4.686
G2 X-1.8 Z4.286 I0.4
G1 X-1.4 F2000.
G17 G3 X-1. Y12. J0.4
G1 Y14.34
G2 X2.5 Y20.402 I7.
G1 X8.84 Y24.062
G2 X12.34 Y25. I3.5 J-6.062
G1 X34.66
G2 X38.16 Y24.062 J-7.
G1 X44.5 Y20.402
G2 X48. Y14.34 I-3.5 J-6.062
G1 Y9.66
G2 X44.5 Y3.598 I-7.
G1 X38.16 Y-0.062
G2 X34.66 Y-1. I-3.5 J6.062
G1 X12.34
G2 X8.84 Y-0.062 J7.
G1 X2.5 Y3.598
G2 X-1. Y9.66 I3.5 J6.062
G1 Y12.
G3 X-1.4 Y12.4 I-0.4
G1 X-1.8
G18 G3 X-2.2 Z4.686 K0.4
G0 Z25.
Y11.6
G1 Z6.786 F500.
Z3.257
G2 X-1.8 Z2.857 I0.4
G1 X-1.4 F2000.
G17 G3 X-1. Y12. J0.4
G1 Y14.34
G2 X2.5 Y20.402 I7.
G1 X8.84 Y24.062
G2 X12.34 Y25. I3.5 J-6.062
G1 X34.66
G2 X38.16 Y24.062 J-7.
G1 X44.5 Y20.402
G2 X48. Y14.34 I-3.5 J-6.062
G1 Y9.66
G2 X44.5 Y3.598 I-7.
G1 X38.16 Y-0.062
G2 X34.66 Y-1. I-3.5 J6.062
G1 X12.34
G2 X8.84 Y-0.062 J7.
G1 X2.5 Y3.598
G2 X-1. Y9.66 I3.5 J6.062
G1 Y12.
G3 X-1.4 Y12.4 I-0.4
G1 X-1.8
G18 G3 X-2.2 Z3.257 K0.4
G0 Z25.
Y11.6
G1 Z5.357 F500.
Z2.
Z25. F2000.
Z2. F500.
X-1.8
X-1.4 F2000.
G17 G3 X-1. Y12. J0.4
G1 Y14.34
G2 X-0.865 Y15.707 I7.
G1 Z1.429 F500.
G2 X2.5 Y20.402 I6.865 J-1.367 F2000.
G1 X8.84 Y24.062
G2 X12.34 Y25. I3.5 J-6.062
G1 X20.887
Z2.
X26.887
Z1.429 F500.
X34.66 F2000.
G2 X38.16 Y24.062 J-7.
G1 X44.5 Y20.402
G2 X47.972 Y14.969 I-3.5 J-6.062
G1 Z2.
G2 X48. Y14.34 I-6.972 J-0.629
G1 Y9.66
G2 X47.966 Y8.969 I-7.
G1 Z1.429 F500.
G2 X44.5 Y3.598 I-6.966 J0.691 F2000.
G1 X38.16 Y-0.062
G2 X34.66 Y-1. I-3.5 J6.062
G1 X25.867
Z2.
X19.867
Z1.429 F500.
X12.34 F2000.
G2 X8.84 Y-0.062 J7.
G1 X2.5 Y3.598
G2 X-1. Y9.66 I3.5 J6.062
G1 Y9.707
Z2.
Y12.
G3 X-1.4 Y12.4 I-0.4
G1 X-2.2
G0 Z25.
Y11.6
G1 Z3.929 F500.
Z2.
X-1.8
X-1.4 F2000.
G3 X-1. Y12. J0.4
G1 Y14.34
G2 X-0.865 Y15.707 I7.
G1 Z0. F500.
G2 X2.5 Y20.402 I6.865 J-1.367 F2000.
G1 X8.84 Y24.062
G2 X12.34 Y25. I3.5 J-6.062
G1 X20.887
Z2.
X26.887
Z0. F500.
X34.66 F2000.
G2 X38.16 Y24.062 J-7.
G1 X44.5 Y20.402
G2 X47.972 Y14.969 I-3.5 J-6.062
G1 Z2.
G2 X48. Y14.34 I-6.972 J-0.629
G1 Y9.66
G2 X47.966 Y8.969 I-7.
G1 Z0. F500.
G2 X44.5 Y3.598 I-6.966 J0.691 F2000.
G1 X38.16 Y-0.062
G2 X34.66 Y-1. I-3.5 J6.062
G1 X25.867
Z2.
X19.867
Z0. F500.
X12.34 F2000.
G2 X8.84 Y-0.062 J7.
G1 X2.5 Y3.598
G2 X-1. Y9.66 I3.5 J6.062
G1 Y9.707
Z2.
Y12.
G3 X-1.4 Y12.4 I-0.4
G1 X-2.2
G0 Z35.
G91
G28 Z0.
G90
M5
G91
G28 X0. Y0.
G90
M30
%
