%
O00001003
(T1  D=8. CR=0. - ZMIN=-3. - FLAT END MILL)
G90 G94 G17
G21
G91
G28 Z0.
G90
(FACE1)
T1 M6
S12000 M3
G54
G0 X107.684 Y4.088
G43 Z15. H1
G0 Z5.
G1 Z-0.7 F2400.
G18 G3 X106.884 Z-1.5 I-0.8
G1 X105.024
X8.832
X7.004
G17 G2 Y11.1 J3.506
G1 X109.004
G3 Y18.112 J3.506
G1 X7.004
G2 Y25.124 J3.506
G1 X8.42
X106.147
G18 G2 X106.947 Z-0.7 K0.8
G0 Z5.
X107.684 Y4.088
G1 Z-2.2 F2400.
G3 X106.884 Z-3. I-0.8
G1 X105.024
X8.832
X7.004
G17 G2 Y11.1 J3.506
G1 X109.004
G3 Y18.112 J3.506
G1 X7.004
G2 Y25.124 J3.506
G1 X8.42
X106.147
G18 G2 X106.947 Z-2.2 K0.8
G0 Z5.
X104.82 Y42.34
G1 Z-0.7 F2400.
G3 X104.02 Z-1.5 I-0.8
G1 X101.33
X4.518
X1.
G17 G2 Y49.642 J3.651
G1 X103.
G3 Y56.945 J3.651
G1 X1.
G2 Y64.247 J3.651
G1 X5.703
X100.949
G18 G2 X101.749 Z-0.7 K0.8
G0 Z5.
X68.09 Y71.55
G1 Z-0.7 F2400.
G3 X67.29 Z-1.5 I-0.8
G1 X65.417
X58.702
X52.29
G17 G2 Y78.853 J3.651
G1 X71.829
X72.06
G3 Y86.155 J3.651
G1 X52.06
G2 Y93.458 J3.651
G1 X72.06
G3 Y100.76 J3.651
G1 X52.06
G2 Y108.063 J3.651
G1 X72.06
G3 Y115.366 J3.651
G1 X52.06
G2 Y122.668 J3.651
G1 X72.06
G3 Y129.971 J3.651
G1 X52.06
G2 Y137.273 J3.651
G1 X72.06
G3 Y144.576 J3.651
G1 X52.06
G2 Y151.879 J3.651
G1 X72.06
G3 Y159.181 J3.651
G1 X52.06
G2 Y166.484 J3.651
G1 X72.06
G3 Y173.786 J3.651
G1 X52.06
G2 Y181.089 J3.651
G1 X72.06
G18 G2 X72.86 Z-0.7 K0.8
G0 Z5.
X104.82 Y42.34
G1 Z-2.2 F2400.
G3 X104.02 Z-3. I-0.8
G1 X101.33
X4.518
X1.
G17 G2 Y49.642 J3.651
G1 X103.
G3 Y56.945 J3.651
G1 X1.
G2 Y64.247 J3.651
G1 X5.703
X100.949
G18 G2 X101.749 Z-2.2 K0.8
G0 Z5.
X68.09 Y71.55
G1 Z-2.2 F2400.
G3 X67.29 Z-3. I-0.8
G1 X65.417
X58.702
X52.29
G17 G2 Y78.853 J3.651
G1 X71.829
X72.06
G3 Y86.155 J3.651
G1 X52.06
G2 Y93.458 J3.651
G1 X72.06
G3 Y100.76 J3.651
G1 X52.06
G2 Y108.063 J3.651
G1 X72.06
G3 Y115.366 J3.651
G1 X52.06
G2 Y122.668 J3.651
G1 X72.06
G3 Y129.971 J3.651
G1 X52.06
G2 Y137.273 J3.651
G1 X72.06
G3 Y144.576 J3.651
G1 X52.06
G2 Y151.879 J3.651
G1 X72.06
G3 Y159.181 J3.651
G1 X52.06
G2 Y166.484 J3.651
G1 X72.06
G3 Y173.786 J3.651
G1 X52.06
G2 Y181.089 J3.651
G1 X72.06
G18 G2 X72.86 Z-2.2 K0.8
G0 Z5.
X40.661 Y77.76
G1 Z-0.7 F2400.
G3 X39.861 Z-1.5 I-0.8
G1 X36.716
X17.403
X17.06
G17 G2 Y85.097 J3.668
G1 X37.06
G3 Y92.433 J3.668
G1 X17.06
G2 Y99.77 J3.668
G1 X37.06
G3 Y107.106 J3.668
G1 X17.06
G2 Y114.443 J3.668
G1 X37.06
G3 Y121.78 J3.668
G1 X17.06
G2 Y129.116 J3.668
G1 X37.06
G3 Y136.453 J3.668
G1 X17.06
G2 Y143.789 J3.668
G1 X37.06
G3 Y151.126 J3.668
G1 X17.06
G2 Y158.462 J3.668
G1 X37.06
G3 Y165.799 J3.668
G1 X17.06
G2 Y173.135 J3.668
G1 X37.06
G3 Y180.472 J3.668
G1 X17.06
G18 G3 X16.26 Z-0.7 K0.8
G0 Z5.
X13.456 Y77.76
G1 Z-2.2 F2400.
G2 X14.256 Z-3. I0.8
G1 X17.403
X36.716
X37.06
G17 G3 Y85.097 J3.668
G1 X17.06
G2 Y92.433 J3.668
G1 X37.06
G3 Y99.77 J3.668
G1 X17.06
G2 Y107.106 J3.668
G1 X37.06
G3 Y114.443 J3.668
G1 X17.06
G2 Y121.78 J3.668
G1 X37.06
G3 Y129.116 J3.668
G1 X17.06
G2 Y136.453 J3.668
G1 X37.06
G3 Y143.789 J3.668
G1 X17.06
G2 Y151.126 J3.668
G1 X37.06
G3 Y158.462 J3.668
G1 X17.06
G2 Y165.799 J3.668
G1 X37.06
G3 Y173.135 J3.668
G1 X17.06
G2 Y180.472 J3.668
G1 X37.06
G18 G2 X37.86 Z-2.2 K0.8
G0 Z5.
X44.579 Y202.93
G1 Z-0.7 F2400.
G3 X43.779 Z-1.5 I-0.8
G1 X39.491
X19.491
G17 G2 Y210.436 J3.753
G1 X39.491
G3 Y217.942 J3.753
G1 X19.491
G2 Y225.448 J3.753
G1 X39.491
G3 Y232.954 J3.753
G1 X19.491
G2 Y240.46 J3.753
G1 X39.491
G3 Y247.966 J3.753
G1 X19.491
G2 Y255.472 J3.753
G1 X39.491
G18 G2 X40.291 Z-0.7 K0.8
G0 Z5.
X44.579 Y202.93
G1 Z-2.2 F2400.
G3 X43.779 Z-3. I-0.8
G1 X39.491
X19.491
G17 G2 Y210.436 J3.753
G1 X39.491
G3 Y217.942 J3.753
G1 X19.491
G2 Y225.448 J3.753
G1 X39.491
G3 Y232.954 J3.753
G1 X19.491
G2 Y240.46 J3.753
G1 X39.491
G3 Y247.966 J3.753
G1 X19.491
G2 Y255.472 J3.753
G1 X39.491
G18 G2 X40.291 Z-2.2 K0.8
G0 Z5.
X46.972 Y202.93
G1 Z-0.7 F2400.
G2 X47.772 Z-1.5 I0.8
G1 X52.06
X72.06
G17 G3 Y210.436 J3.753
G1 X52.06
G2 Y217.942 J3.753
G1 X72.06
G3 Y225.448 J3.753
G1 X52.06
G2 Y232.954 J3.753
G1 X72.06
G3 Y240.46 J3.753
G1 X52.06
G2 Y247.966 J3.753
G1 X72.06
G3 Y255.472 J3.753
G1 X52.06
G18 G3 X51.26 Z-0.7 K0.8
G0 Z5.
X46.972 Y202.93
G1 Z-2.2 F2400.
G2 X47.772 Z-3. I0.8
G1 X52.06
X72.06
G17 G3 Y210.436 J3.753
G1 X52.06
G2 Y217.942 J3.753
G1 X72.06
G3 Y225.448 J3.753
G1 X52.06
G2 Y232.954 J3.753
G1 X72.06
G3 Y240.46 J3.753
G1 X52.06
G2 Y247.966 J3.753
G1 X72.06
G3 Y255.472 J3.753
G1 X52.06
G18 G3 X51.26 Z-2.2 K0.8
G0 Z15.
G17
G91
G28 Z0.
G90
M5
G91
G28 X0. Y0.
G90
M30
%
