%
O00001005
(T1  D=10. CR=0. - ZMIN=-3. - FLAT END MILL)
G90 G94 G17
G21
G91
G28 Z0.
G90
(FACE1)
T1 M6
S12000 M3
G54
G0 X111.539 Y5.448
G43 Z15. H1
G0 Z5.
G1 Z-0.5 F2400.
G18 G3 X110.539 Z-1.5 I-1.
G1 X107.581
X7.769
X7.004
G17 G2 Y14.802 J4.677
G1 X109.004
G3 Y24.155 J4.677
G1 X107.84
X7.639
G18 G3 X6.639 Z-0.5 K1.
G0 Z5.
X3.009 Y5.448
G1 Z-2. F2400.
G2 X4.009 Z-3. I1.
G1 X7.769
X107.581
X109.004
G17 G3 Y14.802 J4.677
G1 X7.004
G2 Y24.155 J4.677
G1 X7.639
X107.84
G18 G2 X108.84 Z-2. K1.
G0 Z5.
X106.868 Y43.185
G1 Z-0.5 F2400.
G3 X105.868 Z-1.5 I-1.
G1 X102.156
X2.588
X1.
G17 G2 Y52.314 J4.564
G1 X103.
G3 Y61.443 J4.564
G1 X102.557
X1.802
G2 Y70.572 J4.564
G1 X22.267
X31.852
X37.06
G3 Y79.701 J4.564
G1 X17.06
G2 Y88.83 J4.564
G1 X37.06
G3 Y97.959 J4.564
G1 X17.06
G2 Y107.088 J4.564
G1 X37.06
G3 Y116.217 J4.564
G1 X17.06
G2 Y125.346 J4.564
G1 X37.06
G3 Y134.475 J4.564
G1 X17.06
G2 Y143.604 J4.564
G1 X37.06
G3 Y152.733 J4.564
G1 X17.06
G2 Y161.862 J4.564
G1 X37.06
G3 Y170.991 J4.564
G1 X17.06
G2 Y180.12 J4.564
G1 X37.06
G18 G2 X38.06 Z-0.5 K1.
G0 Z5.
X55.314 Y70.572
G1 Z-0.5 F2400.
G2 X56.314 Z-1.5 I1.
G1 X58.641
X65.478
X70.411
X95.069
G17 G3 Y79.701 J4.564
G1 X72.051
X52.068
X52.06
G2 Y88.83 J4.564
G1 X72.06
G3 Y97.959 J4.564
G1 X52.06
G2 Y107.088 J4.564
G1 X72.06
G3 Y116.217 J4.564
G1 X52.06
G2 Y125.346 J4.564
G1 X72.06
G3 Y134.475 J4.564
G1 X52.06
G2 Y143.604 J4.564
G1 X72.06
G3 Y152.733 J4.564
G1 X52.06
G2 Y161.862 J4.564
G1 X72.06
G3 Y170.991 J4.564
G1 X52.06
G2 Y180.12 J4.564
G1 X72.06
G18 G2 X73.06 Z-0.5 K1.
G0 Z5.
X106.868 Y43.185
G1 Z-2. F2400.
G3 X105.868 Z-3. I-1.
G1 X102.156
X2.588
X1.
G17 G2 Y52.314 J4.564
G1 X103.
G3 Y61.443 J4.564
G1 X102.557
X1.802
G2 Y70.572 J4.564
G1 X22.267
X31.852
X37.06
G3 Y79.701 J4.564
G1 X17.06
G2 Y88.83 J4.564
G1 X37.06
G3 Y97.959 J4.564
G1 X17.06
G2 Y107.088 J4.564
G1 X37.06
G3 Y116.217 J4.564
G1 X17.06
G2 Y125.346 J4.564
G1 X37.06
G3 Y134.475 J4.564
G1 X17.06
G2 Y143.604 J4.564
G1 X37.06
G3 Y152.733 J4.564
G1 X17.06
G2 Y161.862 J4.564
G1 X37.06
G3 Y170.991 J4.564
G1 X17.06
G2 Y180.12 J4.564
G1 X37.06
G18 G2 X38.06 Z-2. K1.
G0 Z5.
X55.314 Y70.572
G1 Z-2. F2400.
G2 X56.314 Z-3. I1.
G1 X58.641
X65.478
X70.411
X95.069
G17 G3 Y79.701 J4.564
G1 X72.051
X52.068
X52.06
G2 Y88.83 J4.564
G1 X72.06
G3 Y97.959 J4.564
G1 X52.06
G2 Y107.088 J4.564
G1 X72.06
G3 Y116.217 J4.564
G1 X52.06
G2 Y125.346 J4.564
G1 X72.06
G3 Y134.475 J4.564
G1 X52.06
G2 Y143.604 J4.564
G1 X72.06
G3 Y152.733 J4.564
G1 X52.06
G2 Y161.862 J4.564
G1 X72.06
G3 Y170.991 J4.564
G1 X52.06
G2 Y180.12 J4.564
G1 X72.06
G18 G2 X73.06 Z-2. K1.
G0 Z5.
X45.906 Y203.023
G1 Z-0.5 F2400.
G3 X44.906 Z-1.5 I-1.
G1 X39.491
X19.491
G17 G2 Y211.603 J4.29
G1 X39.491
G3 Y220.183 J4.29
G1 X19.491
G2 Y228.763 J4.29
G1 X39.491
G3 Y237.343 J4.29
G1 X19.491
G2 Y245.923 J4.29
G1 X39.491
G3 Y254.503 J4.29
G1 X19.491
G18 G3 X18.491 Z-0.5 K1.
G0 Z5.
X13.077 Y203.023
G1 Z-2. F2400.
G2 X14.077 Z-3. I1.
G1 X19.491
X39.491
G17 G3 Y211.603 J4.29
G1 X19.491
G2 Y220.183 J4.29
G1 X39.491
G3 Y228.763 J4.29
G1 X19.491
G2 Y237.343 J4.29
G1 X39.491
G3 Y245.923 J4.29
G1 X19.491
G2 Y254.503 J4.29
G1 X39.491
G18 G2 X40.491 Z-2. K1.
G0 Z5.
X45.645 Y203.023
G1 Z-0.5 F2400.
G2 X46.645 Z-1.5 I1.
G1 X52.06
X72.06
G17 G3 Y211.603 J4.29
G1 X52.06
G2 Y220.183 J4.29
G1 X72.06
G3 Y228.763 J4.29
G1 X52.06
G2 Y237.343 J4.29
G1 X72.06
G3 Y245.923 J4.29
G1 X52.06
G2 Y254.503 J4.29
G1 X72.06
G18 G2 X73.06 Z-0.5 K1.
G0 Z5.
X78.474 Y203.023
G1 Z-2. F2400.
G3 X77.474 Z-3. I-1.
G1 X72.06
X52.06
G17 G2 Y211.603 J4.29
G1 X72.06
G3 Y220.183 J4.29
G1 X52.06
G2 Y228.763 J4.29
G1 X72.06
G3 Y237.343 J4.29
G1 X52.06
G2 Y245.923 J4.29
G1 X72.06
G3 Y254.503 J4.29
G1 X52.06
G18 G3 X51.06 Z-2. K1.
G0 Z15.
G17
G91
G28 Z0.
G90
M5
G91
G28 X0. Y0.
G90
M30
%
