%
O00001006
(T1  D=10. CR=0. - ZMIN=-23. - FLAT END MILL)
G90 G94 G17
G21
G91
G28 Z0.
G90
(2D CONTOUR1)
T1 M6
S12000 M3
G54
G0 X-1.018 Y14.894
G43 Z15. H1
G0 Z5.
G1 Z2. F800.
Z0.
X-1.011 Y14.893 Z-0.121
X-0.989 Y14.892 Z-0.239
X-0.953 Y14.891 Z-0.355
X-0.904 Y14.889 Z-0.465
X-0.841 Y14.886 Z-0.568
X-0.767 Y14.883 Z-0.663
X-0.682 Y14.88 Z-0.749
X-0.587 Y14.876 Z-0.823
X-0.483 Y14.872 Z-0.885
X-0.373 Y14.867 Z-0.935
X-0.258 Y14.863 Z-0.971
X-0.14 Y14.858 Z-0.993
X-0.019 Y14.853 Z-1.
X0.98 Y14.812 F2400.
G3 X2.02 Y15.771 I0.041 J0.999
G2 X21.004 Y34. I18.984 J-0.771
X21.377 Y33.986 J-5.
G1 X101.973 Y27.964
G2 Y2.036 I-0.969 J-12.964
G1 X21.377 Y-3.986
G2 X21.004 Y-4. I-0.373 J4.986
X2.02 Y15.771 J19.
G3 X1.061 Y16.811 I-0.999 J0.041
G1 X0.062 Y16.851
X-0.058 Y16.856 Z-0.993
X-0.177 Y16.861 Z-0.971
X-0.292 Y16.866 Z-0.935
X-0.402 Y16.87 Z-0.885
X-0.506 Y16.874 Z-0.823
X-0.6 Y16.878 Z-0.749
X-0.686 Y16.882 Z-0.663
X-0.76 Y16.885 Z-0.568
X-0.823 Y16.887 Z-0.465
X-0.872 Y16.889 Z-0.355
X-0.908 Y16.891 Z-0.239
X-0.93 Y16.892 Z-0.121
X-0.937 Z0.
G0 Z5.
X6.811 Y68.842
G1 Z2. F800.
Z0.
Y68.835 Z-0.121
X6.813 Y68.813 Z-0.239
X6.815 Y68.777 Z-0.355
X6.819 Y68.728 Z-0.465
X6.824 Y68.666 Z-0.568
X6.829 Y68.591 Z-0.663
X6.836 Y68.506 Z-0.749
X6.843 Y68.411 Z-0.823
X6.85 Y68.308 Z-0.885
X6.859 Y68.198 Z-0.935
X6.867 Y68.083 Z-0.971
X6.876 Y67.965 Z-0.993
X6.885 Y67.845 Z-1.
X6.96 Y66.848 F2400.
G3 X8.031 Y65.925 I0.997 J0.075
G1 X88.627 Y71.947
G2 X89. Y71.961 I0.373 J-4.986
Y33.961 J-19.
X88.627 Y33.975 J5.
G1 X21.749 Y38.972
X8.031 Y39.997
G2 Y65.925 I0.969 J12.964
G3 X8.954 Y66.997 I-0.075 J0.997
G1 X8.88 Y67.994
X8.871 Y68.114 Z-0.993
X8.862 Y68.233 Z-0.971
X8.853 Y68.347 Z-0.935
X8.845 Y68.457 Z-0.885
X8.837 Y68.56 Z-0.823
X8.83 Y68.655 Z-0.749
X8.824 Y68.74 Z-0.663
X8.818 Y68.815 Z-0.568
X8.814 Y68.877 Z-0.465
X8.81 Y68.926 Z-0.355
X8.807 Y68.962 Z-0.239
X8.806 Y68.984 Z-0.121
X8.805 Y68.991 Z0.
G0 Z5.
X6.811 Y68.842
G1 Z1. F800.
Z-1.
Y68.835 Z-1.121
X6.813 Y68.813 Z-1.239
X6.815 Y68.777 Z-1.355
X6.819 Y68.728 Z-1.465
X6.824 Y68.666 Z-1.568
X6.829 Y68.591 Z-1.663
X6.836 Y68.506 Z-1.749
X6.843 Y68.411 Z-1.823
X6.85 Y68.308 Z-1.885
X6.859 Y68.198 Z-1.935
X6.867 Y68.083 Z-1.971
X6.876 Y67.965 Z-1.993
X6.885 Y67.845 Z-2.
X6.96 Y66.848 F2400.
G3 X8.031 Y65.925 I0.997 J0.075
G1 X88.627 Y71.947
G2 X89. Y71.961 I0.373 J-4.986
Y33.961 J-19.
X88.627 Y33.975 J5.
G1 X21.749 Y38.972
X8.031 Y39.997
G2 Y65.925 I0.969 J12.964
G3 X8.954 Y66.997 I-0.075 J0.997
G1 X8.88 Y67.994
X8.871 Y68.114 Z-1.993
X8.862 Y68.233 Z-1.971
X8.853 Y68.347 Z-1.935
X8.845 Y68.457 Z-1.885
X8.837 Y68.56 Z-1.823
X8.83 Y68.655 Z-1.749
X8.824 Y68.74 Z-1.663
X8.818 Y68.815 Z-1.568
X8.814 Y68.877 Z-1.465
X8.81 Y68.926 Z-1.355
X8.807 Y68.962 Z-1.239
X8.806 Y68.984 Z-1.121
X8.805 Y68.991 Z-1.
G0 Z5.
X-1.018 Y14.894
G1 Z1. F800.
Z-1.
X-1.011 Y14.893 Z-1.121
X-0.989 Y14.892 Z-1.239
X-0.953 Y14.891 Z-1.355
X-0.904 Y14.889 Z-1.465
X-0.841 Y14.886 Z-1.568
X-0.767 Y14.883 Z-1.663
X-0.682 Y14.88 Z-1.749
X-0.587 Y14.876 Z-1.823
X-0.483 Y14.872 Z-1.885
X-0.373 Y14.867 Z-1.935
X-0.258 Y14.863 Z-1.971
X-0.14 Y14.858 Z-1.993
X-0.019 Y14.853 Z-2.
X0.98 Y14.812 F2400.
G3 X2.02 Y15.771 I0.041 J0.999
G2 X21.004 Y34. I18.984 J-0.771
X21.377 Y33.986 J-5.
G1 X101.973 Y27.964
G2 Y2.036 I-0.969 J-12.964
G1 X21.377 Y-3.986
G2 X21.004 Y-4. I-0.373 J4.986
X2.02 Y15.771 J19.
G3 X1.061 Y16.811 I-0.999 J0.041
G1 X0.062 Y16.851
X-0.058 Y16.856 Z-1.993
X-0.177 Y16.861 Z-1.971
X-0.292 Y16.866 Z-1.935
X-0.402 Y16.87 Z-1.885
X-0.506 Y16.874 Z-1.823
X-0.6 Y16.878 Z-1.749
X-0.686 Y16.882 Z-1.663
X-0.76 Y16.885 Z-1.568
X-0.823 Y16.887 Z-1.465
X-0.872 Y16.889 Z-1.355
X-0.908 Y16.891 Z-1.239
X-0.93 Y16.892 Z-1.121
X-0.937 Z-1.
G0 Z5.
X-1.018 Y14.894
G1 Z0. F800.
Z-2.
X-1.011 Y14.893 Z-2.121
X-0.989 Y14.892 Z-2.239
X-0.953 Y14.891 Z-2.355
X-0.904 Y14.889 Z-2.465
X-0.841 Y14.886 Z-2.568
X-0.767 Y14.883 Z-2.663
X-0.682 Y14.88 Z-2.749
X-0.587 Y14.876 Z-2.823
X-0.483 Y14.872 Z-2.885
X-0.373 Y14.867 Z-2.935
X-0.258 Y14.863 Z-2.971
X-0.14 Y14.858 Z-2.993
X-0.019 Y14.853 Z-3.
X0.98 Y14.812 F2400.
G3 X2.02 Y15.771 I0.041 J0.999
G2 X21.004 Y34. I18.984 J-0.771
X21.377 Y33.986 J-5.
G1 X101.973 Y27.964
G2 Y2.036 I-0.969 J-12.964
G1 X21.377 Y-3.986
G2 X21.004 Y-4. I-0.373 J4.986
X2.02 Y15.771 J19.
G3 X1.061 Y16.811 I-0.999 J0.041
G1 X0.062 Y16.851
X-0.058 Y16.856 Z-2.993
X-0.177 Y16.861 Z-2.971
X-0.292 Y16.866 Z-2.935
X-0.402 Y16.87 Z-2.885
X-0.506 Y16.874 Z-2.823
X-0.6 Y16.878 Z-2.749
X-0.686 Y16.882 Z-2.663
X-0.76 Y16.885 Z-2.568
X-0.823 Y16.887 Z-2.465
X-0.872 Y16.889 Z-2.355
X-0.908 Y16.891 Z-2.239
X-0.93 Y16.892 Z-2.121
X-0.937 Z-2.
G0 Z5.
X6.811 Y68.842
G1 Z0. F800.
Z-2.
Y68.835 Z-2.121
X6.813 Y68.813 Z-2.239
X6.815 Y68.777 Z-2.355
X6.819 Y68.728 Z-2.465
X6.824 Y68.666 Z-2.568
X6.829 Y68.591 Z-2.663
X6.836 Y68.506 Z-2.749
X6.843 Y68.411 Z-2.823
X6.85 Y68.308 Z-2.885
X6.859 Y68.198 Z-2.935
X6.867 Y68.083 Z-2.971
X6.876 Y67.965 Z-2.993
X6.885 Y67.845 Z-3.
X6.96 Y66.848 F2400.
G3 X8.031 Y65.925 I0.997 J0.075
G1 X88.627 Y71.947
G2 X89. Y71.961 I0.373 J-4.986
Y33.961 J-19.
X88.627 Y33.975 J5.
G1 X21.749 Y38.972
X8.031 Y39.997
G2 Y65.925 I0.969 J12.964
G3 X8.954 Y66.997 I-0.075 J0.997
G1 X8.88 Y67.994
X8.871 Y68.114 Z-2.993
X8.862 Y68.233 Z-2.971
X8.853 Y68.347 Z-2.935
X8.845 Y68.457 Z-2.885
X8.837 Y68.56 Z-2.823
X8.83 Y68.655 Z-2.749
X8.824 Y68.74 Z-2.663
X8.818 Y68.815 Z-2.568
X8.814 Y68.877 Z-2.465
X8.81 Y68.926 Z-2.355
X8.807 Y68.962 Z-2.239
X8.806 Y68.984 Z-2.121
X8.805 Y68.991 Z-2.
G0 Z5.
X6.811 Y68.842
G1 Z-1. F800.
Z-3.
Y68.835 Z-3.121
X6.813 Y68.813 Z-3.239
X6.815 Y68.777 Z-3.355
X6.819 Y68.728 Z-3.465
X6.824 Y68.666 Z-3.568
X6.829 Y68.591 Z-3.663
X6.836 Y68.506 Z-3.749
X6.843 Y68.411 Z-3.823
X6.85 Y68.308 Z-3.885
X6.859 Y68.198 Z-3.935
X6.867 Y68.083 Z-3.971
X6.876 Y67.965 Z-3.993
X6.885 Y67.845 Z-4.
X6.96 Y66.848 F2400.
G3 X8.031 Y65.925 I0.997 J0.075
G1 X88.627 Y71.947
G2 X89. Y71.961 I0.373 J-4.986
Y33.961 J-19.
X88.627 Y33.975 J5.
G1 X21.749 Y38.972
X8.031 Y39.997
G2 Y65.925 I0.969 J12.964
G3 X8.954 Y66.997 I-0.075 J0.997
G1 X8.88 Y67.994
X8.871 Y68.114 Z-3.993
X8.862 Y68.233 Z-3.971
X8.853 Y68.347 Z-3.935
X8.845 Y68.457 Z-3.885
X8.837 Y68.56 Z-3.823
X8.83 Y68.655 Z-3.749
X8.824 Y68.74 Z-3.663
X8.818 Y68.815 Z-3.568
X8.814 Y68.877 Z-3.465
X8.81 Y68.926 Z-3.355
X8.807 Y68.962 Z-3.239
X8.806 Y68.984 Z-3.121
X8.805 Y68.991 Z-3.
G0 Z5.
X-1.018 Y14.894
G1 Z-1. F800.
Z-3.
X-1.011 Y14.893 Z-3.121
X-0.989 Y14.892 Z-3.239
X-0.953 Y14.891 Z-3.355
X-0.904 Y14.889 Z-3.465
X-0.841 Y14.886 Z-3.568
X-0.767 Y14.883 Z-3.663
X-0.682 Y14.88 Z-3.749
X-0.587 Y14.876 Z-3.823
X-0.483 Y14.872 Z-3.885
X-0.373 Y14.867 Z-3.935
X-0.258 Y14.863 Z-3.971
X-0.14 Y14.858 Z-3.993
X-0.019 Y14.853 Z-4.
X0.98 Y14.812 F2400.
G3 X2.02 Y15.771 I0.041 J0.999
G2 X21.004 Y34. I18.984 J-0.771
X21.377 Y33.986 J-5.
G1 X101.973 Y27.964
G2 Y2.036 I-0.969 J-12.964
G1 X21.377 Y-3.986
G2 X21.004 Y-4. I-0.373 J4.986
X2.02 Y15.771 J19.
G3 X1.061 Y16.811 I-0.999 J0.041
G1 X0.062 Y16.851
X-0.058 Y16.856 Z-3.993
X-0.177 Y16.861 Z-3.971
X-0.292 Y16.866 Z-3.935
X-0.402 Y16.87 Z-3.885
X-0.506 Y16.874 Z-3.823
X-0.6 Y16.878 Z-3.749
X-0.686 Y16.882 Z-3.663
X-0.76 Y16.885 Z-3.568
X-0.823 Y16.887 Z-3.465
X-0.872 Y16.889 Z-3.355
X-0.908 Y16.891 Z-3.239
X-0.93 Y16.892 Z-3.121
X-0.937 Z-3.
G0 Z5.
X-1.018 Y14.894
G1 Z-2. F800.
Z-4.
X-1.011 Y14.893 Z-4.121
X-0.989 Y14.892 Z-4.239
X-0.953 Y14.891 Z-4.355
X-0.904 Y14.889 Z-4.465
X-0.841 Y14.886 Z-4.568
X-0.767 Y14.883 Z-4.663
X-0.682 Y14.88 Z-4.749
X-0.587 Y14.876 Z-4.823
X-0.483 Y14.872 Z-4.885
X-0.373 Y14.867 Z-4.935
X-0.258 Y14.863 Z-4.971
X-0.14 Y14.858 Z-4.993
X-0.019 Y14.853 Z-5.
X0.98 Y14.812 F2400.
G3 X2.02 Y15.771 I0.041 J0.999
G2 X21.004 Y34. I18.984 J-0.771
X21.377 Y33.986 J-5.
G1 X101.973 Y27.964
G2 Y2.036 I-0.969 J-12.964
G1 X21.377 Y-3.986
G2 X21.004 Y-4. I-0.373 J4.986
X2.02 Y15.771 J19.
G3 X1.061 Y16.811 I-0.999 J0.041
G1 X0.062 Y16.851
X-0.058 Y16.856 Z-4.993
X-0.177 Y16.861 Z-4.971
X-0.292 Y16.866 Z-4.935
X-0.402 Y16.87 Z-4.885
X-0.506 Y16.874 Z-4.823
X-0.6 Y16.878 Z-4.749
X-0.686 Y16.882 Z-4.663
X-0.76 Y16.885 Z-4.568
X-0.823 Y16.887 Z-4.465
X-0.872 Y16.889 Z-4.355
X-0.908 Y16.891 Z-4.239
X-0.93 Y16.892 Z-4.121
X-0.937 Z-4.
G0 Z5.
X6.811 Y68.842
G1 Z-2. F800.
Z-4.
Y68.835 Z-4.121
X6.813 Y68.813 Z-4.239
X6.815 Y68.777 Z-4.355
X6.819 Y68.728 Z-4.465
X6.824 Y68.666 Z-4.568
X6.829 Y68.591 Z-4.663
X6.836 Y68.506 Z-4.749
X6.843 Y68.411 Z-4.823
X6.85 Y68.308 Z-4.885
X6.859 Y68.198 Z-4.935
X6.867 Y68.083 Z-4.971
X6.876 Y67.965 Z-4.993
X6.885 Y67.845 Z-5.
X6.96 Y66.848 F2400.
G3 X8.031 Y65.925 I0.997 J0.075
G1 X88.627 Y71.947
G2 X89. Y71.961 I0.373 J-4.986
Y33.961 J-19.
X88.627 Y33.975 J5.
G1 X21.749 Y38.972
X8.031 Y39.997
G2 Y65.925 I0.969 J12.964
G3 X8.954 Y66.997 I-0.075 J0.997
G1 X8.88 Y67.994
X8.871 Y68.114 Z-4.993
X8.862 Y68.233 Z-4.971
X8.853 Y68.347 Z-4.935
X8.845 Y68.457 Z-4.885
X8.837 Y68.56 Z-4.823
X8.83 Y68.655 Z-4.749
X8.824 Y68.74 Z-4.663
X8.818 Y68.815 Z-4.568
X8.814 Y68.877 Z-4.465
X8.81 Y68.926 Z-4.355
X8.807 Y68.962 Z-4.239
X8.806 Y68.984 Z-4.121
X8.805 Y68.991 Z-4.
G0 Z5.
X6.811 Y68.842
G1 Z-3. F800.
Z-5.
Y68.835 Z-5.121
X6.813 Y68.813 Z-5.239
X6.815 Y68.777 Z-5.355
X6.819 Y68.728 Z-5.465
X6.824 Y68.666 Z-5.568
X6.829 Y68.591 Z-5.663
X6.836 Y68.506 Z-5.749
X6.843 Y68.411 Z-5.823
X6.85 Y68.308 Z-5.885
X6.859 Y68.198 Z-5.935
X6.867 Y68.083 Z-5.971
X6.876 Y67.965 Z-5.993
X6.885 Y67.845 Z-6.
X6.96 Y66.848 F2400.
G3 X8.031 Y65.925 I0.997 J0.075
G1 X88.627 Y71.947
G2 X89. Y71.961 I0.373 J-4.986
Y33.961 J-19.
X88.627 Y33.975 J5.
G1 X21.749 Y38.972
X8.031 Y39.997
G2 Y65.925 I0.969 J12.964
G3 X8.954 Y66.997 I-0.075 J0.997
G1 X8.88 Y67.994
X8.871 Y68.114 Z-5.993
X8.862 Y68.233 Z-5.971
X8.853 Y68.347 Z-5.935
X8.845 Y68.457 Z-5.885
X8.837 Y68.56 Z-5.823
X8.83 Y68.655 Z-5.749
X8.824 Y68.74 Z-5.663
X8.818 Y68.815 Z-5.568
X8.814 Y68.877 Z-5.465
X8.81 Y68.926 Z-5.355
X8.807 Y68.962 Z-5.239
X8.806 Y68.984 Z-5.121
X8.805 Y68.991 Z-5.
G0 Z5.
X-1.018 Y14.894
G1 Z-3. F800.
Z-5.
X-1.011 Y14.893 Z-5.121
X-0.989 Y14.892 Z-5.239
X-0.953 Y14.891 Z-5.355
X-0.904 Y14.889 Z-5.465
X-0.841 Y14.886 Z-5.568
X-0.767 Y14.883 Z-5.663
X-0.682 Y14.88 Z-5.749
X-0.587 Y14.876 Z-5.823
X-0.483 Y14.872 Z-5.885
X-0.373 Y14.867 Z-5.935
X-0.258 Y14.863 Z-5.971
X-0.14 Y14.858 Z-5.993
X-0.019 Y14.853 Z-6.
X0.98 Y14.812 F2400.
G3 X2.02 Y15.771 I0.041 J0.999
G2 X21.004 Y34. I18.984 J-0.771
X21.377 Y33.986 J-5.
G1 X101.973 Y27.964
G2 Y2.036 I-0.969 J-12.964
G1 X21.377 Y-3.986
G2 X21.004 Y-4. I-0.373 J4.986
X2.02 Y15.771 J19.
G3 X1.061 Y16.811 I-0.999 J0.041
G1 X0.062 Y16.851
X-0.058 Y16.856 Z-5.993
X-0.177 Y16.861 Z-5.971
X-0.292 Y16.866 Z-5.935
X-0.402 Y16.87 Z-5.885
X-0.506 Y16.874 Z-5.823
X-0.6 Y16.878 Z-5.749
X-0.686 Y16.882 Z-5.663
X-0.76 Y16.885 Z-5.568
X-0.823 Y16.887 Z-5.465
X-0.872 Y16.889 Z-5.355
X-0.908 Y16.891 Z-5.239
X-0.93 Y16.892 Z-5.121
X-0.937 Z-5.
G0 Z5.
X-1.018 Y14.894
G1 Z-4. F800.
Z-6.
X-1.011 Y14.893 Z-6.121
X-0.989 Y14.892 Z-6.239
X-0.953 Y14.891 Z-6.355
X-0.904 Y14.889 Z-6.465
X-0.841 Y14.886 Z-6.568
X-0.767 Y14.883 Z-6.663
X-0.682 Y14.88 Z-6.749
X-0.587 Y14.876 Z-6.823
X-0.483 Y14.872 Z-6.885
X-0.373 Y14.867 Z-6.935
X-0.258 Y14.863 Z-6.971
X-0.14 Y14.858 Z-6.993
X-0.019 Y14.853 Z-7.
X0.98 Y14.812 F2400.
G3 X2.02 Y15.771 I0.041 J0.999
G2 X21.004 Y34. I18.984 J-0.771
X21.377 Y33.986 J-5.
G1 X101.973 Y27.964
G2 Y2.036 I-0.969 J-12.964
G1 X21.377 Y-3.986
G2 X21.004 Y-4. I-0.373 J4.986
X2.02 Y15.771 J19.
G3 X1.061 Y16.811 I-0.999 J0.041
G1 X0.062 Y16.851
X-0.058 Y16.856 Z-6.993
X-0.177 Y16.861 Z-6.971
X-0.292 Y16.866 Z-6.935
X-0.402 Y16.87 Z-6.885
X-0.506 Y16.874 Z-6.823
X-0.6 Y16.878 Z-6.749
X-0.686 Y16.882 Z-6.663
X-0.76 Y16.885 Z-6.568
X-0.823 Y16.887 Z-6.465
X-0.872 Y16.889 Z-6.355
X-0.908 Y16.891 Z-6.239
X-0.93 Y16.892 Z-6.121
X-0.937 Z-6.
G0 Z5.
X6.811 Y68.842
G1 Z-4. F800.
Z-6.
Y68.835 Z-6.121
X6.813 Y68.813 Z-6.239
X6.815 Y68.777 Z-6.355
X6.819 Y68.728 Z-6.465
X6.824 Y68.666 Z-6.568
X6.829 Y68.591 Z-6.663
X6.836 Y68.506 Z-6.749
X6.843 Y68.411 Z-6.823
X6.85 Y68.308 Z-6.885
X6.859 Y68.198 Z-6.935
X6.867 Y68.083 Z-6.971
X6.876 Y67.965 Z-6.993
X6.885 Y67.845 Z-7.
X6.96 Y66.848 F2400.
G3 X8.031 Y65.925 I0.997 J0.075
G1 X88.627 Y71.947
G2 X89. Y71.961 I0.373 J-4.986
Y33.961 J-19.
X88.627 Y33.975 J5.
G1 X21.749 Y38.972
X8.031 Y39.997
G2 Y65.925 I0.969 J12.964
G3 X8.954 Y66.997 I-0.075 J0.997
G1 X8.88 Y67.994
X8.871 Y68.114 Z-6.993
X8.862 Y68.233 Z-6.971
X8.853 Y68.347 Z-6.935
X8.845 Y68.457 Z-6.885
X8.837 Y68.56 Z-6.823
X8.83 Y68.655 Z-6.749
X8.824 Y68.74 Z-6.663
X8.818 Y68.815 Z-6.568
X8.814 Y68.877 Z-6.465
X8.81 Y68.926 Z-6.355
X8.807 Y68.962 Z-6.239
X8.806 Y68.984 Z-6.121
X8.805 Y68.991 Z-6.
G0 Z5.
X6.811 Y68.842
G1 Z-5. F800.
Z-7.
Y68.835 Z-7.121
X6.813 Y68.813 Z-7.239
X6.815 Y68.777 Z-7.355
X6.819 Y68.728 Z-7.465
X6.824 Y68.666 Z-7.568
X6.829 Y68.591 Z-7.663
X6.836 Y68.506 Z-7.749
X6.843 Y68.411 Z-7.823
X6.85 Y68.308 Z-7.885
X6.859 Y68.198 Z-7.935
X6.867 Y68.083 Z-7.971
X6.876 Y67.965 Z-7.993
X6.885 Y67.845 Z-8.
X6.96 Y66.848 F2400.
G3 X8.031 Y65.925 I0.997 J0.075
G1 X88.627 Y71.947
G2 X89. Y71.961 I0.373 J-4.986
Y33.961 J-19.
X88.627 Y33.975 J5.
G1 X21.749 Y38.972
X8.031 Y39.997
G2 Y65.925 I0.969 J12.964
G3 X8.954 Y66.997 I-0.075 J0.997
G1 X8.88 Y67.994
X8.871 Y68.114 Z-7.993
X8.862 Y68.233 Z-7.971
X8.853 Y68.347 Z-7.935
X8.845 Y68.457 Z-7.885
X8.837 Y68.56 Z-7.823
X8.83 Y68.655 Z-7.749
X8.824 Y68.74 Z-7.663
X8.818 Y68.815 Z-7.568
X8.814 Y68.877 Z-7.465
X8.81 Y68.926 Z-7.355
X8.807 Y68.962 Z-7.239
X8.806 Y68.984 Z-7.121
X8.805 Y68.991 Z-7.
G0 Z5.
X-1.018 Y14.894
G1 Z-5. F800.
Z-7.
X-1.011 Y14.893 Z-7.121
X-0.989 Y14.892 Z-7.239
X-0.953 Y14.891 Z-7.355
X-0.904 Y14.889 Z-7.465
X-0.841 Y14.886 Z-7.568
X-0.767 Y14.883 Z-7.663
X-0.682 Y14.88 Z-7.749
X-0.587 Y14.876 Z-7.823
X-0.483 Y14.872 Z-7.885
X-0.373 Y14.867 Z-7.935
X-0.258 Y14.863 Z-7.971
X-0.14 Y14.858 Z-7.993
X-0.019 Y14.853 Z-8.
X0.98 Y14.812 F2400.
G3 X2.02 Y15.771 I0.041 J0.999
G2 X21.004 Y34. I18.984 J-0.771
X21.377 Y33.986 J-5.
G1 X101.973 Y27.964
G2 Y2.036 I-0.969 J-12.964
G1 X21.377 Y-3.986
G2 X21.004 Y-4. I-0.373 J4.986
X2.02 Y15.771 J19.
G3 X1.061 Y16.811 I-0.999 J0.041
G1 X0.062 Y16.851
X-0.058 Y16.856 Z-7.993
X-0.177 Y16.861 Z-7.971
X-0.292 Y16.866 Z-7.935
X-0.402 Y16.87 Z-7.885
X-0.506 Y16.874 Z-7.823
X-0.6 Y16.878 Z-7.749
X-0.686 Y16.882 Z-7.663
X-0.76 Y16.885 Z-7.568
X-0.823 Y16.887 Z-7.465
X-0.872 Y16.889 Z-7.355
X-0.908 Y16.891 Z-7.239
X-0.93 Y16.892 Z-7.121
X-0.937 Z-7.
G0 Z5.
X-1.018 Y14.894
G1 Z-6. F800.
Z-8.
X-1.011 Y14.893 Z-8.121
X-0.989 Y14.892 Z-8.239
X-0.953 Y14.891 Z-8.355
X-0.904 Y14.889 Z-8.465
X-0.841 Y14.886 Z-8.568
X-0.767 Y14.883 Z-8.663
X-0.682 Y14.88 Z-8.749
X-0.587 Y14.876 Z-8.823
X-0.483 Y14.872 Z-8.885
X-0.373 Y14.867 Z-8.935
X-0.258 Y14.863 Z-8.971
X-0.14 Y14.858 Z-8.993
X-0.019 Y14.853 Z-9.
X0.98 Y14.812 F2400.
G3 X2.02 Y15.771 I0.041 J0.999
G2 X21.004 Y34. I18.984 J-0.771
X21.377 Y33.986 J-5.
G1 X101.973 Y27.964
G2 Y2.036 I-0.969 J-12.964
G1 X21.377 Y-3.986
G2 X21.004 Y-4. I-0.373 J4.986
X2.02 Y15.771 J19.
G3 X1.061 Y16.811 I-0.999 J0.041
G1 X0.062 Y16.851
X-0.058 Y16.856 Z-8.993
X-0.177 Y16.861 Z-8.971
X-0.292 Y16.866 Z-8.935
X-0.402 Y16.87 Z-8.885
X-0.506 Y16.874 Z-8.823
X-0.6 Y16.878 Z-8.749
X-0.686 Y16.882 Z-8.663
X-0.76 Y16.885 Z-8.568
X-0.823 Y16.887 Z-8.465
X-0.872 Y16.889 Z-8.355
X-0.908 Y16.891 Z-8.239
X-0.93 Y16.892 Z-8.121
X-0.937 Z-8.
G0 Z5.
X6.811 Y68.842
G1 Z-6. F800.
Z-8.
Y68.835 Z-8.121
X6.813 Y68.813 Z-8.239
X6.815 Y68.777 Z-8.355
X6.819 Y68.728 Z-8.465
X6.824 Y68.666 Z-8.568
X6.829 Y68.591 Z-8.663
X6.836 Y68.506 Z-8.749
X6.843 Y68.411 Z-8.823
X6.85 Y68.308 Z-8.885
X6.859 Y68.198 Z-8.935
X6.867 Y68.083 Z-8.971
X6.876 Y67.965 Z-8.993
X6.885 Y67.845 Z-9.
X6.96 Y66.848 F2400.
G3 X8.031 Y65.925 I0.997 J0.075
G1 X88.627 Y71.947
G2 X89. Y71.961 I0.373 J-4.986
Y33.961 J-19.
X88.627 Y33.975 J5.
G1 X21.749 Y38.972
X8.031 Y39.997
G2 Y65.925 I0.969 J12.964
G3 X8.954 Y66.997 I-0.075 J0.997
G1 X8.88 Y67.994
X8.871 Y68.114 Z-8.993
X8.862 Y68.233 Z-8.971
X8.853 Y68.347 Z-8.935
X8.845 Y68.457 Z-8.885
X8.837 Y68.56 Z-8.823
X8.83 Y68.655 Z-8.749
X8.824 Y68.74 Z-8.663
X8.818 Y68.815 Z-8.568
X8.814 Y68.877 Z-8.465
X8.81 Y68.926 Z-8.355
X8.807 Y68.962 Z-8.239
X8.806 Y68.984 Z-8.121
X8.805 Y68.991 Z-8.
G0 Z5.
X6.811 Y68.842
G1 Z-7. F800.
Z-9.
Y68.835 Z-9.121
X6.813 Y68.813 Z-9.239
X6.815 Y68.777 Z-9.355
X6.819 Y68.728 Z-9.465
X6.824 Y68.666 Z-9.568
X6.829 Y68.591 Z-9.663
X6.836 Y68.506 Z-9.749
X6.843 Y68.411 Z-9.823
X6.85 Y68.308 Z-9.885
X6.859 Y68.198 Z-9.935
X6.867 Y68.083 Z-9.971
X6.876 Y67.965 Z-9.993
X6.885 Y67.845 Z-10.
X6.96 Y66.848 F2400.
G3 X8.031 Y65.925 I0.997 J0.075
G1 X88.627 Y71.947
G2 X89. Y71.961 I0.373 J-4.986
Y33.961 J-19.
X88.627 Y33.975 J5.
G1 X21.749 Y38.972
X8.031 Y39.997
G2 Y65.925 I0.969 J12.964
G3 X8.954 Y66.997 I-0.075 J0.997
G1 X8.88 Y67.994
X8.871 Y68.114 Z-9.993
X8.862 Y68.233 Z-9.971
X8.853 Y68.347 Z-9.935
X8.845 Y68.457 Z-9.885
X8.837 Y68.56 Z-9.823
X8.83 Y68.655 Z-9.749
X8.824 Y68.74 Z-9.663
X8.818 Y68.815 Z-9.568
X8.814 Y68.877 Z-9.465
X8.81 Y68.926 Z-9.355
X8.807 Y68.962 Z-9.239
X8.806 Y68.984 Z-9.121
X8.805 Y68.991 Z-9.
G0 Z5.
X-1.018 Y14.894
G1 Z-7. F800.
Z-9.
X-1.011 Y14.893 Z-9.121
X-0.989 Y14.892 Z-9.239
X-0.953 Y14.891 Z-9.355
X-0.904 Y14.889 Z-9.465
X-0.841 Y14.886 Z-9.568
X-0.767 Y14.883 Z-9.663
X-0.682 Y14.88 Z-9.749
X-0.587 Y14.876 Z-9.823
X-0.483 Y14.872 Z-9.885
X-0.373 Y14.867 Z-9.935
X-0.258 Y14.863 Z-9.971
X-0.14 Y14.858 Z-9.993
X-0.019 Y14.853 Z-10.
X0.98 Y14.812 F2400.
G3 X2.02 Y15.771 I0.041 J0.999
G2 X21.004 Y34. I18.984 J-0.771
X21.377 Y33.986 J-5.
G1 X101.973 Y27.964
G2 Y2.036 I-0.969 J-12.964
G1 X21.377 Y-3.986
G2 X21.004 Y-4. I-0.373 J4.986
X2.02 Y15.771 J19.
G3 X1.061 Y16.811 I-0.999 J0.041
G1 X0.062 Y16.851
X-0.058 Y16.856 Z-9.993
X-0.177 Y16.861 Z-9.971
X-0.292 Y16.866 Z-9.935
X-0.402 Y16.87 Z-9.885
X-0.506 Y16.874 Z-9.823
X-0.6 Y16.878 Z-9.749
X-0.686 Y16.882 Z-9.663
X-0.76 Y16.885 Z-9.568
X-0.823 Y16.887 Z-9.465
X-0.872 Y16.889 Z-9.355
X-0.908 Y16.891 Z-9.239
X-0.93 Y16.892 Z-9.121
X-0.937 Z-9.
G0 Z5.
X-1.018 Y14.894
G1 Z-8. F800.
Z-10.
X-1.011 Y14.893 Z-10.121
X-0.989 Y14.892 Z-10.239
X-0.953 Y14.891 Z-10.355
X-0.904 Y14.889 Z-10.465
X-0.841 Y14.886 Z-10.568
X-0.767 Y14.883 Z-10.663
X-0.682 Y14.88 Z-10.749
X-0.587 Y14.876 Z-10.823
X-0.483 Y14.872 Z-10.885
X-0.373 Y14.867 Z-10.935
X-0.258 Y14.863 Z-10.971
X-0.14 Y14.858 Z-10.993
X-0.019 Y14.853 Z-11.
X0.98 Y14.812 F2400.
G3 X2.02 Y15.771 I0.041 J0.999
G2 X21.004 Y34. I18.984 J-0.771
X21.377 Y33.986 J-5.
G1 X101.973 Y27.964
G2 Y2.036 I-0.969 J-12.964
G1 X21.377 Y-3.986
G2 X21.004 Y-4. I-0.373 J4.986
X2.02 Y15.771 J19.
G3 X1.061 Y16.811 I-0.999 J0.041
G1 X0.062 Y16.851
X-0.058 Y16.856 Z-10.993
X-0.177 Y16.861 Z-10.971
X-0.292 Y16.866 Z-10.935
X-0.402 Y16.87 Z-10.885
X-0.506 Y16.874 Z-10.823
X-0.6 Y16.878 Z-10.749
X-0.686 Y16.882 Z-10.663
X-0.76 Y16.885 Z-10.568
X-0.823 Y16.887 Z-10.465
X-0.872 Y16.889 Z-10.355
X-0.908 Y16.891 Z-10.239
X-0.93 Y16.892 Z-10.121
X-0.937 Z-10.
G0 Z5.
X6.811 Y68.842
G1 Z-8. F800.
Z-10.
Y68.835 Z-10.121
X6.813 Y68.813 Z-10.239
X6.815 Y68.777 Z-10.355
X6.819 Y68.728 Z-10.465
X6.824 Y68.666 Z-10.568
X6.829 Y68.591 Z-10.663
X6.836 Y68.506 Z-10.749
X6.843 Y68.411 Z-10.823
X6.85 Y68.308 Z-10.885
X6.859 Y68.198 Z-10.935
X6.867 Y68.083 Z-10.971
X6.876 Y67.965 Z-10.993
X6.885 Y67.845 Z-11.
X6.96 Y66.848 F2400.
G3 X8.031 Y65.925 I0.997 J0.075
G1 X88.627 Y71.947
G2 X89. Y71.961 I0.373 J-4.986
Y33.961 J-19.
X88.627 Y33.975 J5.
G1 X21.749 Y38.972
X8.031 Y39.997
G2 Y65.925 I0.969 J12.964
G3 X8.954 Y66.997 I-0.075 J0.997
G1 X8.88 Y67.994
X8.871 Y68.114 Z-10.993
X8.862 Y68.233 Z-10.971
X8.853 Y68.347 Z-10.935
X8.845 Y68.457 Z-10.885
X8.837 Y68.56 Z-10.823
X8.83 Y68.655 Z-10.749
X8.824 Y68.74 Z-10.663
X8.818 Y68.815 Z-10.568
X8.814 Y68.877 Z-10.465
X8.81 Y68.926 Z-10.355
X8.807 Y68.962 Z-10.239
X8.806 Y68.984 Z-10.121
X8.805 Y68.991 Z-10.
G0 Z5.
X6.811 Y68.842
G1 Z-9. F800.
Z-11.
Y68.835 Z-11.121
X6.813 Y68.813 Z-11.239
X6.815 Y68.777 Z-11.355
X6.819 Y68.728 Z-11.465
X6.824 Y68.666 Z-11.568
X6.829 Y68.591 Z-11.663
X6.836 Y68.506 Z-11.749
X6.843 Y68.411 Z-11.823
X6.85 Y68.308 Z-11.885
X6.859 Y68.198 Z-11.935
X6.867 Y68.083 Z-11.971
X6.876 Y67.965 Z-11.993
X6.885 Y67.845 Z-12.
X6.96 Y66.848 F2400.
G3 X8.031 Y65.925 I0.997 J0.075
G1 X88.627 Y71.947
G2 X89. Y71.961 I0.373 J-4.986
Y33.961 J-19.
X88.627 Y33.975 J5.
G1 X21.749 Y38.972
X8.031 Y39.997
G2 Y65.925 I0.969 J12.964
G3 X8.954 Y66.997 I-0.075 J0.997
G1 X8.88 Y67.994
X8.871 Y68.114 Z-11.993
X8.862 Y68.233 Z-11.971
X8.853 Y68.347 Z-11.935
X8.845 Y68.457 Z-11.885
X8.837 Y68.56 Z-11.823
X8.83 Y68.655 Z-11.749
X8.824 Y68.74 Z-11.663
X8.818 Y68.815 Z-11.568
X8.814 Y68.877 Z-11.465
X8.81 Y68.926 Z-11.355
X8.807 Y68.962 Z-11.239
X8.806 Y68.984 Z-11.121
X8.805 Y68.991 Z-11.
G0 Z5.
X-1.018 Y14.894
G1 Z-9. F800.
Z-11.
X-1.011 Y14.893 Z-11.121
X-0.989 Y14.892 Z-11.239
X-0.953 Y14.891 Z-11.355
X-0.904 Y14.889 Z-11.465
X-0.841 Y14.886 Z-11.568
X-0.767 Y14.883 Z-11.663
X-0.682 Y14.88 Z-11.749
X-0.587 Y14.876 Z-11.823
X-0.483 Y14.872 Z-11.885
X-0.373 Y14.867 Z-11.935
X-0.258 Y14.863 Z-11.971
X-0.14 Y14.858 Z-11.993
X-0.019 Y14.853 Z-12.
X0.98 Y14.812 F2400.
G3 X2.02 Y15.771 I0.041 J0.999
G2 X21.004 Y34. I18.984 J-0.771
X21.377 Y33.986 J-5.
G1 X101.973 Y27.964
G2 Y2.036 I-0.969 J-12.964
G1 X21.377 Y-3.986
G2 X21.004 Y-4. I-0.373 J4.986
X2.02 Y15.771 J19.
G3 X1.061 Y16.811 I-0.999 J0.041
G1 X0.062 Y16.851
X-0.058 Y16.856 Z-11.993
X-0.177 Y16.861 Z-11.971
X-0.292 Y16.866 Z-11.935
X-0.402 Y16.87 Z-11.885
X-0.506 Y16.874 Z-11.823
X-0.6 Y16.878 Z-11.749
X-0.686 Y16.882 Z-11.663
X-0.76 Y16.885 Z-11.568
X-0.823 Y16.887 Z-11.465
X-0.872 Y16.889 Z-11.355
X-0.908 Y16.891 Z-11.239
X-0.93 Y16.892 Z-11.121
X-0.937 Z-11.
G0 Z5.
X-1.018 Y14.894
G1 Z-10. F800.
Z-12.
X-1.011 Y14.893 Z-12.121
X-0.989 Y14.892 Z-12.239
X-0.953 Y14.891 Z-12.355
X-0.904 Y14.889 Z-12.465
X-0.841 Y14.886 Z-12.568
X-0.767 Y14.883 Z-12.663
X-0.682 Y14.88 Z-12.749
X-0.587 Y14.876 Z-12.823
X-0.483 Y14.872 Z-12.885
X-0.373 Y14.867 Z-12.935
X-0.258 Y14.863 Z-12.971
X-0.14 Y14.858 Z-12.993
X-0.019 Y14.853 Z-13.
X0.98 Y14.812 F2400.
G3 X2.02 Y15.771 I0.041 J0.999
G2 X21.004 Y34. I18.984 J-0.771
X21.377 Y33.986 J-5.
G1 X101.973 Y27.964
G2 Y2.036 I-0.969 J-12.964
G1 X21.377 Y-3.986
G2 X21.004 Y-4. I-0.373 J4.986
X2.02 Y15.771 J19.
G3 X1.061 Y16.811 I-0.999 J0.041
G1 X0.062 Y16.851
X-0.058 Y16.856 Z-12.993
X-0.177 Y16.861 Z-12.971
X-0.292 Y16.866 Z-12.935
X-0.402 Y16.87 Z-12.885
X-0.506 Y16.874 Z-12.823
X-0.6 Y16.878 Z-12.749
X-0.686 Y16.882 Z-12.663
X-0.76 Y16.885 Z-12.568
X-0.823 Y16.887 Z-12.465
X-0.872 Y16.889 Z-12.355
X-0.908 Y16.891 Z-12.239
X-0.93 Y16.892 Z-12.121
X-0.937 Z-12.
G0 Z5.
X6.811 Y68.842
G1 Z-10. F800.
Z-12.
Y68.835 Z-12.121
X6.813 Y68.813 Z-12.239
X6.815 Y68.777 Z-12.355
X6.819 Y68.728 Z-12.465
X6.824 Y68.666 Z-12.568
X6.829 Y68.591 Z-12.663
X6.836 Y68.506 Z-12.749
X6.843 Y68.411 Z-12.823
X6.85 Y68.308 Z-12.885
X6.859 Y68.198 Z-12.935
X6.867 Y68.083 Z-12.971
X6.876 Y67.965 Z-12.993
X6.885 Y67.845 Z-13.
X6.96 Y66.848 F2400.
G3 X8.031 Y65.925 I0.997 J0.075
G1 X88.627 Y71.947
G2 X89. Y71.961 I0.373 J-4.986
Y33.961 J-19.
X88.627 Y33.975 J5.
G1 X21.749 Y38.972
X8.031 Y39.997
G2 Y65.925 I0.969 J12.964
G3 X8.954 Y66.997 I-0.075 J0.997
G1 X8.88 Y67.994
X8.871 Y68.114 Z-12.993
X8.862 Y68.233 Z-12.971
X8.853 Y68.347 Z-12.935
X8.845 Y68.457 Z-12.885
X8.837 Y68.56 Z-12.823
X8.83 Y68.655 Z-12.749
X8.824 Y68.74 Z-12.663
X8.818 Y68.815 Z-12.568
X8.814 Y68.877 Z-12.465
X8.81 Y68.926 Z-12.355
X8.807 Y68.962 Z-12.239
X8.806 Y68.984 Z-12.121
X8.805 Y68.991 Z-12.
G0 Z5.
X6.811 Y68.842
G1 Z-11. F800.
Z-13.
Y68.835 Z-13.121
X6.813 Y68.813 Z-13.239
X6.815 Y68.777 Z-13.355
X6.819 Y68.728 Z-13.465
X6.824 Y68.666 Z-13.568
X6.829 Y68.591 Z-13.663
X6.836 Y68.506 Z-13.749
X6.843 Y68.411 Z-13.823
X6.85 Y68.308 Z-13.885
X6.859 Y68.198 Z-13.935
X6.867 Y68.083 Z-13.971
X6.876 Y67.965 Z-13.993
X6.885 Y67.845 Z-14.
X6.96 Y66.848 F2400.
G3 X8.031 Y65.925 I0.997 J0.075
G1 X88.627 Y71.947
G2 X89. Y71.961 I0.373 J-4.986
Y33.961 J-19.
X88.627 Y33.975 J5.
G1 X21.749 Y38.972
X8.031 Y39.997
G2 Y65.925 I0.969 J12.964
G3 X8.954 Y66.997 I-0.075 J0.997
G1 X8.88 Y67.994
X8.871 Y68.114 Z-13.993
X8.862 Y68.233 Z-13.971
X8.853 Y68.347 Z-13.935
X8.845 Y68.457 Z-13.885
X8.837 Y68.56 Z-13.823
X8.83 Y68.655 Z-13.749
X8.824 Y68.74 Z-13.663
X8.818 Y68.815 Z-13.568
X8.814 Y68.877 Z-13.465
X8.81 Y68.926 Z-13.355
X8.807 Y68.962 Z-13.239
X8.806 Y68.984 Z-13.121
X8.805 Y68.991 Z-13.
G0 Z5.
X-1.018 Y14.894
G1 Z-11. F800.
Z-13.
X-1.011 Y14.893 Z-13.121
X-0.989 Y14.892 Z-13.239
X-0.953 Y14.891 Z-13.355
X-0.904 Y14.889 Z-13.465
X-0.841 Y14.886 Z-13.568
X-0.767 Y14.883 Z-13.663
X-0.682 Y14.88 Z-13.749
X-0.587 Y14.876 Z-13.823
X-0.483 Y14.872 Z-13.885
X-0.373 Y14.867 Z-13.935
X-0.258 Y14.863 Z-13.971
X-0.14 Y14.858 Z-13.993
X-0.019 Y14.853 Z-14.
X0.98 Y14.812 F2400.
G3 X2.02 Y15.771 I0.041 J0.999
G2 X21.004 Y34. I18.984 J-0.771
X21.377 Y33.986 J-5.
G1 X101.973 Y27.964
G2 Y2.036 I-0.969 J-12.964
G1 X21.377 Y-3.986
G2 X21.004 Y-4. I-0.373 J4.986
X2.02 Y15.771 J19.
G3 X1.061 Y16.811 I-0.999 J0.041
G1 X0.062 Y16.851
X-0.058 Y16.856 Z-13.993
X-0.177 Y16.861 Z-13.971
X-0.292 Y16.866 Z-13.935
X-0.402 Y16.87 Z-13.885
X-0.506 Y16.874 Z-13.823
X-0.6 Y16.878 Z-13.749
X-0.686 Y16.882 Z-13.663
X-0.76 Y16.885 Z-13.568
X-0.823 Y16.887 Z-13.465
X-0.872 Y16.889 Z-13.355
X-0.908 Y16.891 Z-13.239
X-0.93 Y16.892 Z-13.121
X-0.937 Z-13.
G0 Z5.
X-1.018 Y14.894
G1 Z-12. F800.
Z-14.
X-1.011 Y14.893 Z-14.121
X-0.989 Y14.892 Z-14.239
X-0.953 Y14.891 Z-14.355
X-0.904 Y14.889 Z-14.465
X-0.841 Y14.886 Z-14.568
X-0.767 Y14.883 Z-14.663
X-0.682 Y14.88 Z-14.749
X-0.587 Y14.876 Z-14.823
X-0.483 Y14.872 Z-14.885
X-0.373 Y14.867 Z-14.935
X-0.258 Y14.863 Z-14.971
X-0.14 Y14.858 Z-14.993
X-0.019 Y14.853 Z-15.
X0.98 Y14.812 F2400.
G3 X2.02 Y15.771 I0.041 J0.999
G2 X21.004 Y34. I18.984 J-0.771
X21.377 Y33.986 J-5.
G1 X101.973 Y27.964
G2 Y2.036 I-0.969 J-12.964
G1 X21.377 Y-3.986
G2 X21.004 Y-4. I-0.373 J4.986
X2.02 Y15.771 J19.
G3 X1.061 Y16.811 I-0.999 J0.041
G1 X0.062 Y16.851
X-0.058 Y16.856 Z-14.993
X-0.177 Y16.861 Z-14.971
X-0.292 Y16.866 Z-14.935
X-0.402 Y16.87 Z-14.885
X-0.506 Y16.874 Z-14.823
X-0.6 Y16.878 Z-14.749
X-0.686 Y16.882 Z-14.663
X-0.76 Y16.885 Z-14.568
X-0.823 Y16.887 Z-14.465
X-0.872 Y16.889 Z-14.355
X-0.908 Y16.891 Z-14.239
X-0.93 Y16.892 Z-14.121
X-0.937 Z-14.
G0 Z5.
X6.811 Y68.842
G1 Z-12. F800.
Z-14.
Y68.835 Z-14.121
X6.813 Y68.813 Z-14.239
X6.815 Y68.777 Z-14.355
X6.819 Y68.728 Z-14.465
X6.824 Y68.666 Z-14.568
X6.829 Y68.591 Z-14.663
X6.836 Y68.506 Z-14.749
X6.843 Y68.411 Z-14.823
X6.85 Y68.308 Z-14.885
X6.859 Y68.198 Z-14.935
X6.867 Y68.083 Z-14.971
X6.876 Y67.965 Z-14.993
X6.885 Y67.845 Z-15.
X6.96 Y66.848 F2400.
G3 X8.031 Y65.925 I0.997 J0.075
G1 X88.627 Y71.947
G2 X89. Y71.961 I0.373 J-4.986
Y33.961 J-19.
X88.627 Y33.975 J5.
G1 X21.749 Y38.972
X8.031 Y39.997
G2 Y65.925 I0.969 J12.964
G3 X8.954 Y66.997 I-0.075 J0.997
G1 X8.88 Y67.994
X8.871 Y68.114 Z-14.993
X8.862 Y68.233 Z-14.971
X8.853 Y68.347 Z-14.935
X8.845 Y68.457 Z-14.885
X8.837 Y68.56 Z-14.823
X8.83 Y68.655 Z-14.749
X8.824 Y68.74 Z-14.663
X8.818 Y68.815 Z-14.568
X8.814 Y68.877 Z-14.465
X8.81 Y68.926 Z-14.355
X8.807 Y68.962 Z-14.239
X8.806 Y68.984 Z-14.121
X8.805 Y68.991 Z-14.
G0 Z5.
X6.811 Y68.842
G1 Z-13. F800.
Z-15.
Y68.835 Z-15.121
X6.813 Y68.813 Z-15.239
X6.815 Y68.777 Z-15.355
X6.819 Y68.728 Z-15.465
X6.824 Y68.666 Z-15.568
X6.829 Y68.591 Z-15.663
X6.836 Y68.506 Z-15.749
X6.843 Y68.411 Z-15.823
X6.85 Y68.308 Z-15.885
X6.859 Y68.198 Z-15.935
X6.867 Y68.083 Z-15.971
X6.876 Y67.965 Z-15.993
X6.885 Y67.845 Z-16.
X6.96 Y66.848 F2400.
G3 X8.031 Y65.925 I0.997 J0.075
G1 X88.627 Y71.947
G2 X89. Y71.961 I0.373 J-4.986
Y33.961 J-19.
X88.627 Y33.975 J5.
G1 X21.749 Y38.972
X8.031 Y39.997
G2 Y65.925 I0.969 J12.964
G3 X8.954 Y66.997 I-0.075 J0.997
G1 X8.88 Y67.994
X8.871 Y68.114 Z-15.993
X8.862 Y68.233 Z-15.971
X8.853 Y68.347 Z-15.935
X8.845 Y68.457 Z-15.885
X8.837 Y68.56 Z-15.823
X8.83 Y68.655 Z-15.749
X8.824 Y68.74 Z-15.663
X8.818 Y68.815 Z-15.568
X8.814 Y68.877 Z-15.465
X8.81 Y68.926 Z-15.355
X8.807 Y68.962 Z-15.239
X8.806 Y68.984 Z-15.121
X8.805 Y68.991 Z-15.
G0 Z5.
X-1.018 Y14.894
G1 Z-13. F800.
Z-15.
X-1.011 Y14.893 Z-15.121
X-0.989 Y14.892 Z-15.239
X-0.953 Y14.891 Z-15.355
X-0.904 Y14.889 Z-15.465
X-0.841 Y14.886 Z-15.568
X-0.767 Y14.883 Z-15.663
X-0.682 Y14.88 Z-15.749
X-0.587 Y14.876 Z-15.823
X-0.483 Y14.872 Z-15.885
X-0.373 Y14.867 Z-15.935
X-0.258 Y14.863 Z-15.971
X-0.14 Y14.858 Z-15.993
X-0.019 Y14.853 Z-16.
X0.98 Y14.812 F2400.
G3 X2.02 Y15.771 I0.041 J0.999
G2 X21.004 Y34. I18.984 J-0.771
X21.377 Y33.986 J-5.
G1 X101.973 Y27.964
G2 Y2.036 I-0.969 J-12.964
G1 X21.377 Y-3.986
G2 X21.004 Y-4. I-0.373 J4.986
X2.02 Y15.771 J19.
G3 X1.061 Y16.811 I-0.999 J0.041
G1 X0.062 Y16.851
X-0.058 Y16.856 Z-15.993
X-0.177 Y16.861 Z-15.971
X-0.292 Y16.866 Z-15.935
X-0.402 Y16.87 Z-15.885
X-0.506 Y16.874 Z-15.823
X-0.6 Y16.878 Z-15.749
X-0.686 Y16.882 Z-15.663
X-0.76 Y16.885 Z-15.568
X-0.823 Y16.887 Z-15.465
X-0.872 Y16.889 Z-15.355
X-0.908 Y16.891 Z-15.239
X-0.93 Y16.892 Z-15.121
X-0.937 Z-15.
G0 Z5.
X-1.018 Y14.894
G1 Z-14. F800.
Z-16.
X-1.011 Y14.893 Z-16.121
X-0.989 Y14.892 Z-16.239
X-0.953 Y14.891 Z-16.355
X-0.904 Y14.889 Z-16.465
X-0.841 Y14.886 Z-16.568
X-0.767 Y14.883 Z-16.663
X-0.682 Y14.88 Z-16.749
X-0.587 Y14.876 Z-16.823
X-0.483 Y14.872 Z-16.885
X-0.373 Y14.867 Z-16.935
X-0.258 Y14.863 Z-16.971
X-0.14 Y14.858 Z-16.993
X-0.019 Y14.853 Z-17.
X0.98 Y14.812 F2400.
G3 X2.02 Y15.771 I0.041 J0.999
G2 X21.004 Y34. I18.984 J-0.771
X21.377 Y33.986 J-5.
G1 X101.973 Y27.964
G2 Y2.036 I-0.969 J-12.964
G1 X21.377 Y-3.986
G2 X21.004 Y-4. I-0.373 J4.986
X2.02 Y15.771 J19.
G3 X1.061 Y16.811 I-0.999 J0.041
G1 X0.062 Y16.851
X-0.058 Y16.856 Z-16.993
X-0.177 Y16.861 Z-16.971
X-0.292 Y16.866 Z-16.935
X-0.402 Y16.87 Z-16.885
X-0.506 Y16.874 Z-16.823
X-0.6 Y16.878 Z-16.749
X-0.686 Y16.882 Z-16.663
X-0.76 Y16.885 Z-16.568
X-0.823 Y16.887 Z-16.465
X-0.872 Y16.889 Z-16.355
X-0.908 Y16.891 Z-16.239
X-0.93 Y16.892 Z-16.121
X-0.937 Z-16.
G0 Z5.
X6.811 Y68.842
G1 Z-14. F800.
Z-16.
Y68.835 Z-16.121
X6.813 Y68.813 Z-16.239
X6.815 Y68.777 Z-16.355
X6.819 Y68.728 Z-16.465
X6.824 Y68.666 Z-16.568
X6.829 Y68.591 Z-16.663
X6.836 Y68.506 Z-16.749
X6.843 Y68.411 Z-16.823
X6.85 Y68.308 Z-16.885
X6.859 Y68.198 Z-16.935
X6.867 Y68.083 Z-16.971
X6.876 Y67.965 Z-16.993
X6.885 Y67.845 Z-17.
X6.96 Y66.848 F2400.
G3 X8.031 Y65.925 I0.997 J0.075
G1 X88.627 Y71.947
G2 X89. Y71.961 I0.373 J-4.986
Y33.961 J-19.
X88.627 Y33.975 J5.
G1 X21.749 Y38.972
X8.031 Y39.997
G2 Y65.925 I0.969 J12.964
G3 X8.954 Y66.997 I-0.075 J0.997
G1 X8.88 Y67.994
X8.871 Y68.114 Z-16.993
X8.862 Y68.233 Z-16.971
X8.853 Y68.347 Z-16.935
X8.845 Y68.457 Z-16.885
X8.837 Y68.56 Z-16.823
X8.83 Y68.655 Z-16.749
X8.824 Y68.74 Z-16.663
X8.818 Y68.815 Z-16.568
X8.814 Y68.877 Z-16.465
X8.81 Y68.926 Z-16.355
X8.807 Y68.962 Z-16.239
X8.806 Y68.984 Z-16.121
X8.805 Y68.991 Z-16.
G0 Z5.
X6.811 Y68.842
G1 Z-15. F800.
Z-17.
Y68.835 Z-17.121
X6.813 Y68.813 Z-17.239
X6.815 Y68.777 Z-17.355
X6.819 Y68.728 Z-17.465
X6.824 Y68.666 Z-17.568
X6.829 Y68.591 Z-17.663
X6.836 Y68.506 Z-17.749
X6.843 Y68.411 Z-17.823
X6.85 Y68.308 Z-17.885
X6.859 Y68.198 Z-17.935
X6.867 Y68.083 Z-17.971
X6.876 Y67.965 Z-17.993
X6.885 Y67.845 Z-18.
X6.96 Y66.848 F2400.
G3 X8.031 Y65.925 I0.997 J0.075
G1 X88.627 Y71.947
G2 X89. Y71.961 I0.373 J-4.986
Y33.961 J-19.
X88.627 Y33.975 J5.
G1 X21.749 Y38.972
X8.031 Y39.997
G2 Y65.925 I0.969 J12.964
G3 X8.954 Y66.997 I-0.075 J0.997
G1 X8.88 Y67.994
X8.871 Y68.114 Z-17.993
X8.862 Y68.233 Z-17.971
X8.853 Y68.347 Z-17.935
X8.845 Y68.457 Z-17.885
X8.837 Y68.56 Z-17.823
X8.83 Y68.655 Z-17.749
X8.824 Y68.74 Z-17.663
X8.818 Y68.815 Z-17.568
X8.814 Y68.877 Z-17.465
X8.81 Y68.926 Z-17.355
X8.807 Y68.962 Z-17.239
X8.806 Y68.984 Z-17.121
X8.805 Y68.991 Z-17.
G0 Z5.
X-1.018 Y14.894
G1 Z-15. F800.
Z-17.
X-1.011 Y14.893 Z-17.121
X-0.989 Y14.892 Z-17.239
X-0.953 Y14.891 Z-17.355
X-0.904 Y14.889 Z-17.465
X-0.841 Y14.886 Z-17.568
X-0.767 Y14.883 Z-17.663
X-0.682 Y14.88 Z-17.749
X-0.587 Y14.876 Z-17.823
X-0.483 Y14.872 Z-17.885
X-0.373 Y14.867 Z-17.935
X-0.258 Y14.863 Z-17.971
X-0.14 Y14.858 Z-17.993
X-0.019 Y14.853 Z-18.
X0.98 Y14.812 F2400.
G3 X2.02 Y15.771 I0.041 J0.999
G2 X21.004 Y34. I18.984 J-0.771
X21.377 Y33.986 J-5.
G1 X101.973 Y27.964
G2 Y2.036 I-0.969 J-12.964
G1 X21.377 Y-3.986
G2 X21.004 Y-4. I-0.373 J4.986
X2.02 Y15.771 J19.
G3 X1.061 Y16.811 I-0.999 J0.041
G1 X0.062 Y16.851
X-0.058 Y16.856 Z-17.993
X-0.177 Y16.861 Z-17.971
X-0.292 Y16.866 Z-17.935
X-0.402 Y16.87 Z-17.885
X-0.506 Y16.874 Z-17.823
X-0.6 Y16.878 Z-17.749
X-0.686 Y16.882 Z-17.663
X-0.76 Y16.885 Z-17.568
X-0.823 Y16.887 Z-17.465
X-0.872 Y16.889 Z-17.355
X-0.908 Y16.891 Z-17.239
X-0.93 Y16.892 Z-17.121
X-0.937 Z-17.
G0 Z15.
X44.06 Y183.965
Z5.
G1 Z2. F800.
Z0.
G18 G2 X45.06 Z-1. I1.
G1 X46.06 F2400.
G17 G3 X47.06 Y184.965 J1.
G2 X52.06 Y189.965 I5.
G1 X72.06
G2 X77.06 Y184.965 J-5.
G1 Y84.965
G2 X47.06 I-15.
G1 Y184.965
G3 X46.06 Y185.965 I-1.
G1 X45.06
G18 G3 X44.06 Z0. K1.
G0 Z5.
X41.743 Y190.91
G1 Z2. F800.
Z0.
X41.738 Y190.905 Z-0.121
X41.724 Y190.889 Z-0.239
X41.699 Y190.862 Z-0.355
X41.666 Y190.826 Z-0.465
X41.623 Y190.78 Z-0.568
X41.573 Y190.725 Z-0.663
X41.515 Y190.662 Z-0.749
X41.451 Y190.592 Z-0.823
X41.381 Y190.516 Z-0.885
X41.306 Y190.435 Z-0.935
X41.228 Y190.351 Z-0.971
X41.148 Y190.263 Z-0.993
X41.066 Y190.175 Z-1.
X40.388 Y189.439 F2400.
G17 G3 X40.447 Y188.026 I0.736 J-0.677
G2 X42.06 Y184.348 I-3.387 J-3.678
G1 Y84.965
Y84.348
G2 X12.06 I-15.
G1 Y184.348
G2 X17.06 Y189.348 I5.
G1 X37.06
G2 X40.447 Y188.026 J-5.
G3 X41.86 Y188.084 I0.677 J0.736
G1 X42.537 Y188.82
X42.619 Y188.908 Z-0.993
X42.699 Y188.996 Z-0.971
X42.777 Y189.081 Z-0.935
X42.852 Y189.162 Z-0.885
X42.922 Y189.238 Z-0.823
X42.986 Y189.308 Z-0.749
X43.044 Y189.37 Z-0.663
X43.095 Y189.425 Z-0.568
X43.137 Y189.471 Z-0.465
X43.17 Y189.508 Z-0.355
X43.195 Y189.534 Z-0.239
X43.21 Y189.55 Z-0.121
X43.215 Y189.555 Z0.
G0 Z5.
X43.397 Y194.825
G1 Z2. F800.
Z0.
X43.392 Y194.83 Z-0.121
X43.378 Y194.847 Z-0.239
X43.356 Y194.875 Z-0.355
X43.325 Y194.914 Z-0.465
X43.286 Y194.963 Z-0.568
X43.239 Y195.021 Z-0.663
X43.186 Y195.088 Z-0.749
X43.127 Y195.162 Z-0.823
X43.062 Y195.242 Z-0.885
X42.993 Y195.328 Z-0.935
X42.921 Y195.418 Z-0.971
X42.847 Y195.511 Z-0.993
X42.772 Y195.605 Z-1.
X42.147 Y196.386 F2400.
G3 X40.741 Y196.542 I-0.781 J-0.625
G2 X34.491 Y194.348 I-6.25 J7.806
G1 X24.491
G2 X14.491 Y204.348 J10.
G1 Y254.348
G2 X24.491 Y264.348 I10.
G1 X34.491
G2 X44.491 Y254.348 J-10.
G1 Y204.348
G2 X40.741 Y196.542 I-10.
G3 X40.585 Y195.136 I0.625 J-0.781
G1 X41.21 Y194.355
X41.286 Y194.261 Z-0.993
X41.36 Y194.168 Z-0.971
X41.432 Y194.078 Z-0.935
X41.501 Y193.992 Z-0.885
X41.565 Y193.912 Z-0.823
X41.625 Y193.838 Z-0.749
X41.678 Y193.771 Z-0.663
X41.725 Y193.713 Z-0.568
X41.764 Y193.664 Z-0.465
X41.795 Y193.625 Z-0.355
X41.817 Y193.597 Z-0.239
X41.831 Y193.58 Z-0.121
X41.835 Y193.575 Z0.
G0 Z5.
X41.743 Y190.91
G1 Z1. F800.
Z-1.
X41.738 Y190.905 Z-1.121
X41.724 Y190.889 Z-1.239
X41.699 Y190.862 Z-1.355
X41.666 Y190.826 Z-1.465
X41.623 Y190.78 Z-1.568
X41.573 Y190.725 Z-1.663
X41.515 Y190.662 Z-1.749
X41.451 Y190.592 Z-1.823
X41.381 Y190.516 Z-1.885
X41.306 Y190.435 Z-1.935
X41.228 Y190.351 Z-1.971
X41.148 Y190.263 Z-1.993
X41.066 Y190.175 Z-2.
X40.388 Y189.439 F2400.
G3 X40.447 Y188.026 I0.736 J-0.677
G2 X42.06 Y184.348 I-3.387 J-3.678
G1 Y84.965
Y84.348
G2 X12.06 I-15.
G1 Y184.348
G2 X17.06 Y189.348 I5.
G1 X37.06
G2 X40.447 Y188.026 J-5.
G3 X41.86 Y188.084 I0.677 J0.736
G1 X42.537 Y188.82
X42.619 Y188.908 Z-1.993
X42.699 Y188.996 Z-1.971
X42.777 Y189.081 Z-1.935
X42.852 Y189.162 Z-1.885
X42.922 Y189.238 Z-1.823
X42.986 Y189.308 Z-1.749
X43.044 Y189.37 Z-1.663
X43.095 Y189.425 Z-1.568
X43.137 Y189.471 Z-1.465
X43.17 Y189.508 Z-1.355
X43.195 Y189.534 Z-1.239
X43.21 Y189.55 Z-1.121
X43.215 Y189.555 Z-1.
G0 Z5.
X48.365 Y194.632
G1 Z2. F800.
Z0.
X48.37 Y194.637 Z-0.121
X48.386 Y194.652 Z-0.239
X48.412 Y194.677 Z-0.355
X48.447 Y194.711 Z-0.465
X48.493 Y194.754 Z-0.568
X48.546 Y194.806 Z-0.663
X48.608 Y194.865 Z-0.749
X48.677 Y194.931 Z-0.823
X48.751 Y195.002 Z-0.885
X48.831 Y195.079 Z-0.935
X48.914 Y195.158 Z-0.971
X49. Y195.24 Z-0.993
X49.087 Y195.324 Z-1.
X49.809 Y196.016 F2400.
G3 X49.839 Y197.43 I-0.692 J0.722
G2 X47.06 Y204.348 I7.221 J6.918
G1 Y254.348
G2 X57.06 Y264.348 I10.
G1 X67.06
G2 X77.06 Y254.348 J-10.
G1 Y204.348
G2 X67.06 Y194.348 I-10.
G1 X57.06
G2 X49.839 Y197.43 J10.
G3 X48.425 Y197.46 I-0.722 J-0.692
G1 X47.703 Y196.768
X47.616 Y196.685 Z-0.993
X47.53 Y196.602 Z-0.971
X47.447 Y196.523 Z-0.935
X47.368 Y196.446 Z-0.885
X47.293 Y196.375 Z-0.823
X47.224 Y196.309 Z-0.749
X47.163 Y196.25 Z-0.663
X47.109 Y196.199 Z-0.568
X47.064 Y196.155 Z-0.465
X47.028 Y196.121 Z-0.355
X47.002 Y196.096 Z-0.239
X46.986 Y196.081 Z-0.121
X46.981 Y196.076 Z0.
G0 Z5.
X48.365 Y194.632
G1 Z1. F800.
Z-1.
X48.37 Y194.637 Z-1.121
X48.386 Y194.652 Z-1.239
X48.412 Y194.677 Z-1.355
X48.447 Y194.711 Z-1.465
X48.493 Y194.754 Z-1.568
X48.546 Y194.806 Z-1.663
X48.608 Y194.865 Z-1.749
X48.677 Y194.931 Z-1.823
X48.751 Y195.002 Z-1.885
X48.831 Y195.079 Z-1.935
X48.914 Y195.158 Z-1.971
X49. Y195.24 Z-1.993
X49.087 Y195.324 Z-2.
X49.809 Y196.016 F2400.
G3 X49.839 Y197.43 I-0.692 J0.722
G2 X47.06 Y204.348 I7.221 J6.918
G1 Y254.348
G2 X57.06 Y264.348 I10.
G1 X67.06
G2 X77.06 Y254.348 J-10.
G1 Y204.348
G2 X67.06 Y194.348 I-10.
G1 X57.06
G2 X49.839 Y197.43 J10.
G3 X48.425 Y197.46 I-0.722 J-0.692
G1 X47.703 Y196.768
X47.616 Y196.685 Z-1.993
X47.53 Y196.602 Z-1.971
X47.447 Y196.523 Z-1.935
X47.368 Y196.446 Z-1.885
X47.293 Y196.375 Z-1.823
X47.224 Y196.309 Z-1.749
X47.163 Y196.25 Z-1.663
X47.109 Y196.199 Z-1.568
X47.064 Y196.155 Z-1.465
X47.028 Y196.121 Z-1.355
X47.002 Y196.096 Z-1.239
X46.986 Y196.081 Z-1.121
X46.981 Y196.076 Z-1.
G0 Z5.
X44.57
G1 Z1. F800.
Z-1.
X44.565 Y196.081 Z-1.121
X44.549 Y196.096 Z-1.239
X44.523 Y196.121 Z-1.355
X44.487 Y196.155 Z-1.465
X44.442 Y196.199 Z-1.568
X44.388 Y196.25 Z-1.663
X44.327 Y196.309 Z-1.749
X44.258 Y196.375 Z-1.823
X44.183 Y196.446 Z-1.885
X44.104 Y196.523 Z-1.935
X44.021 Y196.602 Z-1.971
X43.935 Y196.685 Z-1.993
X43.848 Y196.768 Z-2.
X43.126 Y197.46 F2400.
G3 X41.712 Y197.43 I-0.692 J-0.722
G2 X34.491 Y194.348 I-7.221 J6.918
G1 X24.491
G2 X14.491 Y204.348 J10.
G1 Y254.348
G2 X24.491 Y264.348 I10.
G1 X34.491
G2 X44.491 Y254.348 J-10.
G1 Y204.348
G2 X41.712 Y197.43 I-10.
G3 X41.742 Y196.016 I0.722 J-0.692
G1 X42.464 Y195.324
X42.551 Y195.24 Z-1.993
X42.637 Y195.158 Z-1.971
X42.72 Y195.079 Z-1.935
X42.8 Y195.002 Z-1.885
X42.874 Y194.931 Z-1.823
X42.943 Y194.865 Z-1.749
X43.005 Y194.806 Z-1.663
X43.058 Y194.754 Z-1.568
X43.103 Y194.711 Z-1.465
X43.139 Y194.677 Z-1.355
X43.165 Y194.652 Z-1.239
X43.181 Y194.637 Z-1.121
X43.186 Y194.632 Z-1.
G0 Z5.
X43.397 Y194.825
G1 Z0. F800.
Z-2.
X43.392 Y194.83 Z-2.121
X43.378 Y194.847 Z-2.239
X43.356 Y194.875 Z-2.355
X43.325 Y194.914 Z-2.465
X43.286 Y194.963 Z-2.568
X43.239 Y195.021 Z-2.663
X43.186 Y195.088 Z-2.749
X43.127 Y195.162 Z-2.823
X43.062 Y195.242 Z-2.885
X42.993 Y195.328 Z-2.935
X42.921 Y195.418 Z-2.971
X42.847 Y195.511 Z-2.993
X42.772 Y195.605 Z-3.
X42.147 Y196.386 F2400.
G3 X40.741 Y196.542 I-0.781 J-0.625
G2 X34.491 Y194.348 I-6.25 J7.806
G1 X24.491
G2 X14.491 Y204.348 J10.
G1 Y254.348
G2 X24.491 Y264.348 I10.
G1 X34.491
G2 X44.491 Y254.348 J-10.
G1 Y204.348
G2 X40.741 Y196.542 I-10.
G3 X40.585 Y195.136 I0.625 J-0.781
G1 X41.21 Y194.355
X41.286 Y194.261 Z-2.993
X41.36 Y194.168 Z-2.971
X41.432 Y194.078 Z-2.935
X41.501 Y193.992 Z-2.885
X41.565 Y193.912 Z-2.823
X41.625 Y193.838 Z-2.749
X41.678 Y193.771 Z-2.663
X41.725 Y193.713 Z-2.568
X41.764 Y193.664 Z-2.465
X41.795 Y193.625 Z-2.355
X41.817 Y193.597 Z-2.239
X41.831 Y193.58 Z-2.121
X41.835 Y193.575 Z-2.
G0 Z5.
X46.523 Y190.825
G1 Z1. F800.
Z-1.
X46.527 Y190.82 Z-1.121
X46.54 Y190.802 Z-1.239
X46.561 Y190.773 Z-1.355
X46.591 Y190.733 Z-1.465
X46.628 Y190.683 Z-1.568
X46.672 Y190.623 Z-1.663
X46.722 Y190.554 Z-1.749
X46.778 Y190.477 Z-1.823
X46.839 Y190.394 Z-1.885
X46.904 Y190.305 Z-1.935
X46.973 Y190.212 Z-1.971
X47.043 Y190.116 Z-1.993
X47.114 Y190.019 Z-2.
X47.705 Y189.212 F2400.
G3 X49.103 Y188.997 I0.806 J0.591
G2 X52.06 Y189.965 I2.956 J-4.032
G1 X72.06
G2 X77.06 Y184.965 J-5.
G1 Y84.965
G2 X47.06 I-15.
G1 Y184.965
G2 X49.103 Y188.997 I5.
G3 X49.318 Y190.395 I-0.591 J0.806
G1 X48.727 Y191.202
X48.656 Y191.299 Z-1.993
X48.586 Y191.395 Z-1.971
X48.517 Y191.487 Z-1.935
X48.452 Y191.576 Z-1.885
X48.391 Y191.66 Z-1.823
X48.335 Y191.736 Z-1.749
X48.284 Y191.805 Z-1.663
X48.24 Y191.865 Z-1.568
X48.203 Y191.916 Z-1.465
X48.174 Y191.956 Z-1.355
X48.153 Y191.985 Z-1.239
X48.14 Y192.002 Z-1.121
X48.136 Y192.008 Z-1.
G0 Z5.
X46.523 Y190.825
G1 Z0. F800.
Z-2.
X46.527 Y190.82 Z-2.121
X46.54 Y190.802 Z-2.239
X46.561 Y190.773 Z-2.355
X46.591 Y190.733 Z-2.465
X46.628 Y190.683 Z-2.568
X46.672 Y190.623 Z-2.663
X46.722 Y190.554 Z-2.749
X46.778 Y190.477 Z-2.823
X46.839 Y190.394 Z-2.885
X46.904 Y190.305 Z-2.935
X46.973 Y190.212 Z-2.971
X47.043 Y190.116 Z-2.993
X47.114 Y190.019 Z-3.
X47.705 Y189.212 F2400.
G3 X49.103 Y188.997 I0.806 J0.591
G2 X52.06 Y189.965 I2.956 J-4.032
G1 X72.06
G2 X77.06 Y184.965 J-5.
G1 Y84.965
G2 X47.06 I-15.
G1 Y184.965
G2 X49.103 Y188.997 I5.
G3 X49.318 Y190.395 I-0.591 J0.806
G1 X48.727 Y191.202
X48.656 Y191.299 Z-2.993
X48.586 Y191.395 Z-2.971
X48.517 Y191.487 Z-2.935
X48.452 Y191.576 Z-2.885
X48.391 Y191.66 Z-2.823
X48.335 Y191.736 Z-2.749
X48.284 Y191.805 Z-2.663
X48.24 Y191.865 Z-2.568
X48.203 Y191.916 Z-2.465
X48.174 Y191.956 Z-2.355
X48.153 Y191.985 Z-2.239
X48.14 Y192.002 Z-2.121
X48.136 Y192.008 Z-2.
G0 Z5.
X48.365 Y194.632
G1 Z0. F800.
Z-2.
X48.37 Y194.637 Z-2.121
X48.386 Y194.652 Z-2.239
X48.412 Y194.677 Z-2.355
X48.447 Y194.711 Z-2.465
X48.493 Y194.754 Z-2.568
X48.546 Y194.806 Z-2.663
X48.608 Y194.865 Z-2.749
X48.677 Y194.931 Z-2.823
X48.751 Y195.002 Z-2.885
X48.831 Y195.079 Z-2.935
X48.914 Y195.158 Z-2.971
X49. Y195.24 Z-2.993
X49.087 Y195.324 Z-3.
X49.809 Y196.016 F2400.
G3 X49.839 Y197.43 I-0.692 J0.722
G2 X47.06 Y204.348 I7.221 J6.918
G1 Y254.348
G2 X57.06 Y264.348 I10.
G1 X67.06
G2 X77.06 Y254.348 J-10.
G1 Y204.348
G2 X67.06 Y194.348 I-10.
G1 X57.06
G2 X49.839 Y197.43 J10.
G3 X48.425 Y197.46 I-0.722 J-0.692
G1 X47.703 Y196.768
X47.616 Y196.685 Z-2.993
X47.53 Y196.602 Z-2.971
X47.447 Y196.523 Z-2.935
X47.368 Y196.446 Z-2.885
X47.293 Y196.375 Z-2.823
X47.224 Y196.309 Z-2.749
X47.163 Y196.25 Z-2.663
X47.109 Y196.199 Z-2.568
X47.064 Y196.155 Z-2.465
X47.028 Y196.121 Z-2.355
X47.002 Y196.096 Z-2.239
X46.986 Y196.081 Z-2.121
X46.981 Y196.076 Z-2.
G0 Z5.
X48.365 Y194.632
G1 Z-1. F800.
Z-3.
X48.37 Y194.637 Z-3.121
X48.386 Y194.652 Z-3.239
X48.412 Y194.677 Z-3.355
X48.447 Y194.711 Z-3.465
X48.493 Y194.754 Z-3.568
X48.546 Y194.806 Z-3.663
X48.608 Y194.865 Z-3.749
X48.677 Y194.931 Z-3.823
X48.751 Y195.002 Z-3.885
X48.831 Y195.079 Z-3.935
X48.914 Y195.158 Z-3.971
X49. Y195.24 Z-3.993
X49.087 Y195.324 Z-4.
X49.809 Y196.016 F2400.
G3 X49.839 Y197.43 I-0.692 J0.722
G2 X47.06 Y204.348 I7.221 J6.918
G1 Y254.348
G2 X57.06 Y264.348 I10.
G1 X67.06
G2 X77.06 Y254.348 J-10.
G1 Y204.348
G2 X67.06 Y194.348 I-10.
G1 X57.06
G2 X49.839 Y197.43 J10.
G3 X48.425 Y197.46 I-0.722 J-0.692
G1 X47.703 Y196.768
X47.616 Y196.685 Z-3.993
X47.53 Y196.602 Z-3.971
X47.447 Y196.523 Z-3.935
X47.368 Y196.446 Z-3.885
X47.293 Y196.375 Z-3.823
X47.224 Y196.309 Z-3.749
X47.163 Y196.25 Z-3.663
X47.109 Y196.199 Z-3.568
X47.064 Y196.155 Z-3.465
X47.028 Y196.121 Z-3.355
X47.002 Y196.096 Z-3.239
X46.986 Y196.081 Z-3.121
X46.981 Y196.076 Z-3.
G0 Z5.
X41.743 Y190.91
G1 Z0. F800.
Z-2.
X41.738 Y190.905 Z-2.121
X41.724 Y190.889 Z-2.239
X41.699 Y190.862 Z-2.355
X41.666 Y190.826 Z-2.465
X41.623 Y190.78 Z-2.568
X41.573 Y190.725 Z-2.663
X41.515 Y190.662 Z-2.749
X41.451 Y190.592 Z-2.823
X41.381 Y190.516 Z-2.885
X41.306 Y190.435 Z-2.935
X41.228 Y190.351 Z-2.971
X41.148 Y190.263 Z-2.993
X41.066 Y190.175 Z-3.
X40.388 Y189.439 F2400.
G3 X40.447 Y188.026 I0.736 J-0.677
G2 X42.06 Y184.348 I-3.387 J-3.678
G1 Y84.965
Y84.348
G2 X12.06 I-15.
G1 Y184.348
G2 X17.06 Y189.348 I5.
G1 X37.06
G2 X40.447 Y188.026 J-5.
G3 X41.86 Y188.084 I0.677 J0.736
G1 X42.537 Y188.82
X42.619 Y188.908 Z-2.993
X42.699 Y188.996 Z-2.971
X42.777 Y189.081 Z-2.935
X42.852 Y189.162 Z-2.885
X42.922 Y189.238 Z-2.823
X42.986 Y189.308 Z-2.749
X43.044 Y189.37 Z-2.663
X43.095 Y189.425 Z-2.568
X43.137 Y189.471 Z-2.465
X43.17 Y189.508 Z-2.355
X43.195 Y189.534 Z-2.239
X43.21 Y189.55 Z-2.121
X43.215 Y189.555 Z-2.
G0 Z5.
X41.743 Y190.91
G1 Z-1. F800.
Z-3.
X41.738 Y190.905 Z-3.121
X41.724 Y190.889 Z-3.239
X41.699 Y190.862 Z-3.355
X41.666 Y190.826 Z-3.465
X41.623 Y190.78 Z-3.568
X41.573 Y190.725 Z-3.663
X41.515 Y190.662 Z-3.749
X41.451 Y190.592 Z-3.823
X41.381 Y190.516 Z-3.885
X41.306 Y190.435 Z-3.935
X41.228 Y190.351 Z-3.971
X41.148 Y190.263 Z-3.993
X41.066 Y190.175 Z-4.
X40.388 Y189.439 F2400.
G3 X40.447 Y188.026 I0.736 J-0.677
G2 X42.06 Y184.348 I-3.387 J-3.678
G1 Y84.965
Y84.348
G2 X12.06 I-15.
G1 Y184.348
G2 X17.06 Y189.348 I5.
G1 X37.06
G2 X40.447 Y188.026 J-5.
G3 X41.86 Y188.084 I0.677 J0.736
G1 X42.537 Y188.82
X42.619 Y188.908 Z-3.993
X42.699 Y188.996 Z-3.971
X42.777 Y189.081 Z-3.935
X42.852 Y189.162 Z-3.885
X42.922 Y189.238 Z-3.823
X42.986 Y189.308 Z-3.749
X43.044 Y189.37 Z-3.663
X43.095 Y189.425 Z-3.568
X43.137 Y189.471 Z-3.465
X43.17 Y189.508 Z-3.355
X43.195 Y189.534 Z-3.239
X43.21 Y189.55 Z-3.121
X43.215 Y189.555 Z-3.
G0 Z5.
X46.523 Y190.825
G1 Z-1. F800.
Z-3.
X46.527 Y190.82 Z-3.121
X46.54 Y190.802 Z-3.239
X46.561 Y190.773 Z-3.355
X46.591 Y190.733 Z-3.465
X46.628 Y190.683 Z-3.568
X46.672 Y190.623 Z-3.663
X46.722 Y190.554 Z-3.749
X46.778 Y190.477 Z-3.823
X46.839 Y190.394 Z-3.885
X46.904 Y190.305 Z-3.935
X46.973 Y190.212 Z-3.971
X47.043 Y190.116 Z-3.993
X47.114 Y190.019 Z-4.
X47.705 Y189.212 F2400.
G3 X49.103 Y188.997 I0.806 J0.591
G2 X52.06 Y189.965 I2.956 J-4.032
G1 X72.06
G2 X77.06 Y184.965 J-5.
G1 Y84.965
G2 X47.06 I-15.
G1 Y184.965
G2 X49.103 Y188.997 I5.
G3 X49.318 Y190.395 I-0.591 J0.806
G1 X48.727 Y191.202
X48.656 Y191.299 Z-3.993
X48.586 Y191.395 Z-3.971
X48.517 Y191.487 Z-3.935
X48.452 Y191.576 Z-3.885
X48.391 Y191.66 Z-3.823
X48.335 Y191.736 Z-3.749
X48.284 Y191.805 Z-3.663
X48.24 Y191.865 Z-3.568
X48.203 Y191.916 Z-3.465
X48.174 Y191.956 Z-3.355
X48.153 Y191.985 Z-3.239
X48.14 Y192.002 Z-3.121
X48.136 Y192.008 Z-3.
G0 Z5.
X46.523 Y190.825
G1 Z-2. F800.
Z-4.
X46.527 Y190.82 Z-4.121
X46.54 Y190.802 Z-4.239
X46.561 Y190.773 Z-4.355
X46.591 Y190.733 Z-4.465
X46.628 Y190.683 Z-4.568
X46.672 Y190.623 Z-4.663
X46.722 Y190.554 Z-4.749
X46.778 Y190.477 Z-4.823
X46.839 Y190.394 Z-4.885
X46.904 Y190.305 Z-4.935
X46.973 Y190.212 Z-4.971
X47.043 Y190.116 Z-4.993
X47.114 Y190.019 Z-5.
X47.705 Y189.212 F2400.
G3 X49.103 Y188.997 I0.806 J0.591
G2 X52.06 Y189.965 I2.956 J-4.032
G1 X72.06
G2 X77.06 Y184.965 J-5.
G1 Y84.965
G2 X47.06 I-15.
G1 Y184.965
G2 X49.103 Y188.997 I5.
G3 X49.318 Y190.395 I-0.591 J0.806
G1 X48.727 Y191.202
X48.656 Y191.299 Z-4.993
X48.586 Y191.395 Z-4.971
X48.517 Y191.487 Z-4.935
X48.452 Y191.576 Z-4.885
X48.391 Y191.66 Z-4.823
X48.335 Y191.736 Z-4.749
X48.284 Y191.805 Z-4.663
X48.24 Y191.865 Z-4.568
X48.203 Y191.916 Z-4.465
X48.174 Y191.956 Z-4.355
X48.153 Y191.985 Z-4.239
X48.14 Y192.002 Z-4.121
X48.136 Y192.008 Z-4.
G0 Z5.
X44.57 Y196.076
G1 Z-1. F800.
Z-3.
X44.565 Y196.081 Z-3.121
X44.549 Y196.096 Z-3.239
X44.523 Y196.121 Z-3.355
X44.487 Y196.155 Z-3.465
X44.442 Y196.199 Z-3.568
X44.388 Y196.25 Z-3.663
X44.327 Y196.309 Z-3.749
X44.258 Y196.375 Z-3.823
X44.183 Y196.446 Z-3.885
X44.104 Y196.523 Z-3.935
X44.021 Y196.602 Z-3.971
X43.935 Y196.685 Z-3.993
X43.848 Y196.768 Z-4.
X43.126 Y197.46 F2400.
G3 X41.712 Y197.43 I-0.692 J-0.722
G2 X34.491 Y194.348 I-7.221 J6.918
G1 X24.491
G2 X14.491 Y204.348 J10.
G1 Y254.348
G2 X24.491 Y264.348 I10.
G1 X34.491
G2 X44.491 Y254.348 J-10.
G1 Y204.348
G2 X41.712 Y197.43 I-10.
G3 X41.742 Y196.016 I0.722 J-0.692
G1 X42.464 Y195.324
X42.551 Y195.24 Z-3.993
X42.637 Y195.158 Z-3.971
X42.72 Y195.079 Z-3.935
X42.8 Y195.002 Z-3.885
X42.874 Y194.931 Z-3.823
X42.943 Y194.865 Z-3.749
X43.005 Y194.806 Z-3.663
X43.058 Y194.754 Z-3.568
X43.103 Y194.711 Z-3.465
X43.139 Y194.677 Z-3.355
X43.165 Y194.652 Z-3.239
X43.181 Y194.637 Z-3.121
X43.186 Y194.632 Z-3.
G0 Z5.
X43.397 Y194.825
G1 Z-2. F800.
Z-4.
X43.392 Y194.83 Z-4.121
X43.378 Y194.847 Z-4.239
X43.356 Y194.875 Z-4.355
X43.325 Y194.914 Z-4.465
X43.286 Y194.963 Z-4.568
X43.239 Y195.021 Z-4.663
X43.186 Y195.088 Z-4.749
X43.127 Y195.162 Z-4.823
X43.062 Y195.242 Z-4.885
X42.993 Y195.328 Z-4.935
X42.921 Y195.418 Z-4.971
X42.847 Y195.511 Z-4.993
X42.772 Y195.605 Z-5.
X42.147 Y196.386 F2400.
G3 X40.741 Y196.542 I-0.781 J-0.625
G2 X34.491 Y194.348 I-6.25 J7.806
G1 X24.491
G2 X14.491 Y204.348 J10.
G1 Y254.348
G2 X24.491 Y264.348 I10.
G1 X34.491
G2 X44.491 Y254.348 J-10.
G1 Y204.348
G2 X40.741 Y196.542 I-10.
G3 X40.585 Y195.136 I0.625 J-0.781
G1 X41.21 Y194.355
X41.286 Y194.261 Z-4.993
X41.36 Y194.168 Z-4.971
X41.432 Y194.078 Z-4.935
X41.501 Y193.992 Z-4.885
X41.565 Y193.912 Z-4.823
X41.625 Y193.838 Z-4.749
X41.678 Y193.771 Z-4.663
X41.725 Y193.713 Z-4.568
X41.764 Y193.664 Z-4.465
X41.795 Y193.625 Z-4.355
X41.817 Y193.597 Z-4.239
X41.831 Y193.58 Z-4.121
X41.835 Y193.575 Z-4.
G0 Z5.
X41.743 Y190.91
G1 Z-2. F800.
Z-4.
X41.738 Y190.905 Z-4.121
X41.724 Y190.889 Z-4.239
X41.699 Y190.862 Z-4.355
X41.666 Y190.826 Z-4.465
X41.623 Y190.78 Z-4.568
X41.573 Y190.725 Z-4.663
X41.515 Y190.662 Z-4.749
X41.451 Y190.592 Z-4.823
X41.381 Y190.516 Z-4.885
X41.306 Y190.435 Z-4.935
X41.228 Y190.351 Z-4.971
X41.148 Y190.263 Z-4.993
X41.066 Y190.175 Z-5.
X40.388 Y189.439 F2400.
G3 X40.447 Y188.026 I0.736 J-0.677
G2 X42.06 Y184.348 I-3.387 J-3.678
G1 Y84.965
Y84.348
G2 X12.06 I-15.
G1 Y184.348
G2 X17.06 Y189.348 I5.
G1 X37.06
G2 X40.447 Y188.026 J-5.
G3 X41.86 Y188.084 I0.677 J0.736
G1 X42.537 Y188.82
X42.619 Y188.908 Z-4.993
X42.699 Y188.996 Z-4.971
X42.777 Y189.081 Z-4.935
X42.852 Y189.162 Z-4.885
X42.922 Y189.238 Z-4.823
X42.986 Y189.308 Z-4.749
X43.044 Y189.37 Z-4.663
X43.095 Y189.425 Z-4.568
X43.137 Y189.471 Z-4.465
X43.17 Y189.508 Z-4.355
X43.195 Y189.534 Z-4.239
X43.21 Y189.55 Z-4.121
X43.215 Y189.555 Z-4.
G0 Z5.
X41.743 Y190.91
G1 Z-3. F800.
Z-5.
X41.738 Y190.905 Z-5.121
X41.724 Y190.889 Z-5.239
X41.699 Y190.862 Z-5.355
X41.666 Y190.826 Z-5.465
X41.623 Y190.78 Z-5.568
X41.573 Y190.725 Z-5.663
X41.515 Y190.662 Z-5.749
X41.451 Y190.592 Z-5.823
X41.381 Y190.516 Z-5.885
X41.306 Y190.435 Z-5.935
X41.228 Y190.351 Z-5.971
X41.148 Y190.263 Z-5.993
X41.066 Y190.175 Z-6.
X40.388 Y189.439 F2400.
G3 X40.447 Y188.026 I0.736 J-0.677
G2 X42.06 Y184.348 I-3.387 J-3.678
G1 Y84.965
Y84.348
G2 X12.06 I-15.
G1 Y184.348
G2 X17.06 Y189.348 I5.
G1 X37.06
G2 X40.447 Y188.026 J-5.
G3 X41.86 Y188.084 I0.677 J0.736
G1 X42.537 Y188.82
X42.619 Y188.908 Z-5.993
X42.699 Y188.996 Z-5.971
X42.777 Y189.081 Z-5.935
X42.852 Y189.162 Z-5.885
X42.922 Y189.238 Z-5.823
X42.986 Y189.308 Z-5.749
X43.044 Y189.37 Z-5.663
X43.095 Y189.425 Z-5.568
X43.137 Y189.471 Z-5.465
X43.17 Y189.508 Z-5.355
X43.195 Y189.534 Z-5.239
X43.21 Y189.55 Z-5.121
X43.215 Y189.555 Z-5.
G0 Z5.
X48.365 Y194.632
G1 Z-2. F800.
Z-4.
X48.37 Y194.637 Z-4.121
X48.386 Y194.652 Z-4.239
X48.412 Y194.677 Z-4.355
X48.447 Y194.711 Z-4.465
X48.493 Y194.754 Z-4.568
X48.546 Y194.806 Z-4.663
X48.608 Y194.865 Z-4.749
X48.677 Y194.931 Z-4.823
X48.751 Y195.002 Z-4.885
X48.831 Y195.079 Z-4.935
X48.914 Y195.158 Z-4.971
X49. Y195.24 Z-4.993
X49.087 Y195.324 Z-5.
X49.809 Y196.016 F2400.
G3 X49.839 Y197.43 I-0.692 J0.722
G2 X47.06 Y204.348 I7.221 J6.918
G1 Y254.348
G2 X57.06 Y264.348 I10.
G1 X67.06
G2 X77.06 Y254.348 J-10.
G1 Y204.348
G2 X67.06 Y194.348 I-10.
G1 X57.06
G2 X49.839 Y197.43 J10.
G3 X48.425 Y197.46 I-0.722 J-0.692
G1 X47.703 Y196.768
X47.616 Y196.685 Z-4.993
X47.53 Y196.602 Z-4.971
X47.447 Y196.523 Z-4.935
X47.368 Y196.446 Z-4.885
X47.293 Y196.375 Z-4.823
X47.224 Y196.309 Z-4.749
X47.163 Y196.25 Z-4.663
X47.109 Y196.199 Z-4.568
X47.064 Y196.155 Z-4.465
X47.028 Y196.121 Z-4.355
X47.002 Y196.096 Z-4.239
X46.986 Y196.081 Z-4.121
X46.981 Y196.076 Z-4.
G0 Z5.
X48.365 Y194.632
G1 Z-3. F800.
Z-5.
X48.37 Y194.637 Z-5.121
X48.386 Y194.652 Z-5.239
X48.412 Y194.677 Z-5.355
X48.447 Y194.711 Z-5.465
X48.493 Y194.754 Z-5.568
X48.546 Y194.806 Z-5.663
X48.608 Y194.865 Z-5.749
X48.677 Y194.931 Z-5.823
X48.751 Y195.002 Z-5.885
X48.831 Y195.079 Z-5.935
X48.914 Y195.158 Z-5.971
X49. Y195.24 Z-5.993
X49.087 Y195.324 Z-6.
X49.809 Y196.016 F2400.
G3 X49.839 Y197.43 I-0.692 J0.722
G2 X47.06 Y204.348 I7.221 J6.918
G1 Y254.348
G2 X57.06 Y264.348 I10.
G1 X67.06
G2 X77.06 Y254.348 J-10.
G1 Y204.348
G2 X67.06 Y194.348 I-10.
G1 X57.06
G2 X49.839 Y197.43 J10.
G3 X48.425 Y197.46 I-0.722 J-0.692
G1 X47.703 Y196.768
X47.616 Y196.685 Z-5.993
X47.53 Y196.602 Z-5.971
X47.447 Y196.523 Z-5.935
X47.368 Y196.446 Z-5.885
X47.293 Y196.375 Z-5.823
X47.224 Y196.309 Z-5.749
X47.163 Y196.25 Z-5.663
X47.109 Y196.199 Z-5.568
X47.064 Y196.155 Z-5.465
X47.028 Y196.121 Z-5.355
X47.002 Y196.096 Z-5.239
X46.986 Y196.081 Z-5.121
X46.981 Y196.076 Z-5.
G0 Z5.
X44.57
G1 Z-3. F800.
Z-5.
X44.565 Y196.081 Z-5.121
X44.549 Y196.096 Z-5.239
X44.523 Y196.121 Z-5.355
X44.487 Y196.155 Z-5.465
X44.442 Y196.199 Z-5.568
X44.388 Y196.25 Z-5.663
X44.327 Y196.309 Z-5.749
X44.258 Y196.375 Z-5.823
X44.183 Y196.446 Z-5.885
X44.104 Y196.523 Z-5.935
X44.021 Y196.602 Z-5.971
X43.935 Y196.685 Z-5.993
X43.848 Y196.768 Z-6.
X43.126 Y197.46 F2400.
G3 X41.712 Y197.43 I-0.692 J-0.722
G2 X34.491 Y194.348 I-7.221 J6.918
G1 X24.491
G2 X14.491 Y204.348 J10.
G1 Y254.348
G2 X24.491 Y264.348 I10.
G1 X34.491
G2 X44.491 Y254.348 J-10.
G1 Y204.348
G2 X41.712 Y197.43 I-10.
G3 X41.742 Y196.016 I0.722 J-0.692
G1 X42.464 Y195.324
X42.551 Y195.24 Z-5.993
X42.637 Y195.158 Z-5.971
X42.72 Y195.079 Z-5.935
X42.8 Y195.002 Z-5.885
X42.874 Y194.931 Z-5.823
X42.943 Y194.865 Z-5.749
X43.005 Y194.806 Z-5.663
X43.058 Y194.754 Z-5.568
X43.103 Y194.711 Z-5.465
X43.139 Y194.677 Z-5.355
X43.165 Y194.652 Z-5.239
X43.181 Y194.637 Z-5.121
X43.186 Y194.632 Z-5.
G0 Z5.
X43.397 Y194.825
G1 Z-4. F800.
Z-6.
X43.392 Y194.83 Z-6.121
X43.378 Y194.847 Z-6.239
X43.356 Y194.875 Z-6.355
X43.325 Y194.914 Z-6.465
X43.286 Y194.963 Z-6.568
X43.239 Y195.021 Z-6.663
X43.186 Y195.088 Z-6.749
X43.127 Y195.162 Z-6.823
X43.062 Y195.242 Z-6.885
X42.993 Y195.328 Z-6.935
X42.921 Y195.418 Z-6.971
X42.847 Y195.511 Z-6.993
X42.772 Y195.605 Z-7.
X42.147 Y196.386 F2400.
G3 X40.741 Y196.542 I-0.781 J-0.625
G2 X34.491 Y194.348 I-6.25 J7.806
G1 X24.491
G2 X14.491 Y204.348 J10.
G1 Y254.348
G2 X24.491 Y264.348 I10.
G1 X34.491
G2 X44.491 Y254.348 J-10.
G1 Y204.348
G2 X40.741 Y196.542 I-10.
G3 X40.585 Y195.136 I0.625 J-0.781
G1 X41.21 Y194.355
X41.286 Y194.261 Z-6.993
X41.36 Y194.168 Z-6.971
X41.432 Y194.078 Z-6.935
X41.501 Y193.992 Z-6.885
X41.565 Y193.912 Z-6.823
X41.625 Y193.838 Z-6.749
X41.678 Y193.771 Z-6.663
X41.725 Y193.713 Z-6.568
X41.764 Y193.664 Z-6.465
X41.795 Y193.625 Z-6.355
X41.817 Y193.597 Z-6.239
X41.831 Y193.58 Z-6.121
X41.835 Y193.575 Z-6.
G0 Z5.
X46.523 Y190.825
G1 Z-3. F800.
Z-5.
X46.527 Y190.82 Z-5.121
X46.54 Y190.802 Z-5.239
X46.561 Y190.773 Z-5.355
X46.591 Y190.733 Z-5.465
X46.628 Y190.683 Z-5.568
X46.672 Y190.623 Z-5.663
X46.722 Y190.554 Z-5.749
X46.778 Y190.477 Z-5.823
X46.839 Y190.394 Z-5.885
X46.904 Y190.305 Z-5.935
X46.973 Y190.212 Z-5.971
X47.043 Y190.116 Z-5.993
X47.114 Y190.019 Z-6.
X47.705 Y189.212 F2400.
G3 X49.103 Y188.997 I0.806 J0.591
G2 X52.06 Y189.965 I2.956 J-4.032
G1 X72.06
G2 X77.06 Y184.965 J-5.
G1 Y84.965
G2 X47.06 I-15.
G1 Y184.965
G2 X49.103 Y188.997 I5.
G3 X49.318 Y190.395 I-0.591 J0.806
G1 X48.727 Y191.202
X48.656 Y191.299 Z-5.993
X48.586 Y191.395 Z-5.971
X48.517 Y191.487 Z-5.935
X48.452 Y191.576 Z-5.885
X48.391 Y191.66 Z-5.823
X48.335 Y191.736 Z-5.749
X48.284 Y191.805 Z-5.663
X48.24 Y191.865 Z-5.568
X48.203 Y191.916 Z-5.465
X48.174 Y191.956 Z-5.355
X48.153 Y191.985 Z-5.239
X48.14 Y192.002 Z-5.121
X48.136 Y192.008 Z-5.
G0 Z5.
X46.523 Y190.825
G1 Z-4. F800.
Z-6.
X46.527 Y190.82 Z-6.121
X46.54 Y190.802 Z-6.239
X46.561 Y190.773 Z-6.355
X46.591 Y190.733 Z-6.465
X46.628 Y190.683 Z-6.568
X46.672 Y190.623 Z-6.663
X46.722 Y190.554 Z-6.749
X46.778 Y190.477 Z-6.823
X46.839 Y190.394 Z-6.885
X46.904 Y190.305 Z-6.935
X46.973 Y190.212 Z-6.971
X47.043 Y190.116 Z-6.993
X47.114 Y190.019 Z-7.
X47.705 Y189.212 F2400.
G3 X49.103 Y188.997 I0.806 J0.591
G2 X52.06 Y189.965 I2.956 J-4.032
G1 X72.06
G2 X77.06 Y184.965 J-5.
G1 Y84.965
G2 X47.06 I-15.
G1 Y184.965
G2 X49.103 Y188.997 I5.
G3 X49.318 Y190.395 I-0.591 J0.806
G1 X48.727 Y191.202
X48.656 Y191.299 Z-6.993
X48.586 Y191.395 Z-6.971
X48.517 Y191.487 Z-6.935
X48.452 Y191.576 Z-6.885
X48.391 Y191.66 Z-6.823
X48.335 Y191.736 Z-6.749
X48.284 Y191.805 Z-6.663
X48.24 Y191.865 Z-6.568
X48.203 Y191.916 Z-6.465
X48.174 Y191.956 Z-6.355
X48.153 Y191.985 Z-6.239
X48.14 Y192.002 Z-6.121
X48.136 Y192.008 Z-6.
G0 Z5.
X48.365 Y194.632
G1 Z-4. F800.
Z-6.
X48.37 Y194.637 Z-6.121
X48.386 Y194.652 Z-6.239
X48.412 Y194.677 Z-6.355
X48.447 Y194.711 Z-6.465
X48.493 Y194.754 Z-6.568
X48.546 Y194.806 Z-6.663
X48.608 Y194.865 Z-6.749
X48.677 Y194.931 Z-6.823
X48.751 Y195.002 Z-6.885
X48.831 Y195.079 Z-6.935
X48.914 Y195.158 Z-6.971
X49. Y195.24 Z-6.993
X49.087 Y195.324 Z-7.
X49.809 Y196.016 F2400.
G3 X49.839 Y197.43 I-0.692 J0.722
G2 X47.06 Y204.348 I7.221 J6.918
G1 Y254.348
G2 X57.06 Y264.348 I10.
G1 X67.06
G2 X77.06 Y254.348 J-10.
G1 Y204.348
G2 X67.06 Y194.348 I-10.
G1 X57.06
G2 X49.839 Y197.43 J10.
G3 X48.425 Y197.46 I-0.722 J-0.692
G1 X47.703 Y196.768
X47.616 Y196.685 Z-6.993
X47.53 Y196.602 Z-6.971
X47.447 Y196.523 Z-6.935
X47.368 Y196.446 Z-6.885
X47.293 Y196.375 Z-6.823
X47.224 Y196.309 Z-6.749
X47.163 Y196.25 Z-6.663
X47.109 Y196.199 Z-6.568
X47.064 Y196.155 Z-6.465
X47.028 Y196.121 Z-6.355
X47.002 Y196.096 Z-6.239
X46.986 Y196.081 Z-6.121
X46.981 Y196.076 Z-6.
G0 Z5.
X48.365 Y194.632
G1 Z-5. F800.
Z-7.
X48.37 Y194.637 Z-7.121
X48.386 Y194.652 Z-7.239
X48.412 Y194.677 Z-7.355
X48.447 Y194.711 Z-7.465
X48.493 Y194.754 Z-7.568
X48.546 Y194.806 Z-7.663
X48.608 Y194.865 Z-7.749
X48.677 Y194.931 Z-7.823
X48.751 Y195.002 Z-7.885
X48.831 Y195.079 Z-7.935
X48.914 Y195.158 Z-7.971
X49. Y195.24 Z-7.993
X49.087 Y195.324 Z-8.
X49.809 Y196.016 F2400.
G3 X49.839 Y197.43 I-0.692 J0.722
G2 X47.06 Y204.348 I7.221 J6.918
G1 Y254.348
G2 X57.06 Y264.348 I10.
G1 X67.06
G2 X77.06 Y254.348 J-10.
G1 Y204.348
G2 X67.06 Y194.348 I-10.
G1 X57.06
G2 X49.839 Y197.43 J10.
G3 X48.425 Y197.46 I-0.722 J-0.692
G1 X47.703 Y196.768
X47.616 Y196.685 Z-7.993
X47.53 Y196.602 Z-7.971
X47.447 Y196.523 Z-7.935
X47.368 Y196.446 Z-7.885
X47.293 Y196.375 Z-7.823
X47.224 Y196.309 Z-7.749
X47.163 Y196.25 Z-7.663
X47.109 Y196.199 Z-7.568
X47.064 Y196.155 Z-7.465
X47.028 Y196.121 Z-7.355
X47.002 Y196.096 Z-7.239
X46.986 Y196.081 Z-7.121
X46.981 Y196.076 Z-7.
G0 Z5.
X41.743 Y190.91
G1 Z-4. F800.
Z-6.
X41.738 Y190.905 Z-6.121
X41.724 Y190.889 Z-6.239
X41.699 Y190.862 Z-6.355
X41.666 Y190.826 Z-6.465
X41.623 Y190.78 Z-6.568
X41.573 Y190.725 Z-6.663
X41.515 Y190.662 Z-6.749
X41.451 Y190.592 Z-6.823
X41.381 Y190.516 Z-6.885
X41.306 Y190.435 Z-6.935
X41.228 Y190.351 Z-6.971
X41.148 Y190.263 Z-6.993
X41.066 Y190.175 Z-7.
X40.388 Y189.439 F2400.
G3 X40.447 Y188.026 I0.736 J-0.677
G2 X42.06 Y184.348 I-3.387 J-3.678
G1 Y84.965
Y84.348
G2 X12.06 I-15.
G1 Y184.348
G2 X17.06 Y189.348 I5.
G1 X37.06
G2 X40.447 Y188.026 J-5.
G3 X41.86 Y188.084 I0.677 J0.736
G1 X42.537 Y188.82
X42.619 Y188.908 Z-6.993
X42.699 Y188.996 Z-6.971
X42.777 Y189.081 Z-6.935
X42.852 Y189.162 Z-6.885
X42.922 Y189.238 Z-6.823
X42.986 Y189.308 Z-6.749
X43.044 Y189.37 Z-6.663
X43.095 Y189.425 Z-6.568
X43.137 Y189.471 Z-6.465
X43.17 Y189.508 Z-6.355
X43.195 Y189.534 Z-6.239
X43.21 Y189.55 Z-6.121
X43.215 Y189.555 Z-6.
G0 Z5.
X41.743 Y190.91
G1 Z-5. F800.
Z-7.
X41.738 Y190.905 Z-7.121
X41.724 Y190.889 Z-7.239
X41.699 Y190.862 Z-7.355
X41.666 Y190.826 Z-7.465
X41.623 Y190.78 Z-7.568
X41.573 Y190.725 Z-7.663
X41.515 Y190.662 Z-7.749
X41.451 Y190.592 Z-7.823
X41.381 Y190.516 Z-7.885
X41.306 Y190.435 Z-7.935
X41.228 Y190.351 Z-7.971
X41.148 Y190.263 Z-7.993
X41.066 Y190.175 Z-8.
X40.388 Y189.439 F2400.
G3 X40.447 Y188.026 I0.736 J-0.677
G2 X42.06 Y184.348 I-3.387 J-3.678
G1 Y84.965
Y84.348
G2 X12.06 I-15.
G1 Y184.348
G2 X17.06 Y189.348 I5.
G1 X37.06
G2 X40.447 Y188.026 J-5.
G3 X41.86 Y188.084 I0.677 J0.736
G1 X42.537 Y188.82
X42.619 Y188.908 Z-7.993
X42.699 Y188.996 Z-7.971
X42.777 Y189.081 Z-7.935
X42.852 Y189.162 Z-7.885
X42.922 Y189.238 Z-7.823
X42.986 Y189.308 Z-7.749
X43.044 Y189.37 Z-7.663
X43.095 Y189.425 Z-7.568
X43.137 Y189.471 Z-7.465
X43.17 Y189.508 Z-7.355
X43.195 Y189.534 Z-7.239
X43.21 Y189.55 Z-7.121
X43.215 Y189.555 Z-7.
G0 Z5.
X46.523 Y190.825
G1 Z-5. F800.
Z-7.
X46.527 Y190.82 Z-7.121
X46.54 Y190.802 Z-7.239
X46.561 Y190.773 Z-7.355
X46.591 Y190.733 Z-7.465
X46.628 Y190.683 Z-7.568
X46.672 Y190.623 Z-7.663
X46.722 Y190.554 Z-7.749
X46.778 Y190.477 Z-7.823
X46.839 Y190.394 Z-7.885
X46.904 Y190.305 Z-7.935
X46.973 Y190.212 Z-7.971
X47.043 Y190.116 Z-7.993
X47.114 Y190.019 Z-8.
X47.705 Y189.212 F2400.
G3 X49.103 Y188.997 I0.806 J0.591
G2 X52.06 Y189.965 I2.956 J-4.032
G1 X72.06
G2 X77.06 Y184.965 J-5.
G1 Y84.965
G2 X47.06 I-15.
G1 Y184.965
G2 X49.103 Y188.997 I5.
G3 X49.318 Y190.395 I-0.591 J0.806
G1 X48.727 Y191.202
X48.656 Y191.299 Z-7.993
X48.586 Y191.395 Z-7.971
X48.517 Y191.487 Z-7.935
X48.452 Y191.576 Z-7.885
X48.391 Y191.66 Z-7.823
X48.335 Y191.736 Z-7.749
X48.284 Y191.805 Z-7.663
X48.24 Y191.865 Z-7.568
X48.203 Y191.916 Z-7.465
X48.174 Y191.956 Z-7.355
X48.153 Y191.985 Z-7.239
X48.14 Y192.002 Z-7.121
X48.136 Y192.008 Z-7.
G0 Z5.
X46.523 Y190.825
G1 Z-6. F800.
Z-8.
X46.527 Y190.82 Z-8.121
X46.54 Y190.802 Z-8.239
X46.561 Y190.773 Z-8.355
X46.591 Y190.733 Z-8.465
X46.628 Y190.683 Z-8.568
X46.672 Y190.623 Z-8.663
X46.722 Y190.554 Z-8.749
X46.778 Y190.477 Z-8.823
X46.839 Y190.394 Z-8.885
X46.904 Y190.305 Z-8.935
X46.973 Y190.212 Z-8.971
X47.043 Y190.116 Z-8.993
X47.114 Y190.019 Z-9.
X47.705 Y189.212 F2400.
G3 X49.103 Y188.997 I0.806 J0.591
G2 X52.06 Y189.965 I2.956 J-4.032
G1 X72.06
G2 X77.06 Y184.965 J-5.
G1 Y84.965
G2 X47.06 I-15.
G1 Y184.965
G2 X49.103 Y188.997 I5.
G3 X49.318 Y190.395 I-0.591 J0.806
G1 X48.727 Y191.202
X48.656 Y191.299 Z-8.993
X48.586 Y191.395 Z-8.971
X48.517 Y191.487 Z-8.935
X48.452 Y191.576 Z-8.885
X48.391 Y191.66 Z-8.823
X48.335 Y191.736 Z-8.749
X48.284 Y191.805 Z-8.663
X48.24 Y191.865 Z-8.568
X48.203 Y191.916 Z-8.465
X48.174 Y191.956 Z-8.355
X48.153 Y191.985 Z-8.239
X48.14 Y192.002 Z-8.121
X48.136 Y192.008 Z-8.
G0 Z5.
X44.57 Y196.076
G1 Z-5. F800.
Z-7.
X44.565 Y196.081 Z-7.121
X44.549 Y196.096 Z-7.239
X44.523 Y196.121 Z-7.355
X44.487 Y196.155 Z-7.465
X44.442 Y196.199 Z-7.568
X44.388 Y196.25 Z-7.663
X44.327 Y196.309 Z-7.749
X44.258 Y196.375 Z-7.823
X44.183 Y196.446 Z-7.885
X44.104 Y196.523 Z-7.935
X44.021 Y196.602 Z-7.971
X43.935 Y196.685 Z-7.993
X43.848 Y196.768 Z-8.
X43.126 Y197.46 F2400.
G3 X41.712 Y197.43 I-0.692 J-0.722
G2 X34.491 Y194.348 I-7.221 J6.918
G1 X24.491
G2 X14.491 Y204.348 J10.
G1 Y254.348
G2 X24.491 Y264.348 I10.
G1 X34.491
G2 X44.491 Y254.348 J-10.
G1 Y204.348
G2 X41.712 Y197.43 I-10.
G3 X41.742 Y196.016 I0.722 J-0.692
G1 X42.464 Y195.324
X42.551 Y195.24 Z-7.993
X42.637 Y195.158 Z-7.971
X42.72 Y195.079 Z-7.935
X42.8 Y195.002 Z-7.885
X42.874 Y194.931 Z-7.823
X42.943 Y194.865 Z-7.749
X43.005 Y194.806 Z-7.663
X43.058 Y194.754 Z-7.568
X43.103 Y194.711 Z-7.465
X43.139 Y194.677 Z-7.355
X43.165 Y194.652 Z-7.239
X43.181 Y194.637 Z-7.121
X43.186 Y194.632 Z-7.
G0 Z5.
X43.397 Y194.825
G1 Z-6. F800.
Z-8.
X43.392 Y194.83 Z-8.121
X43.378 Y194.847 Z-8.239
X43.356 Y194.875 Z-8.355
X43.325 Y194.914 Z-8.465
X43.286 Y194.963 Z-8.568
X43.239 Y195.021 Z-8.663
X43.186 Y195.088 Z-8.749
X43.127 Y195.162 Z-8.823
X43.062 Y195.242 Z-8.885
X42.993 Y195.328 Z-8.935
X42.921 Y195.418 Z-8.971
X42.847 Y195.511 Z-8.993
X42.772 Y195.605 Z-9.
X42.147 Y196.386 F2400.
G3 X40.741 Y196.542 I-0.781 J-0.625
G2 X34.491 Y194.348 I-6.25 J7.806
G1 X24.491
G2 X14.491 Y204.348 J10.
G1 Y254.348
G2 X24.491 Y264.348 I10.
G1 X34.491
G2 X44.491 Y254.348 J-10.
G1 Y204.348
G2 X40.741 Y196.542 I-10.
G3 X40.585 Y195.136 I0.625 J-0.781
G1 X41.21 Y194.355
X41.286 Y194.261 Z-8.993
X41.36 Y194.168 Z-8.971
X41.432 Y194.078 Z-8.935
X41.501 Y193.992 Z-8.885
X41.565 Y193.912 Z-8.823
X41.625 Y193.838 Z-8.749
X41.678 Y193.771 Z-8.663
X41.725 Y193.713 Z-8.568
X41.764 Y193.664 Z-8.465
X41.795 Y193.625 Z-8.355
X41.817 Y193.597 Z-8.239
X41.831 Y193.58 Z-8.121
X41.835 Y193.575 Z-8.
G0 Z5.
X41.743 Y190.91
G1 Z-6. F800.
Z-8.
X41.738 Y190.905 Z-8.121
X41.724 Y190.889 Z-8.239
X41.699 Y190.862 Z-8.355
X41.666 Y190.826 Z-8.465
X41.623 Y190.78 Z-8.568
X41.573 Y190.725 Z-8.663
X41.515 Y190.662 Z-8.749
X41.451 Y190.592 Z-8.823
X41.381 Y190.516 Z-8.885
X41.306 Y190.435 Z-8.935
X41.228 Y190.351 Z-8.971
X41.148 Y190.263 Z-8.993
X41.066 Y190.175 Z-9.
X40.388 Y189.439 F2400.
G3 X40.447 Y188.026 I0.736 J-0.677
G2 X42.06 Y184.348 I-3.387 J-3.678
G1 Y84.965
Y84.348
G2 X12.06 I-15.
G1 Y184.348
G2 X17.06 Y189.348 I5.
G1 X37.06
G2 X40.447 Y188.026 J-5.
G3 X41.86 Y188.084 I0.677 J0.736
G1 X42.537 Y188.82
X42.619 Y188.908 Z-8.993
X42.699 Y188.996 Z-8.971
X42.777 Y189.081 Z-8.935
X42.852 Y189.162 Z-8.885
X42.922 Y189.238 Z-8.823
X42.986 Y189.308 Z-8.749
X43.044 Y189.37 Z-8.663
X43.095 Y189.425 Z-8.568
X43.137 Y189.471 Z-8.465
X43.17 Y189.508 Z-8.355
X43.195 Y189.534 Z-8.239
X43.21 Y189.55 Z-8.121
X43.215 Y189.555 Z-8.
G0 Z5.
X41.743 Y190.91
G1 Z-7. F800.
Z-9.
X41.738 Y190.905 Z-9.121
X41.724 Y190.889 Z-9.239
X41.699 Y190.862 Z-9.355
X41.666 Y190.826 Z-9.465
X41.623 Y190.78 Z-9.568
X41.573 Y190.725 Z-9.663
X41.515 Y190.662 Z-9.749
X41.451 Y190.592 Z-9.823
X41.381 Y190.516 Z-9.885
X41.306 Y190.435 Z-9.935
X41.228 Y190.351 Z-9.971
X41.148 Y190.263 Z-9.993
X41.066 Y190.175 Z-10.
X40.388 Y189.439 F2400.
G3 X40.447 Y188.026 I0.736 J-0.677
G2 X42.06 Y184.348 I-3.387 J-3.678
G1 Y84.965
Y84.348
G2 X12.06 I-15.
G1 Y184.348
G2 X17.06 Y189.348 I5.
G1 X37.06
G2 X40.447 Y188.026 J-5.
G3 X41.86 Y188.084 I0.677 J0.736
G1 X42.537 Y188.82
X42.619 Y188.908 Z-9.993
X42.699 Y188.996 Z-9.971
X42.777 Y189.081 Z-9.935
X42.852 Y189.162 Z-9.885
X42.922 Y189.238 Z-9.823
X42.986 Y189.308 Z-9.749
X43.044 Y189.37 Z-9.663
X43.095 Y189.425 Z-9.568
X43.137 Y189.471 Z-9.465
X43.17 Y189.508 Z-9.355
X43.195 Y189.534 Z-9.239
X43.21 Y189.55 Z-9.121
X43.215 Y189.555 Z-9.
G0 Z5.
X48.365 Y194.632
G1 Z-6. F800.
Z-8.
X48.37 Y194.637 Z-8.121
X48.386 Y194.652 Z-8.239
X48.412 Y194.677 Z-8.355
X48.447 Y194.711 Z-8.465
X48.493 Y194.754 Z-8.568
X48.546 Y194.806 Z-8.663
X48.608 Y194.865 Z-8.749
X48.677 Y194.931 Z-8.823
X48.751 Y195.002 Z-8.885
X48.831 Y195.079 Z-8.935
X48.914 Y195.158 Z-8.971
X49. Y195.24 Z-8.993
X49.087 Y195.324 Z-9.
X49.809 Y196.016 F2400.
G3 X49.839 Y197.43 I-0.692 J0.722
G2 X47.06 Y204.348 I7.221 J6.918
G1 Y254.348
G2 X57.06 Y264.348 I10.
G1 X67.06
G2 X77.06 Y254.348 J-10.
G1 Y204.348
G2 X67.06 Y194.348 I-10.
G1 X57.06
G2 X49.839 Y197.43 J10.
G3 X48.425 Y197.46 I-0.722 J-0.692
G1 X47.703 Y196.768
X47.616 Y196.685 Z-8.993
X47.53 Y196.602 Z-8.971
X47.447 Y196.523 Z-8.935
X47.368 Y196.446 Z-8.885
X47.293 Y196.375 Z-8.823
X47.224 Y196.309 Z-8.749
X47.163 Y196.25 Z-8.663
X47.109 Y196.199 Z-8.568
X47.064 Y196.155 Z-8.465
X47.028 Y196.121 Z-8.355
X47.002 Y196.096 Z-8.239
X46.986 Y196.081 Z-8.121
X46.981 Y196.076 Z-8.
G0 Z5.
X48.365 Y194.632
G1 Z-7. F800.
Z-9.
X48.37 Y194.637 Z-9.121
X48.386 Y194.652 Z-9.239
X48.412 Y194.677 Z-9.355
X48.447 Y194.711 Z-9.465
X48.493 Y194.754 Z-9.568
X48.546 Y194.806 Z-9.663
X48.608 Y194.865 Z-9.749
X48.677 Y194.931 Z-9.823
X48.751 Y195.002 Z-9.885
X48.831 Y195.079 Z-9.935
X48.914 Y195.158 Z-9.971
X49. Y195.24 Z-9.993
X49.087 Y195.324 Z-10.
X49.809 Y196.016 F2400.
G3 X49.839 Y197.43 I-0.692 J0.722
G2 X47.06 Y204.348 I7.221 J6.918
G1 Y254.348
G2 X57.06 Y264.348 I10.
G1 X67.06
G2 X77.06 Y254.348 J-10.
G1 Y204.348
G2 X67.06 Y194.348 I-10.
G1 X57.06
G2 X49.839 Y197.43 J10.
G3 X48.425 Y197.46 I-0.722 J-0.692
G1 X47.703 Y196.768
X47.616 Y196.685 Z-9.993
X47.53 Y196.602 Z-9.971
X47.447 Y196.523 Z-9.935
X47.368 Y196.446 Z-9.885
X47.293 Y196.375 Z-9.823
X47.224 Y196.309 Z-9.749
X47.163 Y196.25 Z-9.663
X47.109 Y196.199 Z-9.568
X47.064 Y196.155 Z-9.465
X47.028 Y196.121 Z-9.355
X47.002 Y196.096 Z-9.239
X46.986 Y196.081 Z-9.121
X46.981 Y196.076 Z-9.
G0 Z5.
X44.57
G1 Z-7. F800.
Z-9.
X44.565 Y196.081 Z-9.121
X44.549 Y196.096 Z-9.239
X44.523 Y196.121 Z-9.355
X44.487 Y196.155 Z-9.465
X44.442 Y196.199 Z-9.568
X44.388 Y196.25 Z-9.663
X44.327 Y196.309 Z-9.749
X44.258 Y196.375 Z-9.823
X44.183 Y196.446 Z-9.885
X44.104 Y196.523 Z-9.935
X44.021 Y196.602 Z-9.971
X43.935 Y196.685 Z-9.993
X43.848 Y196.768 Z-10.
X43.126 Y197.46 F2400.
G3 X41.712 Y197.43 I-0.692 J-0.722
G2 X34.491 Y194.348 I-7.221 J6.918
G1 X24.491
G2 X14.491 Y204.348 J10.
G1 Y254.348
G2 X24.491 Y264.348 I10.
G1 X34.491
G2 X44.491 Y254.348 J-10.
G1 Y204.348
G2 X41.712 Y197.43 I-10.
G3 X41.742 Y196.016 I0.722 J-0.692
G1 X42.464 Y195.324
X42.551 Y195.24 Z-9.993
X42.637 Y195.158 Z-9.971
X42.72 Y195.079 Z-9.935
X42.8 Y195.002 Z-9.885
X42.874 Y194.931 Z-9.823
X42.943 Y194.865 Z-9.749
X43.005 Y194.806 Z-9.663
X43.058 Y194.754 Z-9.568
X43.103 Y194.711 Z-9.465
X43.139 Y194.677 Z-9.355
X43.165 Y194.652 Z-9.239
X43.181 Y194.637 Z-9.121
X43.186 Y194.632 Z-9.
G0 Z5.
X43.397 Y194.825
G1 Z-8. F800.
Z-10.
X43.392 Y194.83 Z-10.121
X43.378 Y194.847 Z-10.239
X43.356 Y194.875 Z-10.355
X43.325 Y194.914 Z-10.465
X43.286 Y194.963 Z-10.568
X43.239 Y195.021 Z-10.663
X43.186 Y195.088 Z-10.749
X43.127 Y195.162 Z-10.823
X43.062 Y195.242 Z-10.885
X42.993 Y195.328 Z-10.935
X42.921 Y195.418 Z-10.971
X42.847 Y195.511 Z-10.993
X42.772 Y195.605 Z-11.
X42.147 Y196.386 F2400.
G3 X40.741 Y196.542 I-0.781 J-0.625
G2 X34.491 Y194.348 I-6.25 J7.806
G1 X24.491
G2 X14.491 Y204.348 J10.
G1 Y254.348
G2 X24.491 Y264.348 I10.
G1 X34.491
G2 X44.491 Y254.348 J-10.
G1 Y204.348
G2 X40.741 Y196.542 I-10.
G3 X40.585 Y195.136 I0.625 J-0.781
G1 X41.21 Y194.355
X41.286 Y194.261 Z-10.993
X41.36 Y194.168 Z-10.971
X41.432 Y194.078 Z-10.935
X41.501 Y193.992 Z-10.885
X41.565 Y193.912 Z-10.823
X41.625 Y193.838 Z-10.749
X41.678 Y193.771 Z-10.663
X41.725 Y193.713 Z-10.568
X41.764 Y193.664 Z-10.465
X41.795 Y193.625 Z-10.355
X41.817 Y193.597 Z-10.239
X41.831 Y193.58 Z-10.121
X41.835 Y193.575 Z-10.
G0 Z5.
X46.523 Y190.825
G1 Z-7. F800.
Z-9.
X46.527 Y190.82 Z-9.121
X46.54 Y190.802 Z-9.239
X46.561 Y190.773 Z-9.355
X46.591 Y190.733 Z-9.465
X46.628 Y190.683 Z-9.568
X46.672 Y190.623 Z-9.663
X46.722 Y190.554 Z-9.749
X46.778 Y190.477 Z-9.823
X46.839 Y190.394 Z-9.885
X46.904 Y190.305 Z-9.935
X46.973 Y190.212 Z-9.971
X47.043 Y190.116 Z-9.993
X47.114 Y190.019 Z-10.
X47.705 Y189.212 F2400.
G3 X49.103 Y188.997 I0.806 J0.591
G2 X52.06 Y189.965 I2.956 J-4.032
G1 X72.06
G2 X77.06 Y184.965 J-5.
G1 Y84.965
G2 X47.06 I-15.
G1 Y184.965
G2 X49.103 Y188.997 I5.
G3 X49.318 Y190.395 I-0.591 J0.806
G1 X48.727 Y191.202
X48.656 Y191.299 Z-9.993
X48.586 Y191.395 Z-9.971
X48.517 Y191.487 Z-9.935
X48.452 Y191.576 Z-9.885
X48.391 Y191.66 Z-9.823
X48.335 Y191.736 Z-9.749
X48.284 Y191.805 Z-9.663
X48.24 Y191.865 Z-9.568
X48.203 Y191.916 Z-9.465
X48.174 Y191.956 Z-9.355
X48.153 Y191.985 Z-9.239
X48.14 Y192.002 Z-9.121
X48.136 Y192.008 Z-9.
G0 Z5.
X46.523 Y190.825
G1 Z-8. F800.
Z-10.
X46.527 Y190.82 Z-10.121
X46.54 Y190.802 Z-10.239
X46.561 Y190.773 Z-10.355
X46.591 Y190.733 Z-10.465
X46.628 Y190.683 Z-10.568
X46.672 Y190.623 Z-10.663
X46.722 Y190.554 Z-10.749
X46.778 Y190.477 Z-10.823
X46.839 Y190.394 Z-10.885
X46.904 Y190.305 Z-10.935
X46.973 Y190.212 Z-10.971
X47.043 Y190.116 Z-10.993
X47.114 Y190.019 Z-11.
X47.705 Y189.212 F2400.
G3 X49.103 Y188.997 I0.806 J0.591
G2 X52.06 Y189.965 I2.956 J-4.032
G1 X72.06
G2 X77.06 Y184.965 J-5.
G1 Y84.965
G2 X47.06 I-15.
G1 Y184.965
G2 X49.103 Y188.997 I5.
G3 X49.318 Y190.395 I-0.591 J0.806
G1 X48.727 Y191.202
X48.656 Y191.299 Z-10.993
X48.586 Y191.395 Z-10.971
X48.517 Y191.487 Z-10.935
X48.452 Y191.576 Z-10.885
X48.391 Y191.66 Z-10.823
X48.335 Y191.736 Z-10.749
X48.284 Y191.805 Z-10.663
X48.24 Y191.865 Z-10.568
X48.203 Y191.916 Z-10.465
X48.174 Y191.956 Z-10.355
X48.153 Y191.985 Z-10.239
X48.14 Y192.002 Z-10.121
X48.136 Y192.008 Z-10.
G0 Z5.
X48.365 Y194.632
G1 Z-8. F800.
Z-10.
X48.37 Y194.637 Z-10.121
X48.386 Y194.652 Z-10.239
X48.412 Y194.677 Z-10.355
X48.447 Y194.711 Z-10.465
X48.493 Y194.754 Z-10.568
X48.546 Y194.806 Z-10.663
X48.608 Y194.865 Z-10.749
X48.677 Y194.931 Z-10.823
X48.751 Y195.002 Z-10.885
X48.831 Y195.079 Z-10.935
X48.914 Y195.158 Z-10.971
X49. Y195.24 Z-10.993
X49.087 Y195.324 Z-11.
X49.809 Y196.016 F2400.
G3 X49.839 Y197.43 I-0.692 J0.722
G2 X47.06 Y204.348 I7.221 J6.918
G1 Y254.348
G2 X57.06 Y264.348 I10.
G1 X67.06
G2 X77.06 Y254.348 J-10.
G1 Y204.348
G2 X67.06 Y194.348 I-10.
G1 X57.06
G2 X49.839 Y197.43 J10.
G3 X48.425 Y197.46 I-0.722 J-0.692
G1 X47.703 Y196.768
X47.616 Y196.685 Z-10.993
X47.53 Y196.602 Z-10.971
X47.447 Y196.523 Z-10.935
X47.368 Y196.446 Z-10.885
X47.293 Y196.375 Z-10.823
X47.224 Y196.309 Z-10.749
X47.163 Y196.25 Z-10.663
X47.109 Y196.199 Z-10.568
X47.064 Y196.155 Z-10.465
X47.028 Y196.121 Z-10.355
X47.002 Y196.096 Z-10.239
X46.986 Y196.081 Z-10.121
X46.981 Y196.076 Z-10.
G0 Z5.
X48.365 Y194.632
G1 Z-9. F800.
Z-11.
X48.37 Y194.637 Z-11.121
X48.386 Y194.652 Z-11.239
X48.412 Y194.677 Z-11.355
X48.447 Y194.711 Z-11.465
X48.493 Y194.754 Z-11.568
X48.546 Y194.806 Z-11.663
X48.608 Y194.865 Z-11.749
X48.677 Y194.931 Z-11.823
X48.751 Y195.002 Z-11.885
X48.831 Y195.079 Z-11.935
X48.914 Y195.158 Z-11.971
X49. Y195.24 Z-11.993
X49.087 Y195.324 Z-12.
X49.809 Y196.016 F2400.
G3 X49.839 Y197.43 I-0.692 J0.722
G2 X47.06 Y204.348 I7.221 J6.918
G1 Y254.348
G2 X57.06 Y264.348 I10.
G1 X67.06
G2 X77.06 Y254.348 J-10.
G1 Y204.348
G2 X67.06 Y194.348 I-10.
G1 X57.06
G2 X49.839 Y197.43 J10.
G3 X48.425 Y197.46 I-0.722 J-0.692
G1 X47.703 Y196.768
X47.616 Y196.685 Z-11.993
X47.53 Y196.602 Z-11.971
X47.447 Y196.523 Z-11.935
X47.368 Y196.446 Z-11.885
X47.293 Y196.375 Z-11.823
X47.224 Y196.309 Z-11.749
X47.163 Y196.25 Z-11.663
X47.109 Y196.199 Z-11.568
X47.064 Y196.155 Z-11.465
X47.028 Y196.121 Z-11.355
X47.002 Y196.096 Z-11.239
X46.986 Y196.081 Z-11.121
X46.981 Y196.076 Z-11.
G0 Z5.
X41.743 Y190.91
G1 Z-8. F800.
Z-10.
X41.738 Y190.905 Z-10.121
X41.724 Y190.889 Z-10.239
X41.699 Y190.862 Z-10.355
X41.666 Y190.826 Z-10.465
X41.623 Y190.78 Z-10.568
X41.573 Y190.725 Z-10.663
X41.515 Y190.662 Z-10.749
X41.451 Y190.592 Z-10.823
X41.381 Y190.516 Z-10.885
X41.306 Y190.435 Z-10.935
X41.228 Y190.351 Z-10.971
X41.148 Y190.263 Z-10.993
X41.066 Y190.175 Z-11.
X40.388 Y189.439 F2400.
G3 X40.447 Y188.026 I0.736 J-0.677
G2 X42.06 Y184.348 I-3.387 J-3.678
G1 Y84.965
Y84.348
G2 X12.06 I-15.
G1 Y184.348
G2 X17.06 Y189.348 I5.
G1 X37.06
G2 X40.447 Y188.026 J-5.
G3 X41.86 Y188.084 I0.677 J0.736
G1 X42.537 Y188.82
X42.619 Y188.908 Z-10.993
X42.699 Y188.996 Z-10.971
X42.777 Y189.081 Z-10.935
X42.852 Y189.162 Z-10.885
X42.922 Y189.238 Z-10.823
X42.986 Y189.308 Z-10.749
X43.044 Y189.37 Z-10.663
X43.095 Y189.425 Z-10.568
X43.137 Y189.471 Z-10.465
X43.17 Y189.508 Z-10.355
X43.195 Y189.534 Z-10.239
X43.21 Y189.55 Z-10.121
X43.215 Y189.555 Z-10.
G0 Z5.
X41.743 Y190.91
G1 Z-9. F800.
Z-11.
X41.738 Y190.905 Z-11.121
X41.724 Y190.889 Z-11.239
X41.699 Y190.862 Z-11.355
X41.666 Y190.826 Z-11.465
X41.623 Y190.78 Z-11.568
X41.573 Y190.725 Z-11.663
X41.515 Y190.662 Z-11.749
X41.451 Y190.592 Z-11.823
X41.381 Y190.516 Z-11.885
X41.306 Y190.435 Z-11.935
X41.228 Y190.351 Z-11.971
X41.148 Y190.263 Z-11.993
X41.066 Y190.175 Z-12.
X40.388 Y189.439 F2400.
G3 X40.447 Y188.026 I0.736 J-0.677
G2 X42.06 Y184.348 I-3.387 J-3.678
G1 Y84.965
Y84.348
G2 X12.06 I-15.
G1 Y184.348
G2 X17.06 Y189.348 I5.
G1 X37.06
G2 X40.447 Y188.026 J-5.
G3 X41.86 Y188.084 I0.677 J0.736
G1 X42.537 Y188.82
X42.619 Y188.908 Z-11.993
X42.699 Y188.996 Z-11.971
X42.777 Y189.081 Z-11.935
X42.852 Y189.162 Z-11.885
X42.922 Y189.238 Z-11.823
X42.986 Y189.308 Z-11.749
X43.044 Y189.37 Z-11.663
X43.095 Y189.425 Z-11.568
X43.137 Y189.471 Z-11.465
X43.17 Y189.508 Z-11.355
X43.195 Y189.534 Z-11.239
X43.21 Y189.55 Z-11.121
X43.215 Y189.555 Z-11.
G0 Z5.
X46.523 Y190.825
G1 Z-9. F800.
Z-11.
X46.527 Y190.82 Z-11.121
X46.54 Y190.802 Z-11.239
X46.561 Y190.773 Z-11.355
X46.591 Y190.733 Z-11.465
X46.628 Y190.683 Z-11.568
X46.672 Y190.623 Z-11.663
X46.722 Y190.554 Z-11.749
X46.778 Y190.477 Z-11.823
X46.839 Y190.394 Z-11.885
X46.904 Y190.305 Z-11.935
X46.973 Y190.212 Z-11.971
X47.043 Y190.116 Z-11.993
X47.114 Y190.019 Z-12.
X47.705 Y189.212 F2400.
G3 X49.103 Y188.997 I0.806 J0.591
G2 X52.06 Y189.965 I2.956 J-4.032
G1 X72.06
G2 X77.06 Y184.965 J-5.
G1 Y84.965
G2 X47.06 I-15.
G1 Y184.965
G2 X49.103 Y188.997 I5.
G3 X49.318 Y190.395 I-0.591 J0.806
G1 X48.727 Y191.202
X48.656 Y191.299 Z-11.993
X48.586 Y191.395 Z-11.971
X48.517 Y191.487 Z-11.935
X48.452 Y191.576 Z-11.885
X48.391 Y191.66 Z-11.823
X48.335 Y191.736 Z-11.749
X48.284 Y191.805 Z-11.663
X48.24 Y191.865 Z-11.568
X48.203 Y191.916 Z-11.465
X48.174 Y191.956 Z-11.355
X48.153 Y191.985 Z-11.239
X48.14 Y192.002 Z-11.121
X48.136 Y192.008 Z-11.
G0 Z5.
X46.523 Y190.825
G1 Z-10. F800.
Z-12.
X46.527 Y190.82 Z-12.121
X46.54 Y190.802 Z-12.239
X46.561 Y190.773 Z-12.355
X46.591 Y190.733 Z-12.465
X46.628 Y190.683 Z-12.568
X46.672 Y190.623 Z-12.663
X46.722 Y190.554 Z-12.749
X46.778 Y190.477 Z-12.823
X46.839 Y190.394 Z-12.885
X46.904 Y190.305 Z-12.935
X46.973 Y190.212 Z-12.971
X47.043 Y190.116 Z-12.993
X47.114 Y190.019 Z-13.
X47.705 Y189.212 F2400.
G3 X49.103 Y188.997 I0.806 J0.591
G2 X52.06 Y189.965 I2.956 J-4.032
G1 X72.06
G2 X77.06 Y184.965 J-5.
G1 Y84.965
G2 X47.06 I-15.
G1 Y184.965
G2 X49.103 Y188.997 I5.
G3 X49.318 Y190.395 I-0.591 J0.806
G1 X48.727 Y191.202
X48.656 Y191.299 Z-12.993
X48.586 Y191.395 Z-12.971
X48.517 Y191.487 Z-12.935
X48.452 Y191.576 Z-12.885
X48.391 Y191.66 Z-12.823
X48.335 Y191.736 Z-12.749
X48.284 Y191.805 Z-12.663
X48.24 Y191.865 Z-12.568
X48.203 Y191.916 Z-12.465
X48.174 Y191.956 Z-12.355
X48.153 Y191.985 Z-12.239
X48.14 Y192.002 Z-12.121
X48.136 Y192.008 Z-12.
G0 Z5.
X44.57 Y196.076
G1 Z-9. F800.
Z-11.
X44.565 Y196.081 Z-11.121
X44.549 Y196.096 Z-11.239
X44.523 Y196.121 Z-11.355
X44.487 Y196.155 Z-11.465
X44.442 Y196.199 Z-11.568
X44.388 Y196.25 Z-11.663
X44.327 Y196.309 Z-11.749
X44.258 Y196.375 Z-11.823
X44.183 Y196.446 Z-11.885
X44.104 Y196.523 Z-11.935
X44.021 Y196.602 Z-11.971
X43.935 Y196.685 Z-11.993
X43.848 Y196.768 Z-12.
X43.126 Y197.46 F2400.
G3 X41.712 Y197.43 I-0.692 J-0.722
G2 X34.491 Y194.348 I-7.221 J6.918
G1 X24.491
G2 X14.491 Y204.348 J10.
G1 Y254.348
G2 X24.491 Y264.348 I10.
G1 X34.491
G2 X44.491 Y254.348 J-10.
G1 Y204.348
G2 X41.712 Y197.43 I-10.
G3 X41.742 Y196.016 I0.722 J-0.692
G1 X42.464 Y195.324
X42.551 Y195.24 Z-11.993
X42.637 Y195.158 Z-11.971
X42.72 Y195.079 Z-11.935
X42.8 Y195.002 Z-11.885
X42.874 Y194.931 Z-11.823
X42.943 Y194.865 Z-11.749
X43.005 Y194.806 Z-11.663
X43.058 Y194.754 Z-11.568
X43.103 Y194.711 Z-11.465
X43.139 Y194.677 Z-11.355
X43.165 Y194.652 Z-11.239
X43.181 Y194.637 Z-11.121
X43.186 Y194.632 Z-11.
G0 Z5.
X43.397 Y194.825
G1 Z-10. F800.
Z-12.
X43.392 Y194.83 Z-12.121
X43.378 Y194.847 Z-12.239
X43.356 Y194.875 Z-12.355
X43.325 Y194.914 Z-12.465
X43.286 Y194.963 Z-12.568
X43.239 Y195.021 Z-12.663
X43.186 Y195.088 Z-12.749
X43.127 Y195.162 Z-12.823
X43.062 Y195.242 Z-12.885
X42.993 Y195.328 Z-12.935
X42.921 Y195.418 Z-12.971
X42.847 Y195.511 Z-12.993
X42.772 Y195.605 Z-13.
X42.147 Y196.386 F2400.
G3 X40.741 Y196.542 I-0.781 J-0.625
G2 X34.491 Y194.348 I-6.25 J7.806
G1 X24.491
G2 X14.491 Y204.348 J10.
G1 Y254.348
G2 X24.491 Y264.348 I10.
G1 X34.491
G2 X44.491 Y254.348 J-10.
G1 Y204.348
G2 X40.741 Y196.542 I-10.
G3 X40.585 Y195.136 I0.625 J-0.781
G1 X41.21 Y194.355
X41.286 Y194.261 Z-12.993
X41.36 Y194.168 Z-12.971
X41.432 Y194.078 Z-12.935
X41.501 Y193.992 Z-12.885
X41.565 Y193.912 Z-12.823
X41.625 Y193.838 Z-12.749
X41.678 Y193.771 Z-12.663
X41.725 Y193.713 Z-12.568
X41.764 Y193.664 Z-12.465
X41.795 Y193.625 Z-12.355
X41.817 Y193.597 Z-12.239
X41.831 Y193.58 Z-12.121
X41.835 Y193.575 Z-12.
G0 Z5.
X41.743 Y190.91
G1 Z-10. F800.
Z-12.
X41.738 Y190.905 Z-12.121
X41.724 Y190.889 Z-12.239
X41.699 Y190.862 Z-12.355
X41.666 Y190.826 Z-12.465
X41.623 Y190.78 Z-12.568
X41.573 Y190.725 Z-12.663
X41.515 Y190.662 Z-12.749
X41.451 Y190.592 Z-12.823
X41.381 Y190.516 Z-12.885
X41.306 Y190.435 Z-12.935
X41.228 Y190.351 Z-12.971
X41.148 Y190.263 Z-12.993
X41.066 Y190.175 Z-13.
X40.388 Y189.439 F2400.
G3 X40.447 Y188.026 I0.736 J-0.677
G2 X42.06 Y184.348 I-3.387 J-3.678
G1 Y84.965
Y84.348
G2 X12.06 I-15.
G1 Y184.348
G2 X17.06 Y189.348 I5.
G1 X37.06
G2 X40.447 Y188.026 J-5.
G3 X41.86 Y188.084 I0.677 J0.736
G1 X42.537 Y188.82
X42.619 Y188.908 Z-12.993
X42.699 Y188.996 Z-12.971
X42.777 Y189.081 Z-12.935
X42.852 Y189.162 Z-12.885
X42.922 Y189.238 Z-12.823
X42.986 Y189.308 Z-12.749
X43.044 Y189.37 Z-12.663
X43.095 Y189.425 Z-12.568
X43.137 Y189.471 Z-12.465
X43.17 Y189.508 Z-12.355
X43.195 Y189.534 Z-12.239
X43.21 Y189.55 Z-12.121
X43.215 Y189.555 Z-12.
G0 Z5.
X41.743 Y190.91
G1 Z-11. F800.
Z-13.
X41.738 Y190.905 Z-13.121
X41.724 Y190.889 Z-13.239
X41.699 Y190.862 Z-13.355
X41.666 Y190.826 Z-13.465
X41.623 Y190.78 Z-13.568
X41.573 Y190.725 Z-13.663
X41.515 Y190.662 Z-13.749
X41.451 Y190.592 Z-13.823
X41.381 Y190.516 Z-13.885
X41.306 Y190.435 Z-13.935
X41.228 Y190.351 Z-13.971
X41.148 Y190.263 Z-13.993
X41.066 Y190.175 Z-14.
X40.388 Y189.439 F2400.
G3 X40.447 Y188.026 I0.736 J-0.677
G2 X42.06 Y184.348 I-3.387 J-3.678
G1 Y84.965
Y84.348
G2 X12.06 I-15.
G1 Y184.348
G2 X17.06 Y189.348 I5.
G1 X37.06
G2 X40.447 Y188.026 J-5.
G3 X41.86 Y188.084 I0.677 J0.736
G1 X42.537 Y188.82
X42.619 Y188.908 Z-13.993
X42.699 Y188.996 Z-13.971
X42.777 Y189.081 Z-13.935
X42.852 Y189.162 Z-13.885
X42.922 Y189.238 Z-13.823
X42.986 Y189.308 Z-13.749
X43.044 Y189.37 Z-13.663
X43.095 Y189.425 Z-13.568
X43.137 Y189.471 Z-13.465
X43.17 Y189.508 Z-13.355
X43.195 Y189.534 Z-13.239
X43.21 Y189.55 Z-13.121
X43.215 Y189.555 Z-13.
G0 Z5.
X48.365 Y194.632
G1 Z-10. F800.
Z-12.
X48.37 Y194.637 Z-12.121
X48.386 Y194.652 Z-12.239
X48.412 Y194.677 Z-12.355
X48.447 Y194.711 Z-12.465
X48.493 Y194.754 Z-12.568
X48.546 Y194.806 Z-12.663
X48.608 Y194.865 Z-12.749
X48.677 Y194.931 Z-12.823
X48.751 Y195.002 Z-12.885
X48.831 Y195.079 Z-12.935
X48.914 Y195.158 Z-12.971
X49. Y195.24 Z-12.993
X49.087 Y195.324 Z-13.
X49.809 Y196.016 F2400.
G3 X49.839 Y197.43 I-0.692 J0.722
G2 X47.06 Y204.348 I7.221 J6.918
G1 Y254.348
G2 X57.06 Y264.348 I10.
G1 X67.06
G2 X77.06 Y254.348 J-10.
G1 Y204.348
G2 X67.06 Y194.348 I-10.
G1 X57.06
G2 X49.839 Y197.43 J10.
G3 X48.425 Y197.46 I-0.722 J-0.692
G1 X47.703 Y196.768
X47.616 Y196.685 Z-12.993
X47.53 Y196.602 Z-12.971
X47.447 Y196.523 Z-12.935
X47.368 Y196.446 Z-12.885
X47.293 Y196.375 Z-12.823
X47.224 Y196.309 Z-12.749
X47.163 Y196.25 Z-12.663
X47.109 Y196.199 Z-12.568
X47.064 Y196.155 Z-12.465
X47.028 Y196.121 Z-12.355
X47.002 Y196.096 Z-12.239
X46.986 Y196.081 Z-12.121
X46.981 Y196.076 Z-12.
G0 Z5.
X48.365 Y194.632
G1 Z-11. F800.
Z-13.
X48.37 Y194.637 Z-13.121
X48.386 Y194.652 Z-13.239
X48.412 Y194.677 Z-13.355
X48.447 Y194.711 Z-13.465
X48.493 Y194.754 Z-13.568
X48.546 Y194.806 Z-13.663
X48.608 Y194.865 Z-13.749
X48.677 Y194.931 Z-13.823
X48.751 Y195.002 Z-13.885
X48.831 Y195.079 Z-13.935
X48.914 Y195.158 Z-13.971
X49. Y195.24 Z-13.993
X49.087 Y195.324 Z-14.
X49.809 Y196.016 F2400.
G3 X49.839 Y197.43 I-0.692 J0.722
G2 X47.06 Y204.348 I7.221 J6.918
G1 Y254.348
G2 X57.06 Y264.348 I10.
G1 X67.06
G2 X77.06 Y254.348 J-10.
G1 Y204.348
G2 X67.06 Y194.348 I-10.
G1 X57.06
G2 X49.839 Y197.43 J10.
G3 X48.425 Y197.46 I-0.722 J-0.692
G1 X47.703 Y196.768
X47.616 Y196.685 Z-13.993
X47.53 Y196.602 Z-13.971
X47.447 Y196.523 Z-13.935
X47.368 Y196.446 Z-13.885
X47.293 Y196.375 Z-13.823
X47.224 Y196.309 Z-13.749
X47.163 Y196.25 Z-13.663
X47.109 Y196.199 Z-13.568
X47.064 Y196.155 Z-13.465
X47.028 Y196.121 Z-13.355
X47.002 Y196.096 Z-13.239
X46.986 Y196.081 Z-13.121
X46.981 Y196.076 Z-13.
G0 Z5.
X44.57
G1 Z-11. F800.
Z-13.
X44.565 Y196.081 Z-13.121
X44.549 Y196.096 Z-13.239
X44.523 Y196.121 Z-13.355
X44.487 Y196.155 Z-13.465
X44.442 Y196.199 Z-13.568
X44.388 Y196.25 Z-13.663
X44.327 Y196.309 Z-13.749
X44.258 Y196.375 Z-13.823
X44.183 Y196.446 Z-13.885
X44.104 Y196.523 Z-13.935
X44.021 Y196.602 Z-13.971
X43.935 Y196.685 Z-13.993
X43.848 Y196.768 Z-14.
X43.126 Y197.46 F2400.
G3 X41.712 Y197.43 I-0.692 J-0.722
G2 X34.491 Y194.348 I-7.221 J6.918
G1 X24.491
G2 X14.491 Y204.348 J10.
G1 Y254.348
G2 X24.491 Y264.348 I10.
G1 X34.491
G2 X44.491 Y254.348 J-10.
G1 Y204.348
G2 X41.712 Y197.43 I-10.
G3 X41.742 Y196.016 I0.722 J-0.692
G1 X42.464 Y195.324
X42.551 Y195.24 Z-13.993
X42.637 Y195.158 Z-13.971
X42.72 Y195.079 Z-13.935
X42.8 Y195.002 Z-13.885
X42.874 Y194.931 Z-13.823
X42.943 Y194.865 Z-13.749
X43.005 Y194.806 Z-13.663
X43.058 Y194.754 Z-13.568
X43.103 Y194.711 Z-13.465
X43.139 Y194.677 Z-13.355
X43.165 Y194.652 Z-13.239
X43.181 Y194.637 Z-13.121
X43.186 Y194.632 Z-13.
G0 Z5.
X43.397 Y194.825
G1 Z-12. F800.
Z-14.
X43.392 Y194.83 Z-14.121
X43.378 Y194.847 Z-14.239
X43.356 Y194.875 Z-14.355
X43.325 Y194.914 Z-14.465
X43.286 Y194.963 Z-14.568
X43.239 Y195.021 Z-14.663
X43.186 Y195.088 Z-14.749
X43.127 Y195.162 Z-14.823
X43.062 Y195.242 Z-14.885
X42.993 Y195.328 Z-14.935
X42.921 Y195.418 Z-14.971
X42.847 Y195.511 Z-14.993
X42.772 Y195.605 Z-15.
X42.147 Y196.386 F2400.
G3 X40.741 Y196.542 I-0.781 J-0.625
G2 X34.491 Y194.348 I-6.25 J7.806
G1 X24.491
G2 X14.491 Y204.348 J10.
G1 Y254.348
G2 X24.491 Y264.348 I10.
G1 X34.491
G2 X44.491 Y254.348 J-10.
G1 Y204.348
G2 X40.741 Y196.542 I-10.
G3 X40.585 Y195.136 I0.625 J-0.781
G1 X41.21 Y194.355
X41.286 Y194.261 Z-14.993
X41.36 Y194.168 Z-14.971
X41.432 Y194.078 Z-14.935
X41.501 Y193.992 Z-14.885
X41.565 Y193.912 Z-14.823
X41.625 Y193.838 Z-14.749
X41.678 Y193.771 Z-14.663
X41.725 Y193.713 Z-14.568
X41.764 Y193.664 Z-14.465
X41.795 Y193.625 Z-14.355
X41.817 Y193.597 Z-14.239
X41.831 Y193.58 Z-14.121
X41.835 Y193.575 Z-14.
G0 Z5.
X46.523 Y190.825
G1 Z-11. F800.
Z-13.
X46.527 Y190.82 Z-13.121
X46.54 Y190.802 Z-13.239
X46.561 Y190.773 Z-13.355
X46.591 Y190.733 Z-13.465
X46.628 Y190.683 Z-13.568
X46.672 Y190.623 Z-13.663
X46.722 Y190.554 Z-13.749
X46.778 Y190.477 Z-13.823
X46.839 Y190.394 Z-13.885
X46.904 Y190.305 Z-13.935
X46.973 Y190.212 Z-13.971
X47.043 Y190.116 Z-13.993
X47.114 Y190.019 Z-14.
X47.705 Y189.212 F2400.
G3 X49.103 Y188.997 I0.806 J0.591
G2 X52.06 Y189.965 I2.956 J-4.032
G1 X72.06
G2 X77.06 Y184.965 J-5.
G1 Y84.965
G2 X47.06 I-15.
G1 Y184.965
G2 X49.103 Y188.997 I5.
G3 X49.318 Y190.395 I-0.591 J0.806
G1 X48.727 Y191.202
X48.656 Y191.299 Z-13.993
X48.586 Y191.395 Z-13.971
X48.517 Y191.487 Z-13.935
X48.452 Y191.576 Z-13.885
X48.391 Y191.66 Z-13.823
X48.335 Y191.736 Z-13.749
X48.284 Y191.805 Z-13.663
X48.24 Y191.865 Z-13.568
X48.203 Y191.916 Z-13.465
X48.174 Y191.956 Z-13.355
X48.153 Y191.985 Z-13.239
X48.14 Y192.002 Z-13.121
X48.136 Y192.008 Z-13.
G0 Z5.
X46.523 Y190.825
G1 Z-12. F800.
Z-14.
X46.527 Y190.82 Z-14.121
X46.54 Y190.802 Z-14.239
X46.561 Y190.773 Z-14.355
X46.591 Y190.733 Z-14.465
X46.628 Y190.683 Z-14.568
X46.672 Y190.623 Z-14.663
X46.722 Y190.554 Z-14.749
X46.778 Y190.477 Z-14.823
X46.839 Y190.394 Z-14.885
X46.904 Y190.305 Z-14.935
X46.973 Y190.212 Z-14.971
X47.043 Y190.116 Z-14.993
X47.114 Y190.019 Z-15.
X47.705 Y189.212 F2400.
G3 X49.103 Y188.997 I0.806 J0.591
G2 X52.06 Y189.965 I2.956 J-4.032
G1 X72.06
G2 X77.06 Y184.965 J-5.
G1 Y84.965
G2 X47.06 I-15.
G1 Y184.965
G2 X49.103 Y188.997 I5.
G3 X49.318 Y190.395 I-0.591 J0.806
G1 X48.727 Y191.202
X48.656 Y191.299 Z-14.993
X48.586 Y191.395 Z-14.971
X48.517 Y191.487 Z-14.935
X48.452 Y191.576 Z-14.885
X48.391 Y191.66 Z-14.823
X48.335 Y191.736 Z-14.749
X48.284 Y191.805 Z-14.663
X48.24 Y191.865 Z-14.568
X48.203 Y191.916 Z-14.465
X48.174 Y191.956 Z-14.355
X48.153 Y191.985 Z-14.239
X48.14 Y192.002 Z-14.121
X48.136 Y192.008 Z-14.
G0 Z5.
X48.365 Y194.632
G1 Z-12. F800.
Z-14.
X48.37 Y194.637 Z-14.121
X48.386 Y194.652 Z-14.239
X48.412 Y194.677 Z-14.355
X48.447 Y194.711 Z-14.465
X48.493 Y194.754 Z-14.568
X48.546 Y194.806 Z-14.663
X48.608 Y194.865 Z-14.749
X48.677 Y194.931 Z-14.823
X48.751 Y195.002 Z-14.885
X48.831 Y195.079 Z-14.935
X48.914 Y195.158 Z-14.971
X49. Y195.24 Z-14.993
X49.087 Y195.324 Z-15.
X49.809 Y196.016 F2400.
G3 X49.839 Y197.43 I-0.692 J0.722
G2 X47.06 Y204.348 I7.221 J6.918
G1 Y254.348
G2 X57.06 Y264.348 I10.
G1 X67.06
G2 X77.06 Y254.348 J-10.
G1 Y204.348
G2 X67.06 Y194.348 I-10.
G1 X57.06
G2 X49.839 Y197.43 J10.
G3 X48.425 Y197.46 I-0.722 J-0.692
G1 X47.703 Y196.768
X47.616 Y196.685 Z-14.993
X47.53 Y196.602 Z-14.971
X47.447 Y196.523 Z-14.935
X47.368 Y196.446 Z-14.885
X47.293 Y196.375 Z-14.823
X47.224 Y196.309 Z-14.749
X47.163 Y196.25 Z-14.663
X47.109 Y196.199 Z-14.568
X47.064 Y196.155 Z-14.465
X47.028 Y196.121 Z-14.355
X47.002 Y196.096 Z-14.239
X46.986 Y196.081 Z-14.121
X46.981 Y196.076 Z-14.
G0 Z5.
X48.365 Y194.632
G1 Z-13. F800.
Z-15.
X48.37 Y194.637 Z-15.121
X48.386 Y194.652 Z-15.239
X48.412 Y194.677 Z-15.355
X48.447 Y194.711 Z-15.465
X48.493 Y194.754 Z-15.568
X48.546 Y194.806 Z-15.663
X48.608 Y194.865 Z-15.749
X48.677 Y194.931 Z-15.823
X48.751 Y195.002 Z-15.885
X48.831 Y195.079 Z-15.935
X48.914 Y195.158 Z-15.971
X49. Y195.24 Z-15.993
X49.087 Y195.324 Z-16.
X49.809 Y196.016 F2400.
G3 X49.839 Y197.43 I-0.692 J0.722
G2 X47.06 Y204.348 I7.221 J6.918
G1 Y254.348
G2 X57.06 Y264.348 I10.
G1 X67.06
G2 X77.06 Y254.348 J-10.
G1 Y204.348
G2 X67.06 Y194.348 I-10.
G1 X57.06
G2 X49.839 Y197.43 J10.
G3 X48.425 Y197.46 I-0.722 J-0.692
G1 X47.703 Y196.768
X47.616 Y196.685 Z-15.993
X47.53 Y196.602 Z-15.971
X47.447 Y196.523 Z-15.935
X47.368 Y196.446 Z-15.885
X47.293 Y196.375 Z-15.823
X47.224 Y196.309 Z-15.749
X47.163 Y196.25 Z-15.663
X47.109 Y196.199 Z-15.568
X47.064 Y196.155 Z-15.465
X47.028 Y196.121 Z-15.355
X47.002 Y196.096 Z-15.239
X46.986 Y196.081 Z-15.121
X46.981 Y196.076 Z-15.
G0 Z5.
X41.743 Y190.91
G1 Z-12. F800.
Z-14.
X41.738 Y190.905 Z-14.121
X41.724 Y190.889 Z-14.239
X41.699 Y190.862 Z-14.355
X41.666 Y190.826 Z-14.465
X41.623 Y190.78 Z-14.568
X41.573 Y190.725 Z-14.663
X41.515 Y190.662 Z-14.749
X41.451 Y190.592 Z-14.823
X41.381 Y190.516 Z-14.885
X41.306 Y190.435 Z-14.935
X41.228 Y190.351 Z-14.971
X41.148 Y190.263 Z-14.993
X41.066 Y190.175 Z-15.
X40.388 Y189.439 F2400.
G3 X40.447 Y188.026 I0.736 J-0.677
G2 X42.06 Y184.348 I-3.387 J-3.678
G1 Y84.965
Y84.348
G2 X12.06 I-15.
G1 Y184.348
G2 X17.06 Y189.348 I5.
G1 X37.06
G2 X40.447 Y188.026 J-5.
G3 X41.86 Y188.084 I0.677 J0.736
G1 X42.537 Y188.82
X42.619 Y188.908 Z-14.993
X42.699 Y188.996 Z-14.971
X42.777 Y189.081 Z-14.935
X42.852 Y189.162 Z-14.885
X42.922 Y189.238 Z-14.823
X42.986 Y189.308 Z-14.749
X43.044 Y189.37 Z-14.663
X43.095 Y189.425 Z-14.568
X43.137 Y189.471 Z-14.465
X43.17 Y189.508 Z-14.355
X43.195 Y189.534 Z-14.239
X43.21 Y189.55 Z-14.121
X43.215 Y189.555 Z-14.
G0 Z5.
X41.743 Y190.91
G1 Z-13. F800.
Z-15.
X41.738 Y190.905 Z-15.121
X41.724 Y190.889 Z-15.239
X41.699 Y190.862 Z-15.355
X41.666 Y190.826 Z-15.465
X41.623 Y190.78 Z-15.568
X41.573 Y190.725 Z-15.663
X41.515 Y190.662 Z-15.749
X41.451 Y190.592 Z-15.823
X41.381 Y190.516 Z-15.885
X41.306 Y190.435 Z-15.935
X41.228 Y190.351 Z-15.971
X41.148 Y190.263 Z-15.993
X41.066 Y190.175 Z-16.
X40.388 Y189.439 F2400.
G3 X40.447 Y188.026 I0.736 J-0.677
G2 X42.06 Y184.348 I-3.387 J-3.678
G1 Y84.965
Y84.348
G2 X12.06 I-15.
G1 Y184.348
G2 X17.06 Y189.348 I5.
G1 X37.06
G2 X40.447 Y188.026 J-5.
G3 X41.86 Y188.084 I0.677 J0.736
G1 X42.537 Y188.82
X42.619 Y188.908 Z-15.993
X42.699 Y188.996 Z-15.971
X42.777 Y189.081 Z-15.935
X42.852 Y189.162 Z-15.885
X42.922 Y189.238 Z-15.823
X42.986 Y189.308 Z-15.749
X43.044 Y189.37 Z-15.663
X43.095 Y189.425 Z-15.568
X43.137 Y189.471 Z-15.465
X43.17 Y189.508 Z-15.355
X43.195 Y189.534 Z-15.239
X43.21 Y189.55 Z-15.121
X43.215 Y189.555 Z-15.
G0 Z5.
X46.523 Y190.825
G1 Z-13. F800.
Z-15.
X46.527 Y190.82 Z-15.121
X46.54 Y190.802 Z-15.239
X46.561 Y190.773 Z-15.355
X46.591 Y190.733 Z-15.465
X46.628 Y190.683 Z-15.568
X46.672 Y190.623 Z-15.663
X46.722 Y190.554 Z-15.749
X46.778 Y190.477 Z-15.823
X46.839 Y190.394 Z-15.885
X46.904 Y190.305 Z-15.935
X46.973 Y190.212 Z-15.971
X47.043 Y190.116 Z-15.993
X47.114 Y190.019 Z-16.
X47.705 Y189.212 F2400.
G3 X49.103 Y188.997 I0.806 J0.591
G2 X52.06 Y189.965 I2.956 J-4.032
G1 X72.06
G2 X77.06 Y184.965 J-5.
G1 Y84.965
G2 X47.06 I-15.
G1 Y184.965
G2 X49.103 Y188.997 I5.
G3 X49.318 Y190.395 I-0.591 J0.806
G1 X48.727 Y191.202
X48.656 Y191.299 Z-15.993
X48.586 Y191.395 Z-15.971
X48.517 Y191.487 Z-15.935
X48.452 Y191.576 Z-15.885
X48.391 Y191.66 Z-15.823
X48.335 Y191.736 Z-15.749
X48.284 Y191.805 Z-15.663
X48.24 Y191.865 Z-15.568
X48.203 Y191.916 Z-15.465
X48.174 Y191.956 Z-15.355
X48.153 Y191.985 Z-15.239
X48.14 Y192.002 Z-15.121
X48.136 Y192.008 Z-15.
G0 Z5.
X46.523 Y190.825
G1 Z-14. F800.
Z-16.
X46.527 Y190.82 Z-16.121
X46.54 Y190.802 Z-16.239
X46.561 Y190.773 Z-16.355
X46.591 Y190.733 Z-16.465
X46.628 Y190.683 Z-16.568
X46.672 Y190.623 Z-16.663
X46.722 Y190.554 Z-16.749
X46.778 Y190.477 Z-16.823
X46.839 Y190.394 Z-16.885
X46.904 Y190.305 Z-16.935
X46.973 Y190.212 Z-16.971
X47.043 Y190.116 Z-16.993
X47.114 Y190.019 Z-17.
X47.705 Y189.212 F2400.
G3 X49.103 Y188.997 I0.806 J0.591
G2 X52.06 Y189.965 I2.956 J-4.032
G1 X72.06
G2 X77.06 Y184.965 J-5.
G1 Y84.965
G2 X47.06 I-15.
G1 Y184.965
G2 X49.103 Y188.997 I5.
G3 X49.318 Y190.395 I-0.591 J0.806
G1 X48.727 Y191.202
X48.656 Y191.299 Z-16.993
X48.586 Y191.395 Z-16.971
X48.517 Y191.487 Z-16.935
X48.452 Y191.576 Z-16.885
X48.391 Y191.66 Z-16.823
X48.335 Y191.736 Z-16.749
X48.284 Y191.805 Z-16.663
X48.24 Y191.865 Z-16.568
X48.203 Y191.916 Z-16.465
X48.174 Y191.956 Z-16.355
X48.153 Y191.985 Z-16.239
X48.14 Y192.002 Z-16.121
X48.136 Y192.008 Z-16.
G0 Z5.
X44.57 Y196.076
G1 Z-13. F800.
Z-15.
X44.565 Y196.081 Z-15.121
X44.549 Y196.096 Z-15.239
X44.523 Y196.121 Z-15.355
X44.487 Y196.155 Z-15.465
X44.442 Y196.199 Z-15.568
X44.388 Y196.25 Z-15.663
X44.327 Y196.309 Z-15.749
X44.258 Y196.375 Z-15.823
X44.183 Y196.446 Z-15.885
X44.104 Y196.523 Z-15.935
X44.021 Y196.602 Z-15.971
X43.935 Y196.685 Z-15.993
X43.848 Y196.768 Z-16.
X43.126 Y197.46 F2400.
G3 X41.712 Y197.43 I-0.692 J-0.722
G2 X34.491 Y194.348 I-7.221 J6.918
G1 X24.491
G2 X14.491 Y204.348 J10.
G1 Y254.348
G2 X24.491 Y264.348 I10.
G1 X34.491
G2 X44.491 Y254.348 J-10.
G1 Y204.348
G2 X41.712 Y197.43 I-10.
G3 X41.742 Y196.016 I0.722 J-0.692
G1 X42.464 Y195.324
X42.551 Y195.24 Z-15.993
X42.637 Y195.158 Z-15.971
X42.72 Y195.079 Z-15.935
X42.8 Y195.002 Z-15.885
X42.874 Y194.931 Z-15.823
X42.943 Y194.865 Z-15.749
X43.005 Y194.806 Z-15.663
X43.058 Y194.754 Z-15.568
X43.103 Y194.711 Z-15.465
X43.139 Y194.677 Z-15.355
X43.165 Y194.652 Z-15.239
X43.181 Y194.637 Z-15.121
X43.186 Y194.632 Z-15.
G0 Z5.
X43.397 Y194.825
G1 Z-14. F800.
Z-16.
X43.392 Y194.83 Z-16.121
X43.378 Y194.847 Z-16.239
X43.356 Y194.875 Z-16.355
X43.325 Y194.914 Z-16.465
X43.286 Y194.963 Z-16.568
X43.239 Y195.021 Z-16.663
X43.186 Y195.088 Z-16.749
X43.127 Y195.162 Z-16.823
X43.062 Y195.242 Z-16.885
X42.993 Y195.328 Z-16.935
X42.921 Y195.418 Z-16.971
X42.847 Y195.511 Z-16.993
X42.772 Y195.605 Z-17.
X42.147 Y196.386 F2400.
G3 X40.741 Y196.542 I-0.781 J-0.625
G2 X34.491 Y194.348 I-6.25 J7.806
G1 X24.491
G2 X14.491 Y204.348 J10.
G1 Y254.348
G2 X24.491 Y264.348 I10.
G1 X34.491
G2 X44.491 Y254.348 J-10.
G1 Y204.348
G2 X40.741 Y196.542 I-10.
G3 X40.585 Y195.136 I0.625 J-0.781
G1 X41.21 Y194.355
X41.286 Y194.261 Z-16.993
X41.36 Y194.168 Z-16.971
X41.432 Y194.078 Z-16.935
X41.501 Y193.992 Z-16.885
X41.565 Y193.912 Z-16.823
X41.625 Y193.838 Z-16.749
X41.678 Y193.771 Z-16.663
X41.725 Y193.713 Z-16.568
X41.764 Y193.664 Z-16.465
X41.795 Y193.625 Z-16.355
X41.817 Y193.597 Z-16.239
X41.831 Y193.58 Z-16.121
X41.835 Y193.575 Z-16.
G0 Z5.
X41.743 Y190.91
G1 Z-14. F800.
Z-16.
X41.738 Y190.905 Z-16.121
X41.724 Y190.889 Z-16.239
X41.699 Y190.862 Z-16.355
X41.666 Y190.826 Z-16.465
X41.623 Y190.78 Z-16.568
X41.573 Y190.725 Z-16.663
X41.515 Y190.662 Z-16.749
