%
O00001001
(T1  D=8. CR=0. - ZMIN=-24. - FLAT END MILL)
G90 G94 G17
G21
G91
G28 Z0.
G90
(BORE1)
T1 M6
S12000 M3
G54
G0 X28.791 Y208.848
G43 Z15. H1
G0 Z-1.
G1 Z-2.2 F2400.
G18 G2 X29.591 Z-3. I0.8
G1 X29.991
G17 G3 X30.491 Y209.348 J0.5
X28.491 Z-3.25 I-1.
X30.491 Z-3.5 I1.
X28.491 Z-3.75 I-1.
X30.491 Z-4. I1.
X28.491 Z-4.25 I-1.
X30.491 Z-4.5 I1.
X28.491 Z-4.75 I-1.
X30.491 Z-5. I1.
X28.491 Z-5.25 I-1.
X30.491 Z-5.5 I1.
X28.491 Z-5.75 I-1.
X30.491 Z-6. I1.
X28.491 Z-6.25 I-1.
X30.491 Z-6.5 I1.
X28.491 Z-6.75 I-1.
X30.491 Z-7. I1.
X28.491 Z-7.25 I-1.
X30.491 Z-7.5 I1.
X28.491 Z-7.75 I-1.
X30.491 Z-8. I1.
X28.491 Z-8.25 I-1.
X30.491 Z-8.5 I1.
X28.491 Z-8.75 I-1.
X30.491 Z-9. I1.
X28.491 Z-9.25 I-1.
X30.491 Z-9.5 I1.
X28.491 Z-9.75 I-1.
X30.491 Z-10. I1.
X28.491 Z-10.25 I-1.
X30.491 Z-10.5 I1.
X28.491 Z-10.75 I-1.
X30.491 Z-11. I1.
X28.491 Z-11.25 I-1.
X30.491 Z-11.5 I1.
X28.491 Z-11.75 I-1.
X30.491 Z-12. I1.
X28.491 Z-12.25 I-1.
X30.491 Z-12.5 I1.
X28.491 Z-12.75 I-1.
X30.491 Z-13. I1.
X28.491 Z-13.25 I-1.
X30.491 Z-13.5 I1.
X28.491 Z-13.75 I-1.
X30.491 Z-14. I1.
X28.491 Z-14.25 I-1.
X30.491 Z-14.5 I1.
X28.491 Z-14.75 I-1.
X30.491 Z-15. I1.
X28.491 Z-15.25 I-1.
X30.491 Z-15.5 I1.
X28.491 Z-15.75 I-1.
X30.491 Z-16. I1.
X28.491 Z-16.25 I-1.
X30.491 Z-16.5 I1.
X28.491 Z-16.75 I-1.
X30.491 Z-17. I1.
X28.491 Z-17.25 I-1.
X30.491 Z-17.5 I1.
X28.491 Z-17.75 I-1.
X30.491 Z-18. I1.
X28.491 Z-18.25 I-1.
X30.491 Z-18.5 I1.
X28.491 Z-18.75 I-1.
X30.491 Z-19. I1.
X28.491 Z-19.25 I-1.
X30.491 Z-19.5 I1.
X28.491 Z-19.75 I-1.
X30.491 Z-20. I1.
X28.491 Z-20.25 I-1.
X30.491 Z-20.5 I1.
X28.491 Z-20.75 I-1.
X30.491 Z-21. I1.
X28.491 Z-21.25 I-1.
X30.491 Z-21.5 I1.
X28.491 Z-21.75 I-1.
X30.491 Z-22. I1.
X28.491 Z-22.25 I-1.
X30.491 Z-22.5 I1.
X28.491 Z-22.75 I-1.
X30.491 Z-23. I1.
X28.491 Z-23.25 I-1.
X30.491 Z-23.5 I1.
X28.491 Z-23.75 I-1.
X30.491 Z-24. I1.
X28.491 I-1.
X30.491 I1.
X29.991 Y209.848 I-0.5
G1 X29.591
G18 G3 X28.791 Z-23.2 K0.8
G0 Z5.
X61.36 Y208.848
Z-1.
G1 Z-2.2 F2400.
G2 X62.16 Z-3. I0.8
G1 X62.56
G17 G3 X63.06 Y209.348 J0.5
X61.06 Z-3.25 I-1.
X63.06 Z-3.5 I1.
X61.06 Z-3.75 I-1.
X63.06 Z-4. I1.
X61.06 Z-4.25 I-1.
X63.06 Z-4.5 I1.
X61.06 Z-4.75 I-1.
X63.06 Z-5. I1.
X61.06 Z-5.25 I-1.
X63.06 Z-5.5 I1.
X61.06 Z-5.75 I-1.
X63.06 Z-6. I1.
X61.06 Z-6.25 I-1.
X63.06 Z-6.5 I1.
X61.06 Z-6.75 I-1.
X63.06 Z-7. I1.
X61.06 Z-7.25 I-1.
X63.06 Z-7.5 I1.
X61.06 Z-7.75 I-1.
X63.06 Z-8. I1.
X61.06 Z-8.25 I-1.
X63.06 Z-8.5 I1.
X61.06 Z-8.75 I-1.
X63.06 Z-9. I1.
X61.06 Z-9.25 I-1.
X63.06 Z-9.5 I1.
X61.06 Z-9.75 I-1.
X63.06 Z-10. I1.
X61.06 Z-10.25 I-1.
X63.06 Z-10.5 I1.
X61.06 Z-10.75 I-1.
X63.06 Z-11. I1.
X61.06 Z-11.25 I-1.
X63.06 Z-11.5 I1.
X61.06 Z-11.75 I-1.
X63.06 Z-12. I1.
X61.06 Z-12.25 I-1.
X63.06 Z-12.5 I1.
X61.06 Z-12.75 I-1.
X63.06 Z-13. I1.
X61.06 Z-13.25 I-1.
X63.06 Z-13.5 I1.
X61.06 Z-13.75 I-1.
X63.06 Z-14. I1.
X61.06 Z-14.25 I-1.
X63.06 Z-14.5 I1.
X61.06 Z-14.75 I-1.
X63.06 Z-15. I1.
X61.06 Z-15.25 I-1.
X63.06 Z-15.5 I1.
X61.06 Z-15.75 I-1.
X63.06 Z-16. I1.
X61.06 Z-16.25 I-1.
X63.06 Z-16.5 I1.
X61.06 Z-16.75 I-1.
X63.06 Z-17. I1.
X61.06 Z-17.25 I-1.
X63.06 Z-17.5 I1.
X61.06 Z-17.75 I-1.
X63.06 Z-18. I1.
X61.06 Z-18.25 I-1.
X63.06 Z-18.5 I1.
X61.06 Z-18.75 I-1.
X63.06 Z-19. I1.
X61.06 Z-19.25 I-1.
X63.06 Z-19.5 I1.
X61.06 Z-19.75 I-1.
X63.06 Z-20. I1.
X61.06 Z-20.25 I-1.
X63.06 Z-20.5 I1.
X61.06 Z-20.75 I-1.
X63.06 Z-21. I1.
X61.06 Z-21.25 I-1.
X63.06 Z-21.5 I1.
X61.06 Z-21.75 I-1.
X63.06 Z-22. I1.
X61.06 Z-22.25 I-1.
X63.06 Z-22.5 I1.
X61.06 Z-22.75 I-1.
X63.06 Z-23. I1.
X61.06 Z-23.25 I-1.
X63.06 Z-23.5 I1.
X61.06 Z-23.75 I-1.
X63.06 Z-24. I1.
X61.06 I-1.
X63.06 I1.
X62.56 Y209.848 I-0.5
G1 X62.16
G18 G3 X61.36 Z-23.2 K0.8
G0 Z5.
X89.7 Y53.461
Z-1.
G1 Z-2.2 F2400.
G3 X88.9 Z-3. I-0.8
G1 X88.5
G17 G3 X88. Y52.961 J-0.5
X90. Z-3.25 I1.
X88. Z-3.5 I-1.
X90. Z-3.75 I1.
X88. Z-4. I-1.
X90. Z-4.25 I1.
X88. Z-4.5 I-1.
X90. Z-4.75 I1.
X88. Z-5. I-1.
X90. Z-5.25 I1.
X88. Z-5.5 I-1.
X90. Z-5.75 I1.
X88. Z-6. I-1.
X90. Z-6.25 I1.
X88. Z-6.5 I-1.
X90. Z-6.75 I1.
X88. Z-7. I-1.
X90. Z-7.25 I1.
X88. Z-7.5 I-1.
X90. Z-7.75 I1.
X88. Z-8. I-1.
X90. Z-8.25 I1.
X88. Z-8.5 I-1.
X90. Z-8.75 I1.
X88. Z-9. I-1.
X90. Z-9.25 I1.
X88. Z-9.5 I-1.
X90. Z-9.75 I1.
X88. Z-10. I-1.
X90. Z-10.25 I1.
X88. Z-10.5 I-1.
X90. Z-10.75 I1.
X88. Z-11. I-1.
X90. Z-11.25 I1.
X88. Z-11.5 I-1.
X90. Z-11.75 I1.
X88. Z-12. I-1.
X90. Z-12.25 I1.
X88. Z-12.5 I-1.
X90. Z-12.75 I1.
X88. Z-13. I-1.
X90. Z-13.25 I1.
X88. Z-13.5 I-1.
X90. Z-13.75 I1.
X88. Z-14. I-1.
X90. Z-14.25 I1.
X88. Z-14.5 I-1.
X90. Z-14.75 I1.
X88. Z-15. I-1.
X90. Z-15.25 I1.
X88. Z-15.5 I-1.
X90. Z-15.75 I1.
X88. Z-16. I-1.
X90. Z-16.25 I1.
X88. Z-16.5 I-1.
X90. Z-16.75 I1.
X88. Z-17. I-1.
X90. Z-17.25 I1.
X88. Z-17.5 I-1.
X90. Z-17.75 I1.
X88. Z-18. I-1.
X90. Z-18.25 I1.
X88. Z-18.5 I-1.
X90. Z-18.75 I1.
X88. Z-19. I-1.
X90. I1.
X88. I-1.
X88.5 Y52.461 I0.5
G1 X88.9
G18 G2 X89.7 Z-18.2 K0.8
G0 Z5.
X20.304 Y14.5
Z-1.
G1 Z-2.2 F2400.
G2 X21.104 Z-3. I0.8
G1 X21.504
G17 G3 X22.004 Y15. J0.5
X20.004 Z-3.25 I-1.
X22.004 Z-3.5 I1.
X20.004 Z-3.75 I-1.
X22.004 Z-4. I1.
X20.004 Z-4.25 I-1.
X22.004 Z-4.5 I1.
X20.004 Z-4.75 I-1.
X22.004 Z-5. I1.
X20.004 Z-5.25 I-1.
X22.004 Z-5.5 I1.
X20.004 Z-5.75 I-1.
X22.004 Z-6. I1.
X20.004 Z-6.25 I-1.
X22.004 Z-6.5 I1.
X20.004 Z-6.75 I-1.
X22.004 Z-7. I1.
X20.004 Z-7.25 I-1.
X22.004 Z-7.5 I1.
X20.004 Z-7.75 I-1.
X22.004 Z-8. I1.
X20.004 Z-8.25 I-1.
X22.004 Z-8.5 I1.
X20.004 Z-8.75 I-1.
X22.004 Z-9. I1.
X20.004 Z-9.25 I-1.
X22.004 Z-9.5 I1.
X20.004 Z-9.75 I-1.
X22.004 Z-10. I1.
X20.004 Z-10.25 I-1.
X22.004 Z-10.5 I1.
X20.004 Z-10.75 I-1.
X22.004 Z-11. I1.
X20.004 Z-11.25 I-1.
X22.004 Z-11.5 I1.
X20.004 Z-11.75 I-1.
X22.004 Z-12. I1.
X20.004 Z-12.25 I-1.
X22.004 Z-12.5 I1.
X20.004 Z-12.75 I-1.
X22.004 Z-13. I1.
X20.004 Z-13.25 I-1.
X22.004 Z-13.5 I1.
X20.004 Z-13.75 I-1.
X22.004 Z-14. I1.
X20.004 Z-14.25 I-1.
X22.004 Z-14.5 I1.
X20.004 Z-14.75 I-1.
X22.004 Z-15. I1.
X20.004 Z-15.25 I-1.
X22.004 Z-15.5 I1.
X20.004 Z-15.75 I-1.
X22.004 Z-16. I1.
X20.004 Z-16.25 I-1.
X22.004 Z-16.5 I1.
X20.004 Z-16.75 I-1.
X22.004 Z-17. I1.
X20.004 Z-17.25 I-1.
X22.004 Z-17.5 I1.
X20.004 Z-17.75 I-1.
X22.004 Z-18. I1.
X20.004 Z-18.25 I-1.
X22.004 Z-18.5 I1.
X20.004 Z-18.75 I-1.
X22.004 Z-19. I1.
X20.004 I-1.
X22.004 I1.
X21.504 Y15.5 I-0.5
G1 X21.104
G18 G3 X20.304 Z-18.2 K0.8
G0 Z15.
G17
G91
G28 Z0.
G90
M5
G91
G28 X0. Y0.
G90
M30
%
