%
O00001001
(T1  D=2.5 CR=0. TAPER=118DEG - ZMIN=-9. - DRILL)
G90 G94 G17
G21
G91
G28 Z0.
G90
(DRILL2)
T1 M6
S10000 M3
G54
G0 X249. Y11.
G43 Z15. H1
G0 Z5.
Z2.
G1 Z-2. F625.
G0 Z-1.9
G1 Z-4. F625.
G0 Z-3.9
G1 Z-6. F625.
G0 Z-5.9
G1 Z-8. F625.
G0 Z-7.9
G1 Z-9. F625.
G0 Z5.
X229.
Z2.
G1 Z-2. F625.
G0 Z-1.9
G1 Z-4. F625.
G0 Z-3.9
G1 Z-6. F625.
G0 Z-5.9
G1 Z-8. F625.
G0 Z-7.9
G1 Z-9. F625.
G0 Z5.
Y31.
Z2.
G1 Z-2. F625.
G0 Z-1.9
G1 Z-4. F625.
G0 Z-3.9
G1 Z-6. F625.
G0 Z-5.9
G1 Z-8. F625.
G0 Z-7.9
G1 Z-9. F625.
G0 Z5.
Y40.5
Z2.
G1 Z-2. F625.
G0 Z-1.9
G1 Z-4. F625.
G0 Z-3.9
G1 Z-6. F625.
G0 Z-5.9
G1 Z-8. F625.
G0 Z-7.9
G1 Z-9. F625.
G0 Z5.
X249.
Z2.
G1 Z-2. F625.
G0 Z-1.9
G1 Z-4. F625.
G0 Z-3.9
G1 Z-6. F625.
G0 Z-5.9
G1 Z-8. F625.
G0 Z-7.9
G1 Z-9. F625.
G0 Z5.
Y31.
Z2.
G1 Z-2. F625.
G0 Z-1.9
G1 Z-4. F625.
G0 Z-3.9
G1 Z-6. F625.
G0 Z-5.9
G1 Z-8. F625.
G0 Z-7.9
G1 Z-9. F625.
G0 Z5.
Y60.5
Z2.
G1 Z-2. F625.
G0 Z-1.9
G1 Z-4. F625.
G0 Z-3.9
G1 Z-6. F625.
G0 Z-5.9
G1 Z-8. F625.
G0 Z-7.9
G1 Z-9. F625.
G0 Z5.
Y71.
Z2.
G1 Z-2. F625.
G0 Z-1.9
G1 Z-4. F625.
G0 Z-3.9
G1 Z-6. F625.
G0 Z-5.9
G1 Z-8. F625.
G0 Z-7.9
G1 Z-9. F625.
G0 Z5.
X229.
Z2.
G1 Z-2. F625.
G0 Z-1.9
G1 Z-4. F625.
G0 Z-3.9
G1 Z-6. F625.
G0 Z-5.9
G1 Z-8. F625.
G0 Z-7.9
G1 Z-9. F625.
G0 Z5.
Y60.5
Z2.
G1 Z-2. F625.
G0 Z-1.9
G1 Z-4. F625.
G0 Z-3.9
G1 Z-6. F625.
G0 Z-5.9
G1 Z-8. F625.
G0 Z-7.9
G1 Z-9. F625.
G0 Z5.
X199.
Z2.
G1 Z-2. F625.
G0 Z-1.9
G1 Z-4. F625.
G0 Z-3.9
G1 Z-6. F625.
G0 Z-5.9
G1 Z-8. F625.
G0 Z-7.9
G1 Z-9. F625.
G0 Z5.
Y71.
Z2.
G1 Z-2. F625.
G0 Z-1.9
G1 Z-4. F625.
G0 Z-3.9
G1 Z-6. F625.
G0 Z-5.9
G1 Z-8. F625.
G0 Z-7.9
G1 Z-9. F625.
G0 Z5.
X179.
Z2.
G1 Z-2. F625.
G0 Z-1.9
G1 Z-4. F625.
G0 Z-3.9
G1 Z-6. F625.
G0 Z-5.9
G1 Z-8. F625.
G0 Z-7.9
G1 Z-9. F625.
G0 Z5.
Y60.5
Z2.
G1 Z-2. F625.
G0 Z-1.9
G1 Z-4. F625.
G0 Z-3.9
G1 Z-6. F625.
G0 Z-5.9
G1 Z-8. F625.
G0 Z-7.9
G1 Z-9. F625.
G0 Z5.
Y31.
Z2.
G1 Z-2. F625.
G0 Z-1.9
G1 Z-4. F625.
G0 Z-3.9
G1 Z-6. F625.
G0 Z-5.9
G1 Z-8. F625.
G0 Z-7.9
G1 Z-9. F625.
G0 Z5.
Y40.5
Z2.
G1 Z-2. F625.
G0 Z-1.9
G1 Z-4. F625.
G0 Z-3.9
G1 Z-6. F625.
G0 Z-5.9
G1 Z-8. F625.
G0 Z-7.9
G1 Z-9. F625.
G0 Z5.
X199.
Z2.
G1 Z-2. F625.
G0 Z-1.9
G1 Z-4. F625.
G0 Z-3.9
G1 Z-6. F625.
G0 Z-5.9
G1 Z-8. F625.
G0 Z-7.9
G1 Z-9. F625.
G0 Z5.
Y31.
Z2.
G1 Z-2. F625.
G0 Z-1.9
G1 Z-4. F625.
G0 Z-3.9
G1 Z-6. F625.
G0 Z-5.9
G1 Z-8. F625.
G0 Z-7.9
G1 Z-9. F625.
G0 Z5.
Y11.
Z2.
G1 Z-2. F625.
G0 Z-1.9
G1 Z-4. F625.
G0 Z-3.9
G1 Z-6. F625.
G0 Z-5.9
G1 Z-8. F625.
G0 Z-7.9
G1 Z-9. F625.
G0 Z5.
X179.
Z2.
G1 Z-2. F625.
G0 Z-1.9
G1 Z-4. F625.
G0 Z-3.9
G1 Z-6. F625.
G0 Z-5.9
G1 Z-8. F625.
G0 Z-7.9
G1 Z-9. F625.
G0 Z5.
X6. Y23.55
Z2.
G1 Z-2. F625.
G0 Z-1.9
G1 Z-4. F625.
G0 Z-3.9
G1 Z-6. F625.
G0 Z-5.9
G1 Z-8. F625.
G0 Z-7.9
G1 Z-9. F625.
G0 Z5.
X18. Y13.
Z2.
G1 Z-2. F625.
G0 Z-1.9
G1 Z-4. F625.
G0 Z-3.9
G1 Z-6. F625.
G0 Z-5.9
G1 Z-8. F625.
G0 Z-7.9
G1 Z-9. F625.
G0 Z5.
X31. Y23.55
Z2.
G1 Z-2. F625.
G0 Z-1.9
G1 Z-4. F625.
G0 Z-3.9
G1 Z-6. F625.
G0 Z-5.9
G1 Z-8. F625.
G0 Z-7.9
G1 Z-9. F625.
G0 Z5.
X28.2 Y43.5
Z2.
G1 Z-2. F625.
G0 Z-1.9
G1 Z-4. F625.
G0 Z-3.9
G1 Z-6. F625.
G0 Z-5.9
G1 Z-8. F625.
G0 Z-7.9
G1 Z-9. F625.
G0 Z5.
X18. Y38.
Z2.
G1 Z-2. F625.
G0 Z-1.9
G1 Z-4. F625.
G0 Z-3.9
G1 Z-6. F625.
G0 Z-5.9
G1 Z-8. F625.
G0 Z-7.9
G1 Z-9. F625.
G0 Z5.
X8.2 Y43.5
Z2.
G1 Z-2. F625.
G0 Z-1.9
G1 Z-4. F625.
G0 Z-3.9
G1 Z-6. F625.
G0 Z-5.9
G1 Z-8. F625.
G0 Z-7.9
G1 Z-9. F625.
G0 Z5.
Y63.5
Z2.
G1 Z-2. F625.
G0 Z-1.9
G1 Z-4. F625.
G0 Z-3.9
G1 Z-6. F625.
G0 Z-5.9
G1 Z-8. F625.
G0 Z-7.9
G1 Z-9. F625.
G0 Z5.
X18. Y63.
Z2.
G1 Z-2. F625.
G0 Z-1.9
G1 Z-4. F625.
G0 Z-3.9
G1 Z-6. F625.
G0 Z-5.9
G1 Z-8. F625.
G0 Z-7.9
G1 Z-9. F625.
G0 Z5.
X28.2 Y63.5
Z2.
G1 Z-2. F625.
G0 Z-1.9
G1 Z-4. F625.
G0 Z-3.9
G1 Z-6. F625.
G0 Z-5.9
G1 Z-8. F625.
G0 Z-7.9
G1 Z-9. F625.
G0 Z5.
X18. Y88.
Z2.
G1 Z-2. F625.
G0 Z-1.9
G1 Z-4. F625.
G0 Z-3.9
G1 Z-6. F625.
G0 Z-5.9
G1 Z-8. F625.
G0 Z-7.9
G1 Z-9. F625.
G0 Z5.
X6. Y95.65
Z2.
G1 Z-2. F625.
G0 Z-1.9
G1 Z-4. F625.
G0 Z-3.9
G1 Z-6. F625.
G0 Z-5.9
G1 Z-8. F625.
G0 Z-7.9
G1 Z-9. F625.
G0 Z5.
X8.2 Y103.5
Z2.
G1 Z-2. F625.
G0 Z-1.9
G1 Z-4. F625.
G0 Z-3.9
G1 Z-6. F625.
G0 Z-5.9
G1 Z-8. F625.
G0 Z-7.9
G1 Z-9. F625.
G0 Z5.
X18. Y113.
Z2.
G1 Z-2. F625.
G0 Z-1.9
G1 Z-4. F625.
G0 Z-3.9
G1 Z-6. F625.
G0 Z-5.9
G1 Z-8. F625.
G0 Z-7.9
G1 Z-9. F625.
G0 Z5.
X28.2 Y103.5
Z2.
G1 Z-2. F625.
G0 Z-1.9
G1 Z-4. F625.
G0 Z-3.9
G1 Z-6. F625.
G0 Z-5.9
G1 Z-8. F625.
G0 Z-7.9
G1 Z-9. F625.
G0 Z5.
X31. Y95.65
Z2.
G1 Z-2. F625.
G0 Z-1.9
G1 Z-4. F625.
G0 Z-3.9
G1 Z-6. F625.
G0 Z-5.9
G1 Z-8. F625.
G0 Z-7.9
G1 Z-9. F625.
G0 Z5.
X55.
Z2.
G1 Z-2. F625.
G0 Z-1.9
G1 Z-4. F625.
G0 Z-3.9
G1 Z-6. F625.
G0 Z-5.9
G1 Z-8. F625.
G0 Z-7.9
G1 Z-9. F625.
G0 Z5.
X57.8 Y103.5
Z2.
G1 Z-2. F625.
G0 Z-1.9
G1 Z-4. F625.
G0 Z-3.9
G1 Z-6. F625.
G0 Z-5.9
G1 Z-8. F625.
G0 Z-7.9
G1 Z-9. F625.
G0 Z5.
X68. Y113.
Z2.
G1 Z-2. F625.
G0 Z-1.9
G1 Z-4. F625.
G0 Z-3.9
G1 Z-6. F625.
G0 Z-5.9
G1 Z-8. F625.
G0 Z-7.9
G1 Z-9. F625.
G0 Z5.
X77.8 Y103.5
Z2.
G1 Z-2. F625.
G0 Z-1.9
G1 Z-4. F625.
G0 Z-3.9
G1 Z-6. F625.
G0 Z-5.9
G1 Z-8. F625.
G0 Z-7.9
G1 Z-9. F625.
G0 Z5.
X80. Y95.65
Z2.
G1 Z-2. F625.
G0 Z-1.9
G1 Z-4. F625.
G0 Z-3.9
G1 Z-6. F625.
G0 Z-5.9
G1 Z-8. F625.
G0 Z-7.9
G1 Z-9. F625.
G0 Z5.
X68. Y88.
Z2.
G1 Z-2. F625.
G0 Z-1.9
G1 Z-4. F625.
G0 Z-3.9
G1 Z-6. F625.
G0 Z-5.9
G1 Z-8. F625.
G0 Z-7.9
G1 Z-9. F625.
G0 Z5.
X57.8 Y63.5
Z2.
G1 Z-2. F625.
G0 Z-1.9
G1 Z-4. F625.
G0 Z-3.9
G1 Z-6. F625.
G0 Z-5.9
G1 Z-8. F625.
G0 Z-7.9
G1 Z-9. F625.
G0 Z5.
X68. Y63.
Z2.
G1 Z-2. F625.
G0 Z-1.9
G1 Z-4. F625.
G0 Z-3.9
G1 Z-6. F625.
G0 Z-5.9
G1 Z-8. F625.
G0 Z-7.9
G1 Z-9. F625.
G0 Z5.
X77.8 Y63.5
Z2.
G1 Z-2. F625.
G0 Z-1.9
G1 Z-4. F625.
G0 Z-3.9
G1 Z-6. F625.
G0 Z-5.9
G1 Z-8. F625.
G0 Z-7.9
G1 Z-9. F625.
G0 Z5.
Y43.5
Z2.
G1 Z-2. F625.
G0 Z-1.9
G1 Z-4. F625.
G0 Z-3.9
G1 Z-6. F625.
G0 Z-5.9
G1 Z-8. F625.
G0 Z-7.9
G1 Z-9. F625.
G0 Z5.
X68. Y38.
Z2.
G1 Z-2. F625.
G0 Z-1.9
G1 Z-4. F625.
G0 Z-3.9
G1 Z-6. F625.
G0 Z-5.9
G1 Z-8. F625.
G0 Z-7.9
G1 Z-9. F625.
G0 Z5.
X57.8 Y43.5
Z2.
G1 Z-2. F625.
G0 Z-1.9
G1 Z-4. F625.
G0 Z-3.9
G1 Z-6. F625.
G0 Z-5.9
G1 Z-8. F625.
G0 Z-7.9
G1 Z-9. F625.
G0 Z5.
X55. Y23.55
Z2.
G1 Z-2. F625.
G0 Z-1.9
G1 Z-4. F625.
G0 Z-3.9
G1 Z-6. F625.
G0 Z-5.9
G1 Z-8. F625.
G0 Z-7.9
G1 Z-9. F625.
G0 Z5.
X68. Y13.
Z2.
G1 Z-2. F625.
G0 Z-1.9
G1 Z-4. F625.
G0 Z-3.9
G1 Z-6. F625.
G0 Z-5.9
G1 Z-8. F625.
G0 Z-7.9
G1 Z-9. F625.
G0 Z5.
X80. Y23.55
Z2.
G1 Z-2. F625.
G0 Z-1.9
G1 Z-4. F625.
G0 Z-3.9
G1 Z-6. F625.
G0 Z-5.9
G1 Z-8. F625.
G0 Z-7.9
G1 Z-9. F625.
G0 Z5.
X127. Y13.
Z2.
G1 Z-2. F625.
G0 Z-1.9
G1 Z-4. F625.
G0 Z-3.9
G1 Z-6. F625.
G0 Z-5.9
G1 Z-8. F625.
G0 Z-7.9
G1 Z-9. F625.
G0 Z5.
X137.474 Y32.5
Z2.
G1 Z-2. F625.
G0 Z-1.9
G1 Z-4. F625.
G0 Z-3.9
G1 Z-6. F625.
G0 Z-5.9
G1 Z-8. F625.
G0 Z-7.9
G1 Z-9. F625.
G0 Z5.
X147. Y27.
Z2.
G1 Z-2. F625.
G0 Z-1.9
G1 Z-4. F625.
G0 Z-3.9
G1 Z-6. F625.
G0 Z-5.9
G1 Z-8. F625.
G0 Z-7.9
G1 Z-9. F625.
G0 Z5.
X156.526 Y32.5
Z2.
G1 Z-2. F625.
G0 Z-1.9
G1 Z-4. F625.
G0 Z-3.9
G1 Z-6. F625.
G0 Z-5.9
G1 Z-8. F625.
G0 Z-7.9
G1 Z-9. F625.
G0 Z5.
Y43.5
Z2.
G1 Z-2. F625.
G0 Z-1.9
G1 Z-4. F625.
G0 Z-3.9
G1 Z-6. F625.
G0 Z-5.9
G1 Z-8. F625.
G0 Z-7.9
G1 Z-9. F625.
G0 Z5.
X147. Y49.
Z2.
G1 Z-2. F625.
G0 Z-1.9
G1 Z-4. F625.
G0 Z-3.9
G1 Z-6. F625.
G0 Z-5.9
G1 Z-8. F625.
G0 Z-7.9
G1 Z-9. F625.
G0 Z5.
X137.474 Y43.5
Z2.
G1 Z-2. F625.
G0 Z-1.9
G1 Z-4. F625.
G0 Z-3.9
G1 Z-6. F625.
G0 Z-5.9
G1 Z-8. F625.
G0 Z-7.9
G1 Z-9. F625.
G0 Z5.
X127. Y80.5
Z2.
G1 Z-2. F625.
G0 Z-1.9
G1 Z-4. F625.
G0 Z-3.9
G1 Z-6. F625.
G0 Z-5.9
G1 Z-8. F625.
G0 Z-7.9
G1 Z-9. F625.
G0 Z5.
X137.474 Y100.
Z2.
G1 Z-2. F625.
G0 Z-1.9
G1 Z-4. F625.
G0 Z-3.9
G1 Z-6. F625.
G0 Z-5.9
G1 Z-8. F625.
G0 Z-7.9
G1 Z-9. F625.
G0 Z5.
X147. Y94.5
Z2.
G1 Z-2. F625.
G0 Z-1.9
G1 Z-4. F625.
G0 Z-3.9
G1 Z-6. F625.
G0 Z-5.9
G1 Z-8. F625.
G0 Z-7.9
G1 Z-9. F625.
G0 Z5.
X156.526 Y100.
Z2.
G1 Z-2. F625.
G0 Z-1.9
G1 Z-4. F625.
G0 Z-3.9
G1 Z-6. F625.
G0 Z-5.9
G1 Z-8. F625.
G0 Z-7.9
G1 Z-9. F625.
G0 Z5.
Y111.
Z2.
G1 Z-2. F625.
G0 Z-1.9
G1 Z-4. F625.
G0 Z-3.9
G1 Z-6. F625.
G0 Z-5.9
G1 Z-8. F625.
G0 Z-7.9
G1 Z-9. F625.
G0 Z5.
X147. Y116.5
Z2.
G1 Z-2. F625.
G0 Z-1.9
G1 Z-4. F625.
G0 Z-3.9
G1 Z-6. F625.
G0 Z-5.9
G1 Z-8. F625.
G0 Z-7.9
G1 Z-9. F625.
G0 Z5.
X137.474 Y111.
Z2.
G1 Z-2. F625.
G0 Z-1.9
G1 Z-4. F625.
G0 Z-3.9
G1 Z-6. F625.
G0 Z-5.9
G1 Z-8. F625.
G0 Z-7.9
G1 Z-9. F625.
G0 Z5.
X179. Y120.5
Z2.
G1 Z-2. F625.
G0 Z-1.9
G1 Z-4. F625.
G0 Z-3.9
G1 Z-6. F625.
G0 Z-5.9
G1 Z-8. F625.
G0 Z-7.9
G1 Z-9. F625.
G0 Z5.
X199.
Z2.
G1 Z-2. F625.
G0 Z-1.9
G1 Z-4. F625.
G0 Z-3.9
G1 Z-6. F625.
G0 Z-5.9
G1 Z-8. F625.
G0 Z-7.9
G1 Z-9. F625.
G0 Z5.
Y100.5
Z2.
G1 Z-2. F625.
G0 Z-1.9
G1 Z-4. F625.
G0 Z-3.9
G1 Z-6. F625.
G0 Z-5.9
G1 Z-8. F625.
G0 Z-7.9
G1 Z-9. F625.
G0 Z5.
Y91.
Z2.
G1 Z-2. F625.
G0 Z-1.9
G1 Z-4. F625.
G0 Z-3.9
G1 Z-6. F625.
G0 Z-5.9
G1 Z-8. F625.
G0 Z-7.9
G1 Z-9. F625.
G0 Z5.
X179.
Z2.
G1 Z-2. F625.
G0 Z-1.9
G1 Z-4. F625.
G0 Z-3.9
G1 Z-6. F625.
G0 Z-5.9
G1 Z-8. F625.
G0 Z-7.9
G1 Z-9. F625.
G0 Z5.
Y100.5
Z2.
G1 Z-2. F625.
G0 Z-1.9
G1 Z-4. F625.
G0 Z-3.9
G1 Z-6. F625.
G0 Z-5.9
G1 Z-8. F625.
G0 Z-7.9
G1 Z-9. F625.
G0 Z5.
X229. Y91.
Z2.
G1 Z-2. F625.
G0 Z-1.9
G1 Z-4. F625.
G0 Z-3.9
G1 Z-6. F625.
G0 Z-5.9
G1 Z-8. F625.
G0 Z-7.9
G1 Z-9. F625.
G0 Z5.
Y100.5
Z2.
G1 Z-2. F625.
G0 Z-1.9
G1 Z-4. F625.
G0 Z-3.9
G1 Z-6. F625.
G0 Z-5.9
G1 Z-8. F625.
G0 Z-7.9
G1 Z-9. F625.
G0 Z5.
X249.
Z2.
G1 Z-2. F625.
G0 Z-1.9
G1 Z-4. F625.
G0 Z-3.9
G1 Z-6. F625.
G0 Z-5.9
G1 Z-8. F625.
G0 Z-7.9
G1 Z-9. F625.
G0 Z5.
Y91.
Z2.
G1 Z-2. F625.
G0 Z-1.9
G1 Z-4. F625.
G0 Z-3.9
G1 Z-6. F625.
G0 Z-5.9
G1 Z-8. F625.
G0 Z-7.9
G1 Z-9. F625.
G0 Z5.
Y120.5
Z2.
G1 Z-2. F625.
G0 Z-1.9
G1 Z-4. F625.
G0 Z-3.9
G1 Z-6. F625.
G0 Z-5.9
G1 Z-8. F625.
G0 Z-7.9
G1 Z-9. F625.
G0 Z5.
X229.
Z2.
G1 Z-2. F625.
G0 Z-1.9
G1 Z-4. F625.
G0 Z-3.9
G1 Z-6. F625.
G0 Z-5.9
G1 Z-8. F625.
G0 Z-7.9
G1 Z-9. F625.
G0 Z5.
X110.778 Y152.
Z2.
G1 Z-2. F625.
G0 Z-1.9
G1 Z-4. F625.
G0 Z-3.9
G1 Z-6. F625.
G0 Z-5.9
G1 Z-8. F625.
G0 Z-7.9
G1 Z-9. F625.
G0 Z5.
X114. Y143.
Z2.
G1 Z-2. F625.
G0 Z-1.9
G1 Z-4. F625.
G0 Z-3.9
G1 Z-6. F625.
G0 Z-5.9
G1 Z-8. F625.
G0 Z-7.9
G1 Z-9. F625.
G0 Z5.
X103. Y144.222
Z2.
G1 Z-2. F625.
G0 Z-1.9
G1 Z-4. F625.
G0 Z-3.9
G1 Z-6. F625.
G0 Z-5.9
G1 Z-8. F625.
G0 Z-7.9
G1 Z-9. F625.
G0 Z5.
X92. Y143.
Z2.
G1 Z-2. F625.
G0 Z-1.9
G1 Z-4. F625.
G0 Z-3.9
G1 Z-6. F625.
G0 Z-5.9
G1 Z-8. F625.
G0 Z-7.9
G1 Z-9. F625.
G0 Z5.
X95.222 Y152.
Z2.
G1 Z-2. F625.
G0 Z-1.9
G1 Z-4. F625.
G0 Z-3.9
G1 Z-6. F625.
G0 Z-5.9
G1 Z-8. F625.
G0 Z-7.9
G1 Z-9. F625.
G0 Z5.
X68. Y163.
Z2.
G1 Z-2. F625.
G0 Z-1.9
G1 Z-4. F625.
G0 Z-3.9
G1 Z-6. F625.
G0 Z-5.9
G1 Z-8. F625.
G0 Z-7.9
G1 Z-9. F625.
G0 Z5.
X77.8 Y123.5
Z2.
G1 Z-2. F625.
G0 Z-1.9
G1 Z-4. F625.
G0 Z-3.9
G1 Z-6. F625.
G0 Z-5.9
G1 Z-8. F625.
G0 Z-7.9
G1 Z-9. F625.
G0 Z5.
X68. Y138.
Z2.
G1 Z-2. F625.
G0 Z-1.9
G1 Z-4. F625.
G0 Z-3.9
G1 Z-6. F625.
G0 Z-5.9
G1 Z-8. F625.
G0 Z-7.9
G1 Z-9. F625.
G0 Z5.
X57.8 Y123.5
Z2.
G1 Z-2. F625.
G0 Z-1.9
G1 Z-4. F625.
G0 Z-3.9
G1 Z-6. F625.
G0 Z-5.9
G1 Z-8. F625.
G0 Z-7.9
G1 Z-9. F625.
G0 Z5.
X28.2
Z2.
G1 Z-2. F625.
G0 Z-1.9
G1 Z-4. F625.
G0 Z-3.9
G1 Z-6. F625.
G0 Z-5.9
G1 Z-8. F625.
G0 Z-7.9
G1 Z-9. F625.
G0 Z5.
X18. Y138.
Z2.
G1 Z-2. F625.
G0 Z-1.9
G1 Z-4. F625.
G0 Z-3.9
G1 Z-6. F625.
G0 Z-5.9
G1 Z-8. F625.
G0 Z-7.9
G1 Z-9. F625.
G0 Z5.
X8.2 Y123.5
Z2.
G1 Z-2. F625.
G0 Z-1.9
G1 Z-4. F625.
G0 Z-3.9
G1 Z-6. F625.
G0 Z-5.9
G1 Z-8. F625.
G0 Z-7.9
G1 Z-9. F625.
G0 Z5.
X18. Y163.
Z2.
G1 Z-2. F625.
G0 Z-1.9
G1 Z-4. F625.
G0 Z-3.9
G1 Z-6. F625.
G0 Z-5.9
G1 Z-8. F625.
G0 Z-7.9
G1 Z-9. F625.
G0 Z5.
Z15.
G91
G28 Z0.
M5
G28 X0. Y0.
M30
%
