%
O00001002
(T2  D=3. CR=0. - ZMIN=-9.2 - FLAT END MILL)
G90 G94 G17
G21
G91
G28 Z0.
G90
(2D CONTOUR1)
T2 M6
S8000 M3
G54
G0 X71.2 Y93.26
G43 Z15. H2
G0 Z5.
G1 Z2. F320.
Z-0.81
G18 G2 X71.3 Z-0.91 I0.1
G1 X71.4
G17 G3 X71.5 Y93.36 J0.1
G1 Y97.939
G2 X71.987 Y99.046 I1.5
G3 X71.99 Y99.19 I-0.068 J0.074
X71.846 Y99.187 I-0.071 J-0.071
G2 X70.74 Y98.7 I-1.106 J1.013
G1 X63.261
G2 X62.154 Y99.187 J1.5
G3 X62.01 Y99.19 I-0.074 J-0.068
X62.013 Y99.046 I0.071 J-0.071
G2 X62.5 Y97.939 I-1.013 J-1.106
G1 Y93.36
G2 X62.013 Y92.254 I-1.5
G3 X62.01 Y92.11 I0.068 J-0.074
X62.154 Y92.113 I0.071 J0.071
G2 X63.261 Y92.6 I1.106 J-1.013
G1 X70.74
G2 X71.846 Y92.113 J-1.5
G3 X71.99 Y92.11 I0.074 J0.067
X71.987 Y92.254 I-0.071 J0.071
G2 X71.5 Y93.36 I1.013 J1.106
G3 X71.4 Y93.461 I-0.1
G1 X71.3
G18 G3 X71.2 Z-0.81 K0.1
G0 Z5.
Y93.26
G1 Z1.09 F320.
Z-1.72
G2 X71.3 Z-1.82 I0.1
G1 X71.4
G17 G3 X71.5 Y93.36 J0.1
G1 Y97.939
G2 X71.987 Y99.046 I1.5
G3 X71.99 Y99.19 I-0.068 J0.074
X71.846 Y99.187 I-0.071 J-0.071
G2 X70.74 Y98.7 I-1.106 J1.013
G1 X63.261
G2 X62.154 Y99.187 J1.5
G3 X62.01 Y99.19 I-0.074 J-0.068
X62.013 Y99.046 I0.071 J-0.071
G2 X62.5 Y97.939 I-1.013 J-1.106
G1 Y93.36
G2 X62.013 Y92.254 I-1.5
G3 X62.01 Y92.11 I0.068 J-0.074
X62.154 Y92.113 I0.071 J0.071
G2 X63.261 Y92.6 I1.106 J-1.013
G1 X70.74
G2 X71.846 Y92.113 J-1.5
G3 X71.99 Y92.11 I0.074 J0.067
X71.987 Y92.254 I-0.071 J0.071
G2 X71.5 Y93.36 I1.013 J1.106
G3 X71.4 Y93.461 I-0.1
G1 X71.3
G18 G3 X71.2 Z-1.72 K0.1
G0 Z5.
Y93.26
G1 Z0.18 F320.
Z-2.63
G2 X71.3 Z-2.73 I0.1
G1 X71.4
G17 G3 X71.5 Y93.36 J0.1
G1 Y97.939
G2 X71.987 Y99.046 I1.5
G3 X71.99 Y99.19 I-0.068 J0.074
X71.846 Y99.187 I-0.071 J-0.071
G2 X70.74 Y98.7 I-1.106 J1.013
G1 X63.261
G2 X62.154 Y99.187 J1.5
G3 X62.01 Y99.19 I-0.074 J-0.068
X62.013 Y99.046 I0.071 J-0.071
G2 X62.5 Y97.939 I-1.013 J-1.106
G1 Y93.36
G2 X62.013 Y92.254 I-1.5
G3 X62.01 Y92.11 I0.068 J-0.074
X62.154 Y92.113 I0.071 J0.071
G2 X63.261 Y92.6 I1.106 J-1.013
G1 X70.74
G2 X71.846 Y92.113 J-1.5
G3 X71.99 Y92.11 I0.074 J0.067
X71.987 Y92.254 I-0.071 J0.071
G2 X71.5 Y93.36 I1.013 J1.106
G3 X71.4 Y93.461 I-0.1
G1 X71.3
G18 G3 X71.2 Z-2.63 K0.1
G0 Z5.
Y93.26
G1 Z-0.73 F320.
Z-3.54
G2 X71.3 Z-3.64 I0.1
G1 X71.4
G17 G3 X71.5 Y93.36 J0.1
G1 Y97.939
G2 X71.987 Y99.046 I1.5
G3 X71.99 Y99.19 I-0.068 J0.074
X71.846 Y99.187 I-0.071 J-0.071
G2 X70.74 Y98.7 I-1.106 J1.013
G1 X63.261
G2 X62.154 Y99.187 J1.5
G3 X62.01 Y99.19 I-0.074 J-0.068
X62.013 Y99.046 I0.071 J-0.071
G2 X62.5 Y97.939 I-1.013 J-1.106
G1 Y93.36
G2 X62.013 Y92.254 I-1.5
G3 X62.01 Y92.11 I0.068 J-0.074
X62.154 Y92.113 I0.071 J0.071
G2 X63.261 Y92.6 I1.106 J-1.013
G1 X70.74
G2 X71.846 Y92.113 J-1.5
G3 X71.99 Y92.11 I0.074 J0.067
X71.987 Y92.254 I-0.071 J0.071
G2 X71.5 Y93.36 I1.013 J1.106
G3 X71.4 Y93.461 I-0.1
G1 X71.3
G18 G3 X71.2 Z-3.54 K0.1
G0 Z5.
Y93.26
G1 Z-1.64 F320.
Z-4.45
G2 X71.3 Z-4.55 I0.1
G1 X71.4
G17 G3 X71.5 Y93.36 J0.1
G1 Y97.939
G2 X71.987 Y99.046 I1.5
G3 X71.99 Y99.19 I-0.068 J0.074
X71.846 Y99.187 I-0.071 J-0.071
G2 X70.74 Y98.7 I-1.106 J1.013
G1 X63.261
G2 X62.154 Y99.187 J1.5
G3 X62.01 Y99.19 I-0.074 J-0.068
X62.013 Y99.046 I0.071 J-0.071
G2 X62.5 Y97.939 I-1.013 J-1.106
G1 Y93.36
G2 X62.013 Y92.254 I-1.5
G3 X62.01 Y92.11 I0.068 J-0.074
X62.154 Y92.113 I0.071 J0.071
G2 X63.261 Y92.6 I1.106 J-1.013
G1 X70.74
G2 X71.846 Y92.113 J-1.5
G3 X71.99 Y92.11 I0.074 J0.067
X71.987 Y92.254 I-0.071 J0.071
G2 X71.5 Y93.36 I1.013 J1.106
G3 X71.4 Y93.461 I-0.1
G1 X71.3
G18 G3 X71.2 Z-4.45 K0.1
G0 Z5.
Y93.26
G1 Z-2.55 F320.
Z-5.36
G2 X71.3 Z-5.46 I0.1
G1 X71.4
G17 G3 X71.5 Y93.36 J0.1
G1 Y97.939
G2 X71.987 Y99.046 I1.5
G3 X71.99 Y99.19 I-0.068 J0.074
X71.846 Y99.187 I-0.071 J-0.071
G2 X70.74 Y98.7 I-1.106 J1.013
G1 X63.261
G2 X62.154 Y99.187 J1.5
G3 X62.01 Y99.19 I-0.074 J-0.068
X62.013 Y99.046 I0.071 J-0.071
G2 X62.5 Y97.939 I-1.013 J-1.106
G1 Y93.36
G2 X62.013 Y92.254 I-1.5
G3 X62.01 Y92.11 I0.068 J-0.074
X62.154 Y92.113 I0.071 J0.071
G2 X63.261 Y92.6 I1.106 J-1.013
G1 X70.74
G2 X71.846 Y92.113 J-1.5
G3 X71.99 Y92.11 I0.074 J0.067
X71.987 Y92.254 I-0.071 J0.071
G2 X71.5 Y93.36 I1.013 J1.106
G3 X71.4 Y93.461 I-0.1
G1 X71.3
G18 G3 X71.2 Z-5.36 K0.1
G0 Z5.
Y93.26
G1 Z-3.46 F320.
Z-6.27
G2 X71.3 Z-6.37 I0.1
G1 X71.4
G17 G3 X71.5 Y93.36 J0.1
G1 Y97.939
G2 X71.987 Y99.046 I1.5
G3 X71.99 Y99.19 I-0.068 J0.074
X71.846 Y99.187 I-0.071 J-0.071
G2 X70.74 Y98.7 I-1.106 J1.013
G1 X63.261
G2 X62.154 Y99.187 J1.5
G3 X62.01 Y99.19 I-0.074 J-0.068
X62.013 Y99.046 I0.071 J-0.071
G2 X62.5 Y97.939 I-1.013 J-1.106
G1 Y93.36
G2 X62.013 Y92.254 I-1.5
G3 X62.01 Y92.11 I0.068 J-0.074
X62.154 Y92.113 I0.071 J0.071
G2 X63.261 Y92.6 I1.106 J-1.013
G1 X70.74
G2 X71.846 Y92.113 J-1.5
G3 X71.99 Y92.11 I0.074 J0.067
X71.987 Y92.254 I-0.071 J0.071
G2 X71.5 Y93.36 I1.013 J1.106
G3 X71.4 Y93.461 I-0.1
G1 X71.3
G18 G3 X71.2 Z-6.27 K0.1
G0 Z5.
Y93.26
G1 Z-4.37 F320.
Z-7.18
G2 X71.3 Z-7.28 I0.1
G1 X71.4
G17 G3 X71.5 Y93.36 J0.1
G1 Y97.939
G2 X71.987 Y99.046 I1.5
G3 X71.99 Y99.19 I-0.068 J0.074
X71.846 Y99.187 I-0.071 J-0.071
G2 X70.74 Y98.7 I-1.106 J1.013
G1 X63.261
G2 X62.154 Y99.187 J1.5
G3 X62.01 Y99.19 I-0.074 J-0.068
X62.013 Y99.046 I0.071 J-0.071
G2 X62.5 Y97.939 I-1.013 J-1.106
G1 Y93.36
G2 X62.013 Y92.254 I-1.5
G3 X62.01 Y92.11 I0.068 J-0.074
X62.154 Y92.113 I0.071 J0.071
G2 X63.261 Y92.6 I1.106 J-1.013
G1 X70.74
G2 X71.846 Y92.113 J-1.5
G3 X71.99 Y92.11 I0.074 J0.067
X71.987 Y92.254 I-0.071 J0.071
G2 X71.5 Y93.36 I1.013 J1.106
G3 X71.4 Y93.461 I-0.1
G1 X71.3
G18 G3 X71.2 Z-7.18 K0.1
G0 Z5.
Y93.26
G1 Z-5.28 F320.
Z-8.09
G2 X71.3 Z-8.19 I0.1
G1 X71.4
G17 G3 X71.5 Y93.36 J0.1
G1 Y97.939
G2 X71.987 Y99.046 I1.5
G3 X71.99 Y99.19 I-0.068 J0.074
X71.846 Y99.187 I-0.071 J-0.071
G2 X70.74 Y98.7 I-1.106 J1.013
G1 X63.261
G2 X62.154 Y99.187 J1.5
G3 X62.01 Y99.19 I-0.074 J-0.068
X62.013 Y99.046 I0.071 J-0.071
G2 X62.5 Y97.939 I-1.013 J-1.106
G1 Y93.36
G2 X62.013 Y92.254 I-1.5
G3 X62.01 Y92.11 I0.068 J-0.074
X62.154 Y92.113 I0.071 J0.071
G2 X63.261 Y92.6 I1.106 J-1.013
G1 X70.74
G2 X71.846 Y92.113 J-1.5
G3 X71.99 Y92.11 I0.074 J0.067
X71.987 Y92.254 I-0.071 J0.071
G2 X71.5 Y93.36 I1.013 J1.106
G3 X71.4 Y93.461 I-0.1
G1 X71.3
G18 G3 X71.2 Z-8.09 K0.1
G0 Z5.
Y93.26
G1 Z-6.19 F320.
Z-9.
G2 X71.3 Z-9.1 I0.1
G1 X71.4
G17 G3 X71.5 Y93.36 J0.1
G1 Y97.939
G2 X71.987 Y99.046 I1.5
G3 X71.99 Y99.19 I-0.068 J0.074
X71.846 Y99.187 I-0.071 J-0.071
G2 X70.74 Y98.7 I-1.106 J1.013
G1 X63.261
G2 X62.154 Y99.187 J1.5
G3 X62.01 Y99.19 I-0.074 J-0.068
X62.013 Y99.046 I0.071 J-0.071
G2 X62.5 Y97.939 I-1.013 J-1.106
G1 Y93.36
G2 X62.013 Y92.254 I-1.5
G3 X62.01 Y92.11 I0.068 J-0.074
X62.154 Y92.113 I0.071 J0.071
G2 X63.261 Y92.6 I1.106 J-1.013
G1 X70.74
G2 X71.846 Y92.113 J-1.5
G3 X71.99 Y92.11 I0.074 J0.067
X71.987 Y92.254 I-0.071 J0.071
G2 X71.5 Y93.36 I1.013 J1.106
G3 X71.4 Y93.461 I-0.1
G1 X71.3
G18 G3 X71.2 Z-9. K0.1
G0 Z5.
X47.2 Y93.26
G1 Z2. F320.
Z-0.81
G2 X47.3 Z-0.91 I0.1
G1 X47.4
G17 G3 X47.5 Y93.36 J0.1
G1 Y97.939
G2 X47.987 Y99.046 I1.5
G3 X47.99 Y99.19 I-0.068 J0.074
X47.846 Y99.187 I-0.071 J-0.071
G2 X46.739 Y98.7 I-1.106 J1.013
G1 X39.261
G2 X38.154 Y99.187 J1.5
G3 X38.01 Y99.19 I-0.074 J-0.068
X38.013 Y99.046 I0.071 J-0.071
G2 X38.5 Y97.939 I-1.013 J-1.106
G1 Y93.36
G2 X38.013 Y92.254 I-1.5
G3 X38.01 Y92.11 I0.068 J-0.074
X38.154 Y92.113 I0.071 J0.071
G2 X39.261 Y92.6 I1.106 J-1.013
G1 X46.739
G2 X47.846 Y92.113 J-1.5
G3 X47.99 Y92.11 I0.074 J0.067
X47.987 Y92.254 I-0.071 J0.071
G2 X47.5 Y93.36 I1.013 J1.106
G3 X47.4 Y93.461 I-0.1
G1 X47.3
G18 G3 X47.2 Z-0.81 K0.1
G0 Z5.
Y93.26
G1 Z1.09 F320.
Z-1.72
G2 X47.3 Z-1.82 I0.1
G1 X47.4
G17 G3 X47.5 Y93.36 J0.1
G1 Y97.939
G2 X47.987 Y99.046 I1.5
G3 X47.99 Y99.19 I-0.068 J0.074
X47.846 Y99.187 I-0.071 J-0.071
G2 X46.739 Y98.7 I-1.106 J1.013
G1 X39.261
G2 X38.154 Y99.187 J1.5
G3 X38.01 Y99.19 I-0.074 J-0.068
X38.013 Y99.046 I0.071 J-0.071
G2 X38.5 Y97.939 I-1.013 J-1.106
G1 Y93.36
G2 X38.013 Y92.254 I-1.5
G3 X38.01 Y92.11 I0.068 J-0.074
X38.154 Y92.113 I0.071 J0.071
G2 X39.261 Y92.6 I1.106 J-1.013
G1 X46.739
G2 X47.846 Y92.113 J-1.5
G3 X47.99 Y92.11 I0.074 J0.067
X47.987 Y92.254 I-0.071 J0.071
G2 X47.5 Y93.36 I1.013 J1.106
G3 X47.4 Y93.461 I-0.1
G1 X47.3
G18 G3 X47.2 Z-1.72 K0.1
G0 Z5.
Y93.26
G1 Z0.18 F320.
Z-2.63
G2 X47.3 Z-2.73 I0.1
G1 X47.4
G17 G3 X47.5 Y93.36 J0.1
G1 Y97.939
G2 X47.987 Y99.046 I1.5
G3 X47.99 Y99.19 I-0.068 J0.074
X47.846 Y99.187 I-0.071 J-0.071
G2 X46.739 Y98.7 I-1.106 J1.013
G1 X39.261
G2 X38.154 Y99.187 J1.5
G3 X38.01 Y99.19 I-0.074 J-0.068
X38.013 Y99.046 I0.071 J-0.071
G2 X38.5 Y97.939 I-1.013 J-1.106
G1 Y93.36
G2 X38.013 Y92.254 I-1.5
G3 X38.01 Y92.11 I0.068 J-0.074
X38.154 Y92.113 I0.071 J0.071
G2 X39.261 Y92.6 I1.106 J-1.013
G1 X46.739
G2 X47.846 Y92.113 J-1.5
G3 X47.99 Y92.11 I0.074 J0.067
X47.987 Y92.254 I-0.071 J0.071
G2 X47.5 Y93.36 I1.013 J1.106
G3 X47.4 Y93.461 I-0.1
G1 X47.3
G18 G3 X47.2 Z-2.63 K0.1
G0 Z5.
Y93.26
G1 Z-0.73 F320.
Z-3.54
G2 X47.3 Z-3.64 I0.1
G1 X47.4
G17 G3 X47.5 Y93.36 J0.1
G1 Y97.939
G2 X47.987 Y99.046 I1.5
G3 X47.99 Y99.19 I-0.068 J0.074
X47.846 Y99.187 I-0.071 J-0.071
G2 X46.739 Y98.7 I-1.106 J1.013
G1 X39.261
G2 X38.154 Y99.187 J1.5
G3 X38.01 Y99.19 I-0.074 J-0.068
X38.013 Y99.046 I0.071 J-0.071
G2 X38.5 Y97.939 I-1.013 J-1.106
G1 Y93.36
G2 X38.013 Y92.254 I-1.5
G3 X38.01 Y92.11 I0.068 J-0.074
X38.154 Y92.113 I0.071 J0.071
G2 X39.261 Y92.6 I1.106 J-1.013
G1 X46.739
G2 X47.846 Y92.113 J-1.5
G3 X47.99 Y92.11 I0.074 J0.067
X47.987 Y92.254 I-0.071 J0.071
G2 X47.5 Y93.36 I1.013 J1.106
G3 X47.4 Y93.461 I-0.1
G1 X47.3
G18 G3 X47.2 Z-3.54 K0.1
G0 Z5.
Y93.26
G1 Z-1.64 F320.
Z-4.45
G2 X47.3 Z-4.55 I0.1
G1 X47.4
G17 G3 X47.5 Y93.36 J0.1
G1 Y97.939
G2 X47.987 Y99.046 I1.5
G3 X47.99 Y99.19 I-0.068 J0.074
X47.846 Y99.187 I-0.071 J-0.071
G2 X46.739 Y98.7 I-1.106 J1.013
G1 X39.261
G2 X38.154 Y99.187 J1.5
G3 X38.01 Y99.19 I-0.074 J-0.068
X38.013 Y99.046 I0.071 J-0.071
G2 X38.5 Y97.939 I-1.013 J-1.106
G1 Y93.36
G2 X38.013 Y92.254 I-1.5
G3 X38.01 Y92.11 I0.068 J-0.074
X38.154 Y92.113 I0.071 J0.071
G2 X39.261 Y92.6 I1.106 J-1.013
G1 X46.739
G2 X47.846 Y92.113 J-1.5
G3 X47.99 Y92.11 I0.074 J0.067
X47.987 Y92.254 I-0.071 J0.071
G2 X47.5 Y93.36 I1.013 J1.106
G3 X47.4 Y93.461 I-0.1
G1 X47.3
G18 G3 X47.2 Z-4.45 K0.1
G0 Z5.
Y93.26
G1 Z-2.55 F320.
Z-5.36
G2 X47.3 Z-5.46 I0.1
G1 X47.4
G17 G3 X47.5 Y93.36 J0.1
G1 Y97.939
G2 X47.987 Y99.046 I1.5
G3 X47.99 Y99.19 I-0.068 J0.074
X47.846 Y99.187 I-0.071 J-0.071
G2 X46.739 Y98.7 I-1.106 J1.013
G1 X39.261
G2 X38.154 Y99.187 J1.5
G3 X38.01 Y99.19 I-0.074 J-0.068
X38.013 Y99.046 I0.071 J-0.071
G2 X38.5 Y97.939 I-1.013 J-1.106
G1 Y93.36
G2 X38.013 Y92.254 I-1.5
G3 X38.01 Y92.11 I0.068 J-0.074
X38.154 Y92.113 I0.071 J0.071
G2 X39.261 Y92.6 I1.106 J-1.013
G1 X46.739
G2 X47.846 Y92.113 J-1.5
G3 X47.99 Y92.11 I0.074 J0.067
X47.987 Y92.254 I-0.071 J0.071
G2 X47.5 Y93.36 I1.013 J1.106
G3 X47.4 Y93.461 I-0.1
G1 X47.3
G18 G3 X47.2 Z-5.36 K0.1
G0 Z5.
Y93.26
G1 Z-3.46 F320.
Z-6.27
G2 X47.3 Z-6.37 I0.1
G1 X47.4
G17 G3 X47.5 Y93.36 J0.1
G1 Y97.939
G2 X47.987 Y99.046 I1.5
G3 X47.99 Y99.19 I-0.068 J0.074
X47.846 Y99.187 I-0.071 J-0.071
G2 X46.739 Y98.7 I-1.106 J1.013
G1 X39.261
G2 X38.154 Y99.187 J1.5
G3 X38.01 Y99.19 I-0.074 J-0.068
X38.013 Y99.046 I0.071 J-0.071
G2 X38.5 Y97.939 I-1.013 J-1.106
G1 Y93.36
G2 X38.013 Y92.254 I-1.5
G3 X38.01 Y92.11 I0.068 J-0.074
X38.154 Y92.113 I0.071 J0.071
G2 X39.261 Y92.6 I1.106 J-1.013
G1 X46.739
G2 X47.846 Y92.113 J-1.5
G3 X47.99 Y92.11 I0.074 J0.067
X47.987 Y92.254 I-0.071 J0.071
G2 X47.5 Y93.36 I1.013 J1.106
G3 X47.4 Y93.461 I-0.1
G1 X47.3
G18 G3 X47.2 Z-6.27 K0.1
G0 Z5.
Y93.26
G1 Z-4.37 F320.
Z-7.18
G2 X47.3 Z-7.28 I0.1
G1 X47.4
G17 G3 X47.5 Y93.36 J0.1
G1 Y97.939
G2 X47.987 Y99.046 I1.5
G3 X47.99 Y99.19 I-0.068 J0.074
X47.846 Y99.187 I-0.071 J-0.071
G2 X46.739 Y98.7 I-1.106 J1.013
G1 X39.261
G2 X38.154 Y99.187 J1.5
G3 X38.01 Y99.19 I-0.074 J-0.068
X38.013 Y99.046 I0.071 J-0.071
G2 X38.5 Y97.939 I-1.013 J-1.106
G1 Y93.36
G2 X38.013 Y92.254 I-1.5
G3 X38.01 Y92.11 I0.068 J-0.074
X38.154 Y92.113 I0.071 J0.071
G2 X39.261 Y92.6 I1.106 J-1.013
G1 X46.739
G2 X47.846 Y92.113 J-1.5
G3 X47.99 Y92.11 I0.074 J0.067
X47.987 Y92.254 I-0.071 J0.071
G2 X47.5 Y93.36 I1.013 J1.106
G3 X47.4 Y93.461 I-0.1
G1 X47.3
G18 G3 X47.2 Z-7.18 K0.1
G0 Z5.
Y93.26
G1 Z-5.28 F320.
Z-8.09
G2 X47.3 Z-8.19 I0.1
G1 X47.4
G17 G3 X47.5 Y93.36 J0.1
G1 Y97.939
G2 X47.987 Y99.046 I1.5
G3 X47.99 Y99.19 I-0.068 J0.074
X47.846 Y99.187 I-0.071 J-0.071
G2 X46.739 Y98.7 I-1.106 J1.013
G1 X39.261
G2 X38.154 Y99.187 J1.5
G3 X38.01 Y99.19 I-0.074 J-0.068
X38.013 Y99.046 I0.071 J-0.071
G2 X38.5 Y97.939 I-1.013 J-1.106
G1 Y93.36
G2 X38.013 Y92.254 I-1.5
G3 X38.01 Y92.11 I0.068 J-0.074
X38.154 Y92.113 I0.071 J0.071
G2 X39.261 Y92.6 I1.106 J-1.013
G1 X46.739
G2 X47.846 Y92.113 J-1.5
G3 X47.99 Y92.11 I0.074 J0.067
X47.987 Y92.254 I-0.071 J0.071
G2 X47.5 Y93.36 I1.013 J1.106
G3 X47.4 Y93.461 I-0.1
G1 X47.3
G18 G3 X47.2 Z-8.09 K0.1
G0 Z5.
Y93.26
G1 Z-6.19 F320.
Z-9.
G2 X47.3 Z-9.1 I0.1
G1 X47.4
G17 G3 X47.5 Y93.36 J0.1
G1 Y97.939
G2 X47.987 Y99.046 I1.5
G3 X47.99 Y99.19 I-0.068 J0.074
X47.846 Y99.187 I-0.071 J-0.071
G2 X46.739 Y98.7 I-1.106 J1.013
G1 X39.261
G2 X38.154 Y99.187 J1.5
G3 X38.01 Y99.19 I-0.074 J-0.068
X38.013 Y99.046 I0.071 J-0.071
G2 X38.5 Y97.939 I-1.013 J-1.106
G1 Y93.36
G2 X38.013 Y92.254 I-1.5
G3 X38.01 Y92.11 I0.068 J-0.074
X38.154 Y92.113 I0.071 J0.071
G2 X39.261 Y92.6 I1.106 J-1.013
G1 X46.739
G2 X47.846 Y92.113 J-1.5
G3 X47.99 Y92.11 I0.074 J0.067
X47.987 Y92.254 I-0.071 J0.071
G2 X47.5 Y93.36 I1.013 J1.106
G3 X47.4 Y93.461 I-0.1
G1 X47.3
G18 G3 X47.2 Z-9. K0.1
G0 Z5.
X23.2 Y93.26
G1 Z2. F320.
Z-0.81
G2 X23.3 Z-0.91 I0.1
G1 X23.4
G17 G3 X23.5 Y93.36 J0.1
G1 Y97.939
G2 X23.987 Y99.046 I1.5
G3 X23.99 Y99.19 I-0.068 J0.074
X23.846 Y99.187 I-0.071 J-0.071
G2 X22.74 Y98.7 I-1.106 J1.013
G1 X15.26
G2 X14.154 Y99.187 J1.5
G3 X14.01 Y99.19 I-0.074 J-0.068
X14.013 Y99.046 I0.071 J-0.071
G2 X14.5 Y97.939 I-1.013 J-1.106
G1 Y93.36
G2 X14.013 Y92.254 I-1.5
G3 X14.01 Y92.11 I0.068 J-0.074
X14.154 Y92.113 I0.071 J0.071
G2 X15.26 Y92.6 I1.106 J-1.013
G1 X22.74
G2 X23.846 Y92.113 J-1.5
G3 X23.99 Y92.11 I0.074 J0.067
X23.987 Y92.254 I-0.071 J0.071
G2 X23.5 Y93.36 I1.013 J1.106
G3 X23.4 Y93.461 I-0.1
G1 X23.3
G18 G3 X23.2 Z-0.81 K0.1
G0 Z5.
Y93.26
G1 Z1.09 F320.
Z-1.72
G2 X23.3 Z-1.82 I0.1
G1 X23.4
G17 G3 X23.5 Y93.36 J0.1
G1 Y97.939
G2 X23.987 Y99.046 I1.5
G3 X23.99 Y99.19 I-0.068 J0.074
X23.846 Y99.187 I-0.071 J-0.071
G2 X22.74 Y98.7 I-1.106 J1.013
G1 X15.26
G2 X14.154 Y99.187 J1.5
G3 X14.01 Y99.19 I-0.074 J-0.068
X14.013 Y99.046 I0.071 J-0.071
G2 X14.5 Y97.939 I-1.013 J-1.106
G1 Y93.36
G2 X14.013 Y92.254 I-1.5
G3 X14.01 Y92.11 I0.068 J-0.074
X14.154 Y92.113 I0.071 J0.071
G2 X15.26 Y92.6 I1.106 J-1.013
G1 X22.74
G2 X23.846 Y92.113 J-1.5
G3 X23.99 Y92.11 I0.074 J0.067
X23.987 Y92.254 I-0.071 J0.071
G2 X23.5 Y93.36 I1.013 J1.106
G3 X23.4 Y93.461 I-0.1
G1 X23.3
G18 G3 X23.2 Z-1.72 K0.1
G0 Z5.
Y93.26
G1 Z0.18 F320.
Z-2.63
G2 X23.3 Z-2.73 I0.1
G1 X23.4
G17 G3 X23.5 Y93.36 J0.1
G1 Y97.939
G2 X23.987 Y99.046 I1.5
G3 X23.99 Y99.19 I-0.068 J0.074
X23.846 Y99.187 I-0.071 J-0.071
G2 X22.74 Y98.7 I-1.106 J1.013
G1 X15.26
G2 X14.154 Y99.187 J1.5
G3 X14.01 Y99.19 I-0.074 J-0.068
X14.013 Y99.046 I0.071 J-0.071
G2 X14.5 Y97.939 I-1.013 J-1.106
G1 Y93.36
G2 X14.013 Y92.254 I-1.5
G3 X14.01 Y92.11 I0.068 J-0.074
X14.154 Y92.113 I0.071 J0.071
G2 X15.26 Y92.6 I1.106 J-1.013
G1 X22.74
G2 X23.846 Y92.113 J-1.5
G3 X23.99 Y92.11 I0.074 J0.067
X23.987 Y92.254 I-0.071 J0.071
G2 X23.5 Y93.36 I1.013 J1.106
G3 X23.4 Y93.461 I-0.1
G1 X23.3
G18 G3 X23.2 Z-2.63 K0.1
G0 Z5.
Y93.26
G1 Z-0.73 F320.
Z-3.54
G2 X23.3 Z-3.64 I0.1
G1 X23.4
G17 G3 X23.5 Y93.36 J0.1
G1 Y97.939
G2 X23.987 Y99.046 I1.5
G3 X23.99 Y99.19 I-0.068 J0.074
X23.846 Y99.187 I-0.071 J-0.071
G2 X22.74 Y98.7 I-1.106 J1.013
G1 X15.26
G2 X14.154 Y99.187 J1.5
G3 X14.01 Y99.19 I-0.074 J-0.068
X14.013 Y99.046 I0.071 J-0.071
G2 X14.5 Y97.939 I-1.013 J-1.106
G1 Y93.36
G2 X14.013 Y92.254 I-1.5
G3 X14.01 Y92.11 I0.068 J-0.074
X14.154 Y92.113 I0.071 J0.071
G2 X15.26 Y92.6 I1.106 J-1.013
G1 X22.74
G2 X23.846 Y92.113 J-1.5
G3 X23.99 Y92.11 I0.074 J0.067
X23.987 Y92.254 I-0.071 J0.071
G2 X23.5 Y93.36 I1.013 J1.106
G3 X23.4 Y93.461 I-0.1
G1 X23.3
G18 G3 X23.2 Z-3.54 K0.1
G0 Z5.
Y93.26
G1 Z-1.64 F320.
Z-4.45
G2 X23.3 Z-4.55 I0.1
G1 X23.4
G17 G3 X23.5 Y93.36 J0.1
G1 Y97.939
G2 X23.987 Y99.046 I1.5
G3 X23.99 Y99.19 I-0.068 J0.074
X23.846 Y99.187 I-0.071 J-0.071
G2 X22.74 Y98.7 I-1.106 J1.013
G1 X15.26
G2 X14.154 Y99.187 J1.5
G3 X14.01 Y99.19 I-0.074 J-0.068
X14.013 Y99.046 I0.071 J-0.071
G2 X14.5 Y97.939 I-1.013 J-1.106
G1 Y93.36
G2 X14.013 Y92.254 I-1.5
G3 X14.01 Y92.11 I0.068 J-0.074
X14.154 Y92.113 I0.071 J0.071
G2 X15.26 Y92.6 I1.106 J-1.013
G1 X22.74
G2 X23.846 Y92.113 J-1.5
G3 X23.99 Y92.11 I0.074 J0.067
X23.987 Y92.254 I-0.071 J0.071
G2 X23.5 Y93.36 I1.013 J1.106
G3 X23.4 Y93.461 I-0.1
G1 X23.3
G18 G3 X23.2 Z-4.45 K0.1
G0 Z5.
Y93.26
G1 Z-2.55 F320.
Z-5.36
G2 X23.3 Z-5.46 I0.1
G1 X23.4
G17 G3 X23.5 Y93.36 J0.1
G1 Y97.939
G2 X23.987 Y99.046 I1.5
G3 X23.99 Y99.19 I-0.068 J0.074
X23.846 Y99.187 I-0.071 J-0.071
G2 X22.74 Y98.7 I-1.106 J1.013
G1 X15.26
G2 X14.154 Y99.187 J1.5
G3 X14.01 Y99.19 I-0.074 J-0.068
X14.013 Y99.046 I0.071 J-0.071
G2 X14.5 Y97.939 I-1.013 J-1.106
G1 Y93.36
G2 X14.013 Y92.254 I-1.5
G3 X14.01 Y92.11 I0.068 J-0.074
X14.154 Y92.113 I0.071 J0.071
G2 X15.26 Y92.6 I1.106 J-1.013
G1 X22.74
G2 X23.846 Y92.113 J-1.5
G3 X23.99 Y92.11 I0.074 J0.067
X23.987 Y92.254 I-0.071 J0.071
G2 X23.5 Y93.36 I1.013 J1.106
G3 X23.4 Y93.461 I-0.1
G1 X23.3
G18 G3 X23.2 Z-5.36 K0.1
G0 Z5.
Y93.26
G1 Z-3.46 F320.
Z-6.27
G2 X23.3 Z-6.37 I0.1
G1 X23.4
G17 G3 X23.5 Y93.36 J0.1
G1 Y97.939
G2 X23.987 Y99.046 I1.5
G3 X23.99 Y99.19 I-0.068 J0.074
X23.846 Y99.187 I-0.071 J-0.071
G2 X22.74 Y98.7 I-1.106 J1.013
G1 X15.26
G2 X14.154 Y99.187 J1.5
G3 X14.01 Y99.19 I-0.074 J-0.068
X14.013 Y99.046 I0.071 J-0.071
G2 X14.5 Y97.939 I-1.013 J-1.106
G1 Y93.36
G2 X14.013 Y92.254 I-1.5
G3 X14.01 Y92.11 I0.068 J-0.074
X14.154 Y92.113 I0.071 J0.071
G2 X15.26 Y92.6 I1.106 J-1.013
G1 X22.74
G2 X23.846 Y92.113 J-1.5
G3 X23.99 Y92.11 I0.074 J0.067
X23.987 Y92.254 I-0.071 J0.071
G2 X23.5 Y93.36 I1.013 J1.106
G3 X23.4 Y93.461 I-0.1
G1 X23.3
G18 G3 X23.2 Z-6.27 K0.1
G0 Z5.
Y93.26
G1 Z-4.37 F320.
Z-7.18
G2 X23.3 Z-7.28 I0.1
G1 X23.4
G17 G3 X23.5 Y93.36 J0.1
G1 Y97.939
G2 X23.987 Y99.046 I1.5
G3 X23.99 Y99.19 I-0.068 J0.074
X23.846 Y99.187 I-0.071 J-0.071
G2 X22.74 Y98.7 I-1.106 J1.013
G1 X15.26
G2 X14.154 Y99.187 J1.5
G3 X14.01 Y99.19 I-0.074 J-0.068
X14.013 Y99.046 I0.071 J-0.071
G2 X14.5 Y97.939 I-1.013 J-1.106
G1 Y93.36
G2 X14.013 Y92.254 I-1.5
G3 X14.01 Y92.11 I0.068 J-0.074
X14.154 Y92.113 I0.071 J0.071
G2 X15.26 Y92.6 I1.106 J-1.013
G1 X22.74
G2 X23.846 Y92.113 J-1.5
G3 X23.99 Y92.11 I0.074 J0.067
X23.987 Y92.254 I-0.071 J0.071
G2 X23.5 Y93.36 I1.013 J1.106
G3 X23.4 Y93.461 I-0.1
G1 X23.3
G18 G3 X23.2 Z-7.18 K0.1
G0 Z5.
Y93.26
G1 Z-5.28 F320.
Z-8.09
G2 X23.3 Z-8.19 I0.1
G1 X23.4
G17 G3 X23.5 Y93.36 J0.1
G1 Y97.939
G2 X23.987 Y99.046 I1.5
G3 X23.99 Y99.19 I-0.068 J0.074
X23.846 Y99.187 I-0.071 J-0.071
G2 X22.74 Y98.7 I-1.106 J1.013
G1 X15.26
G2 X14.154 Y99.187 J1.5
G3 X14.01 Y99.19 I-0.074 J-0.068
X14.013 Y99.046 I0.071 J-0.071
G2 X14.5 Y97.939 I-1.013 J-1.106
G1 Y93.36
G2 X14.013 Y92.254 I-1.5
G3 X14.01 Y92.11 I0.068 J-0.074
X14.154 Y92.113 I0.071 J0.071
G2 X15.26 Y92.6 I1.106 J-1.013
G1 X22.74
G2 X23.846 Y92.113 J-1.5
G3 X23.99 Y92.11 I0.074 J0.067
X23.987 Y92.254 I-0.071 J0.071
G2 X23.5 Y93.36 I1.013 J1.106
G3 X23.4 Y93.461 I-0.1
G1 X23.3
G18 G3 X23.2 Z-8.09 K0.1
G0 Z5.
Y93.26
G1 Z-6.19 F320.
Z-9.
G2 X23.3 Z-9.1 I0.1
G1 X23.4
G17 G3 X23.5 Y93.36 J0.1
G1 Y97.939
G2 X23.987 Y99.046 I1.5
G3 X23.99 Y99.19 I-0.068 J0.074
X23.846 Y99.187 I-0.071 J-0.071
G2 X22.74 Y98.7 I-1.106 J1.013
G1 X15.26
G2 X14.154 Y99.187 J1.5
G3 X14.01 Y99.19 I-0.074 J-0.068
X14.013 Y99.046 I0.071 J-0.071
G2 X14.5 Y97.939 I-1.013 J-1.106
G1 Y93.36
G2 X14.013 Y92.254 I-1.5
G3 X14.01 Y92.11 I0.068 J-0.074
X14.154 Y92.113 I0.071 J0.071
G2 X15.26 Y92.6 I1.106 J-1.013
G1 X22.74
G2 X23.846 Y92.113 J-1.5
G3 X23.99 Y92.11 I0.074 J0.067
X23.987 Y92.254 I-0.071 J0.071
G2 X23.5 Y93.36 I1.013 J1.106
G3 X23.4 Y93.461 I-0.1
G1 X23.3
G18 G3 X23.2 Z-9. K0.1
G0 Z5.
X23.198 Y25.905
G1 Z2. F320.
Z-0.81
X23.206 Z-0.848
X23.228 Y25.903 Z-0.881
X23.26 Y25.9 Z-0.902
X23.298 Y25.896 Z-0.91
X23.398 Y25.887
G17 G3 X23.506 Y25.977 I0.009 J0.1
G2 X23.987 Y26.946 I1.494 J-0.138
G3 X23.99 Y27.09 I-0.068 J0.074
X23.846 Y27.087 I-0.071 J-0.071
G2 X22.74 Y26.6 I-1.106 J1.013
G1 X15.26
G2 X14.154 Y27.087 J1.5
G3 X14.01 Y27.09 I-0.074 J-0.068
X14.013 Y26.946 I0.071 J-0.071
G2 X14.5 Y25.84 I-1.013 J-1.106
G1 Y21.26
G2 X14.013 Y20.154 I-1.5
G3 X14.01 Y20.01 I0.068 J-0.074
X14.154 Y20.013 I0.071 J0.071
G2 X15.26 Y20.5 I1.106 J-1.013
G1 X22.74
G2 X23.846 Y20.013 J-1.5
G3 X23.99 Y20.01 I0.074 J0.068
X23.987 Y20.154 I-0.071 J0.071
G2 X23.5 Y21.26 I1.013 J1.106
G1 Y25.84
G2 X23.506 Y25.977 I1.5
G3 X23.416 Y26.086 I-0.1 J0.009
G1 X23.316 Y26.095
X23.278 Y26.099 Z-0.902
X23.246 Y26.102 Z-0.881
X23.224 Y26.104 Z-0.848
X23.217 Y26.105 Z-0.81
G0 Z5.
X23.198 Y25.905
G1 Z1.09 F320.
Z-1.72
X23.206 Z-1.758
X23.228 Y25.903 Z-1.791
X23.26 Y25.9 Z-1.812
X23.298 Y25.896 Z-1.82
X23.398 Y25.887
G3 X23.506 Y25.977 I0.009 J0.1
G2 X23.987 Y26.946 I1.494 J-0.138
G3 X23.99 Y27.09 I-0.068 J0.074
X23.846 Y27.087 I-0.071 J-0.071
G2 X22.74 Y26.6 I-1.106 J1.013
G1 X15.26
G2 X14.154 Y27.087 J1.5
G3 X14.01 Y27.09 I-0.074 J-0.068
X14.013 Y26.946 I0.071 J-0.071
G2 X14.5 Y25.84 I-1.013 J-1.106
G1 Y21.26
G2 X14.013 Y20.154 I-1.5
G3 X14.01 Y20.01 I0.068 J-0.074
X14.154 Y20.013 I0.071 J0.071
G2 X15.26 Y20.5 I1.106 J-1.013
G1 X22.74
G2 X23.846 Y20.013 J-1.5
G3 X23.99 Y20.01 I0.074 J0.068
X23.987 Y20.154 I-0.071 J0.071
G2 X23.5 Y21.26 I1.013 J1.106
G1 Y25.84
G2 X23.506 Y25.977 I1.5
G3 X23.416 Y26.086 I-0.1 J0.009
G1 X23.316 Y26.095
X23.278 Y26.099 Z-1.812
X23.246 Y26.102 Z-1.791
X23.224 Y26.104 Z-1.758
X23.217 Y26.105 Z-1.72
G0 Z5.
X23.198 Y25.905
G1 Z0.18 F320.
Z-2.63
X23.206 Z-2.668
X23.228 Y25.903 Z-2.701
X23.26 Y25.9 Z-2.722
X23.298 Y25.896 Z-2.73
X23.398 Y25.887
G3 X23.506 Y25.977 I0.009 J0.1
G2 X23.987 Y26.946 I1.494 J-0.138
G3 X23.99 Y27.09 I-0.068 J0.074
X23.846 Y27.087 I-0.071 J-0.071
G2 X22.74 Y26.6 I-1.106 J1.013
G1 X15.26
G2 X14.154 Y27.087 J1.5
G3 X14.01 Y27.09 I-0.074 J-0.068
X14.013 Y26.946 I0.071 J-0.071
G2 X14.5 Y25.84 I-1.013 J-1.106
G1 Y21.26
G2 X14.013 Y20.154 I-1.5
G3 X14.01 Y20.01 I0.068 J-0.074
X14.154 Y20.013 I0.071 J0.071
G2 X15.26 Y20.5 I1.106 J-1.013
G1 X22.74
G2 X23.846 Y20.013 J-1.5
G3 X23.99 Y20.01 I0.074 J0.068
X23.987 Y20.154 I-0.071 J0.071
G2 X23.5 Y21.26 I1.013 J1.106
G1 Y25.84
G2 X23.506 Y25.977 I1.5
G3 X23.416 Y26.086 I-0.1 J0.009
G1 X23.316 Y26.095
X23.278 Y26.099 Z-2.722
X23.246 Y26.102 Z-2.701
X23.224 Y26.104 Z-2.668
X23.217 Y26.105 Z-2.63
G0 Z5.
X23.198 Y25.905
G1 Z-0.73 F320.
Z-3.54
X23.206 Z-3.578
X23.228 Y25.903 Z-3.611
X23.26 Y25.9 Z-3.632
X23.298 Y25.896 Z-3.64
X23.398 Y25.887
G3 X23.506 Y25.977 I0.009 J0.1
G2 X23.987 Y26.946 I1.494 J-0.138
G3 X23.99 Y27.09 I-0.068 J0.074
X23.846 Y27.087 I-0.071 J-0.071
G2 X22.74 Y26.6 I-1.106 J1.013
G1 X15.26
G2 X14.154 Y27.087 J1.5
G3 X14.01 Y27.09 I-0.074 J-0.068
X14.013 Y26.946 I0.071 J-0.071
G2 X14.5 Y25.84 I-1.013 J-1.106
G1 Y21.26
G2 X14.013 Y20.154 I-1.5
G3 X14.01 Y20.01 I0.068 J-0.074
X14.154 Y20.013 I0.071 J0.071
G2 X15.26 Y20.5 I1.106 J-1.013
G1 X22.74
G2 X23.846 Y20.013 J-1.5
G3 X23.99 Y20.01 I0.074 J0.068
X23.987 Y20.154 I-0.071 J0.071
G2 X23.5 Y21.26 I1.013 J1.106
G1 Y25.84
G2 X23.506 Y25.977 I1.5
G3 X23.416 Y26.086 I-0.1 J0.009
G1 X23.316 Y26.095
X23.278 Y26.099 Z-3.632
X23.246 Y26.102 Z-3.611
X23.224 Y26.104 Z-3.578
X23.217 Y26.105 Z-3.54
G0 Z5.
X23.198 Y25.905
G1 Z-1.64 F320.
Z-4.45
X23.206 Z-4.488
X23.228 Y25.903 Z-4.521
X23.26 Y25.9 Z-4.542
X23.298 Y25.896 Z-4.55
X23.398 Y25.887
G3 X23.506 Y25.977 I0.009 J0.1
G2 X23.987 Y26.946 I1.494 J-0.138
G3 X23.99 Y27.09 I-0.068 J0.074
X23.846 Y27.087 I-0.071 J-0.071
G2 X22.74 Y26.6 I-1.106 J1.013
G1 X15.26
G2 X14.154 Y27.087 J1.5
G3 X14.01 Y27.09 I-0.074 J-0.068
X14.013 Y26.946 I0.071 J-0.071
G2 X14.5 Y25.84 I-1.013 J-1.106
G1 Y21.26
G2 X14.013 Y20.154 I-1.5
G3 X14.01 Y20.01 I0.068 J-0.074
X14.154 Y20.013 I0.071 J0.071
G2 X15.26 Y20.5 I1.106 J-1.013
G1 X22.74
G2 X23.846 Y20.013 J-1.5
G3 X23.99 Y20.01 I0.074 J0.068
X23.987 Y20.154 I-0.071 J0.071
G2 X23.5 Y21.26 I1.013 J1.106
G1 Y25.84
G2 X23.506 Y25.977 I1.5
G3 X23.416 Y26.086 I-0.1 J0.009
G1 X23.316 Y26.095
X23.278 Y26.099 Z-4.542
X23.246 Y26.102 Z-4.521
X23.224 Y26.104 Z-4.488
X23.217 Y26.105 Z-4.45
G0 Z5.
X23.198 Y25.905
G1 Z-2.55 F320.
Z-5.36
X23.206 Z-5.398
X23.228 Y25.903 Z-5.431
X23.26 Y25.9 Z-5.452
X23.298 Y25.896 Z-5.46
X23.398 Y25.887
G3 X23.506 Y25.977 I0.009 J0.1
G2 X23.987 Y26.946 I1.494 J-0.138
G3 X23.99 Y27.09 I-0.068 J0.074
X23.846 Y27.087 I-0.071 J-0.071
G2 X22.74 Y26.6 I-1.106 J1.013
G1 X15.26
G2 X14.154 Y27.087 J1.5
G3 X14.01 Y27.09 I-0.074 J-0.068
X14.013 Y26.946 I0.071 J-0.071
G2 X14.5 Y25.84 I-1.013 J-1.106
G1 Y21.26
G2 X14.013 Y20.154 I-1.5
G3 X14.01 Y20.01 I0.068 J-0.074
X14.154 Y20.013 I0.071 J0.071
G2 X15.26 Y20.5 I1.106 J-1.013
G1 X22.74
G2 X23.846 Y20.013 J-1.5
G3 X23.99 Y20.01 I0.074 J0.068
X23.987 Y20.154 I-0.071 J0.071
G2 X23.5 Y21.26 I1.013 J1.106
G1 Y25.84
G2 X23.506 Y25.977 I1.5
G3 X23.416 Y26.086 I-0.1 J0.009
G1 X23.316 Y26.095
X23.278 Y26.099 Z-5.452
X23.246 Y26.102 Z-5.431
X23.224 Y26.104 Z-5.398
X23.217 Y26.105 Z-5.36
G0 Z5.
X23.198 Y25.905
G1 Z-3.46 F320.
Z-6.27
X23.206 Z-6.308
X23.228 Y25.903 Z-6.341
X23.26 Y25.9 Z-6.362
X23.298 Y25.896 Z-6.37
X23.398 Y25.887
G3 X23.506 Y25.977 I0.009 J0.1
G2 X23.987 Y26.946 I1.494 J-0.138
G3 X23.99 Y27.09 I-0.068 J0.074
X23.846 Y27.087 I-0.071 J-0.071
G2 X22.74 Y26.6 I-1.106 J1.013
G1 X15.26
G2 X14.154 Y27.087 J1.5
G3 X14.01 Y27.09 I-0.074 J-0.068
X14.013 Y26.946 I0.071 J-0.071
G2 X14.5 Y25.84 I-1.013 J-1.106
G1 Y21.26
G2 X14.013 Y20.154 I-1.5
G3 X14.01 Y20.01 I0.068 J-0.074
X14.154 Y20.013 I0.071 J0.071
G2 X15.26 Y20.5 I1.106 J-1.013
G1 X22.74
G2 X23.846 Y20.013 J-1.5
G3 X23.99 Y20.01 I0.074 J0.068
X23.987 Y20.154 I-0.071 J0.071
G2 X23.5 Y21.26 I1.013 J1.106
G1 Y25.84
G2 X23.506 Y25.977 I1.5
G3 X23.416 Y26.086 I-0.1 J0.009
G1 X23.316 Y26.095
X23.278 Y26.099 Z-6.362
X23.246 Y26.102 Z-6.341
X23.224 Y26.104 Z-6.308
X23.217 Y26.105 Z-6.27
G0 Z5.
X23.198 Y25.905
G1 Z-4.37 F320.
Z-7.18
X23.206 Z-7.218
X23.228 Y25.903 Z-7.251
X23.26 Y25.9 Z-7.272
X23.298 Y25.896 Z-7.28
X23.398 Y25.887
G3 X23.506 Y25.977 I0.009 J0.1
G2 X23.987 Y26.946 I1.494 J-0.138
G3 X23.99 Y27.09 I-0.068 J0.074
X23.846 Y27.087 I-0.071 J-0.071
G2 X22.74 Y26.6 I-1.106 J1.013
G1 X15.26
G2 X14.154 Y27.087 J1.5
G3 X14.01 Y27.09 I-0.074 J-0.068
X14.013 Y26.946 I0.071 J-0.071
G2 X14.5 Y25.84 I-1.013 J-1.106
G1 Y21.26
G2 X14.013 Y20.154 I-1.5
G3 X14.01 Y20.01 I0.068 J-0.074
X14.154 Y20.013 I0.071 J0.071
G2 X15.26 Y20.5 I1.106 J-1.013
G1 X22.74
G2 X23.846 Y20.013 J-1.5
G3 X23.99 Y20.01 I0.074 J0.068
X23.987 Y20.154 I-0.071 J0.071
G2 X23.5 Y21.26 I1.013 J1.106
G1 Y25.84
G2 X23.506 Y25.977 I1.5
G3 X23.416 Y26.086 I-0.1 J0.009
G1 X23.316 Y26.095
X23.278 Y26.099 Z-7.272
X23.246 Y26.102 Z-7.251
X23.224 Y26.104 Z-7.218
X23.217 Y26.105 Z-7.18
G0 Z5.
X23.198 Y25.905
G1 Z-5.28 F320.
Z-8.09
X23.206 Z-8.128
X23.228 Y25.903 Z-8.161
X23.26 Y25.9 Z-8.182
X23.298 Y25.896 Z-8.19
X23.398 Y25.887
G3 X23.506 Y25.977 I0.009 J0.1
G2 X23.987 Y26.946 I1.494 J-0.138
G3 X23.99 Y27.09 I-0.068 J0.074
X23.846 Y27.087 I-0.071 J-0.071
G2 X22.74 Y26.6 I-1.106 J1.013
G1 X15.26
G2 X14.154 Y27.087 J1.5
G3 X14.01 Y27.09 I-0.074 J-0.068
X14.013 Y26.946 I0.071 J-0.071
G2 X14.5 Y25.84 I-1.013 J-1.106
G1 Y21.26
G2 X14.013 Y20.154 I-1.5
G3 X14.01 Y20.01 I0.068 J-0.074
X14.154 Y20.013 I0.071 J0.071
G2 X15.26 Y20.5 I1.106 J-1.013
G1 X22.74
G2 X23.846 Y20.013 J-1.5
G3 X23.99 Y20.01 I0.074 J0.068
X23.987 Y20.154 I-0.071 J0.071
G2 X23.5 Y21.26 I1.013 J1.106
G1 Y25.84
G2 X23.506 Y25.977 I1.5
G3 X23.416 Y26.086 I-0.1 J0.009
G1 X23.316 Y26.095
X23.278 Y26.099 Z-8.182
X23.246 Y26.102 Z-8.161
X23.224 Y26.104 Z-8.128
X23.217 Y26.105 Z-8.09
G0 Z5.
X23.198 Y25.905
G1 Z-6.19 F320.
Z-9.
X23.206 Z-9.038
X23.228 Y25.903 Z-9.071
X23.26 Y25.9 Z-9.092
X23.298 Y25.896 Z-9.1
X23.398 Y25.887
G3 X23.506 Y25.977 I0.009 J0.1
G2 X23.987 Y26.946 I1.494 J-0.138
G3 X23.99 Y27.09 I-0.068 J0.074
X23.846 Y27.087 I-0.071 J-0.071
G2 X22.74 Y26.6 I-1.106 J1.013
G1 X15.26
G2 X14.154 Y27.087 J1.5
G3 X14.01 Y27.09 I-0.074 J-0.068
X14.013 Y26.946 I0.071 J-0.071
G2 X14.5 Y25.84 I-1.013 J-1.106
G1 Y21.26
G2 X14.013 Y20.154 I-1.5
G3 X14.01 Y20.01 I0.068 J-0.074
X14.154 Y20.013 I0.071 J0.071
G2 X15.26 Y20.5 I1.106 J-1.013
G1 X22.74
G2 X23.846 Y20.013 J-1.5
G3 X23.99 Y20.01 I0.074 J0.068
X23.987 Y20.154 I-0.071 J0.071
G2 X23.5 Y21.26 I1.013 J1.106
G1 Y25.84
G2 X23.506 Y25.977 I1.5
G3 X23.416 Y26.086 I-0.1 J0.009
G1 X23.316 Y26.095
X23.278 Y26.099 Z-9.092
X23.246 Y26.102 Z-9.071
X23.224 Y26.104 Z-9.038
X23.217 Y26.105 Z-9.
G0 Z5.
X39.195 Y26.298
G1 Z2. F320.
Z-0.81
Y26.306 Z-0.848
X39.197 Y26.328 Z-0.881
X39.2 Y26.36 Z-0.902
X39.204 Y26.398 Z-0.91
X39.213 Y26.498
G3 X39.123 Y26.606 I-0.1 J0.009
G2 X38.154 Y27.087 I0.138 J1.494
G3 X38.01 Y27.09 I-0.074 J-0.068
X38.013 Y26.946 I0.071 J-0.071
G2 X38.5 Y25.84 I-1.013 J-1.106
G1 Y21.26
G2 X38.013 Y20.154 I-1.5
G3 X38.01 Y20.01 I0.068 J-0.074
X38.154 Y20.013 I0.071 J0.071
G2 X39.261 Y20.5 I1.106 J-1.013
G1 X46.739
G2 X47.846 Y20.013 J-1.5
G3 X47.99 Y20.01 I0.074 J0.068
X47.987 Y20.154 I-0.071 J0.071
G2 X47.5 Y21.26 I1.013 J1.106
G1 Y25.84
G2 X47.987 Y26.946 I1.5
G3 X47.99 Y27.09 I-0.068 J0.074
X47.846 Y27.087 I-0.071 J-0.071
G2 X46.739 Y26.6 I-1.106 J1.013
G1 X39.261
G2 X39.123 Y26.606 J1.5
G3 X39.014 Y26.516 I-0.009 J-0.1
G1 X39.005 Y26.416
X39.001 Y26.378 Z-0.902
X38.998 Y26.346 Z-0.881
X38.996 Y26.324 Z-0.848
X38.995 Y26.317 Z-0.81
G0 Z5.
X39.195 Y26.298
G1 Z1.09 F320.
Z-1.72
Y26.306 Z-1.758
X39.197 Y26.328 Z-1.791
X39.2 Y26.36 Z-1.812
X39.204 Y26.398 Z-1.82
X39.213 Y26.498
G3 X39.123 Y26.606 I-0.1 J0.009
G2 X38.154 Y27.087 I0.138 J1.494
G3 X38.01 Y27.09 I-0.074 J-0.068
X38.013 Y26.946 I0.071 J-0.071
G2 X38.5 Y25.84 I-1.013 J-1.106
G1 Y21.26
G2 X38.013 Y20.154 I-1.5
G3 X38.01 Y20.01 I0.068 J-0.074
X38.154 Y20.013 I0.071 J0.071
G2 X39.261 Y20.5 I1.106 J-1.013
G1 X46.739
G2 X47.846 Y20.013 J-1.5
G3 X47.99 Y20.01 I0.074 J0.068
X47.987 Y20.154 I-0.071 J0.071
G2 X47.5 Y21.26 I1.013 J1.106
G1 Y25.84
G2 X47.987 Y26.946 I1.5
G3 X47.99 Y27.09 I-0.068 J0.074
X47.846 Y27.087 I-0.071 J-0.071
G2 X46.739 Y26.6 I-1.106 J1.013
G1 X39.261
G2 X39.123 Y26.606 J1.5
G3 X39.014 Y26.516 I-0.009 J-0.1
G1 X39.005 Y26.416
X39.001 Y26.378 Z-1.812
X38.998 Y26.346 Z-1.791
X38.996 Y26.324 Z-1.758
X38.995 Y26.317 Z-1.72
G0 Z5.
X39.195 Y26.298
G1 Z0.18 F320.
Z-2.63
Y26.306 Z-2.668
X39.197 Y26.328 Z-2.701
X39.2 Y26.36 Z-2.722
X39.204 Y26.398 Z-2.73
X39.213 Y26.498
G3 X39.123 Y26.606 I-0.1 J0.009
G2 X38.154 Y27.087 I0.138 J1.494
G3 X38.01 Y27.09 I-0.074 J-0.068
X38.013 Y26.946 I0.071 J-0.071
G2 X38.5 Y25.84 I-1.013 J-1.106
G1 Y21.26
G2 X38.013 Y20.154 I-1.5
G3 X38.01 Y20.01 I0.068 J-0.074
X38.154 Y20.013 I0.071 J0.071
G2 X39.261 Y20.5 I1.106 J-1.013
G1 X46.739
G2 X47.846 Y20.013 J-1.5
G3 X47.99 Y20.01 I0.074 J0.068
X47.987 Y20.154 I-0.071 J0.071
G2 X47.5 Y21.26 I1.013 J1.106
G1 Y25.84
G2 X47.987 Y26.946 I1.5
G3 X47.99 Y27.09 I-0.068 J0.074
X47.846 Y27.087 I-0.071 J-0.071
G2 X46.739 Y26.6 I-1.106 J1.013
G1 X39.261
G2 X39.123 Y26.606 J1.5
G3 X39.014 Y26.516 I-0.009 J-0.1
G1 X39.005 Y26.416
X39.001 Y26.378 Z-2.722
X38.998 Y26.346 Z-2.701
X38.996 Y26.324 Z-2.668
X38.995 Y26.317 Z-2.63
G0 Z5.
X39.195 Y26.298
G1 Z-0.73 F320.
Z-3.54
Y26.306 Z-3.578
X39.197 Y26.328 Z-3.611
X39.2 Y26.36 Z-3.632
X39.204 Y26.398 Z-3.64
X39.213 Y26.498
G3 X39.123 Y26.606 I-0.1 J0.009
G2 X38.154 Y27.087 I0.138 J1.494
G3 X38.01 Y27.09 I-0.074 J-0.068
X38.013 Y26.946 I0.071 J-0.071
G2 X38.5 Y25.84 I-1.013 J-1.106
G1 Y21.26
G2 X38.013 Y20.154 I-1.5
G3 X38.01 Y20.01 I0.068 J-0.074
X38.154 Y20.013 I0.071 J0.071
G2 X39.261 Y20.5 I1.106 J-1.013
G1 X46.739
G2 X47.846 Y20.013 J-1.5
G3 X47.99 Y20.01 I0.074 J0.068
X47.987 Y20.154 I-0.071 J0.071
G2 X47.5 Y21.26 I1.013 J1.106
G1 Y25.84
G2 X47.987 Y26.946 I1.5
G3 X47.99 Y27.09 I-0.068 J0.074
X47.846 Y27.087 I-0.071 J-0.071
G2 X46.739 Y26.6 I-1.106 J1.013
G1 X39.261
G2 X39.123 Y26.606 J1.5
G3 X39.014 Y26.516 I-0.009 J-0.1
G1 X39.005 Y26.416
X39.001 Y26.378 Z-3.632
X38.998 Y26.346 Z-3.611
X38.996 Y26.324 Z-3.578
X38.995 Y26.317 Z-3.54
G0 Z5.
X39.195 Y26.298
G1 Z-1.64 F320.
Z-4.45
Y26.306 Z-4.488
X39.197 Y26.328 Z-4.521
X39.2 Y26.36 Z-4.542
X39.204 Y26.398 Z-4.55
X39.213 Y26.498
G3 X39.123 Y26.606 I-0.1 J0.009
G2 X38.154 Y27.087 I0.138 J1.494
G3 X38.01 Y27.09 I-0.074 J-0.068
X38.013 Y26.946 I0.071 J-0.071
G2 X38.5 Y25.84 I-1.013 J-1.106
G1 Y21.26
G2 X38.013 Y20.154 I-1.5
G3 X38.01 Y20.01 I0.068 J-0.074
X38.154 Y20.013 I0.071 J0.071
G2 X39.261 Y20.5 I1.106 J-1.013
G1 X46.739
G2 X47.846 Y20.013 J-1.5
G3 X47.99 Y20.01 I0.074 J0.068
X47.987 Y20.154 I-0.071 J0.071
G2 X47.5 Y21.26 I1.013 J1.106
G1 Y25.84
G2 X47.987 Y26.946 I1.5
G3 X47.99 Y27.09 I-0.068 J0.074
X47.846 Y27.087 I-0.071 J-0.071
G2 X46.739 Y26.6 I-1.106 J1.013
G1 X39.261
G2 X39.123 Y26.606 J1.5
G3 X39.014 Y26.516 I-0.009 J-0.1
G1 X39.005 Y26.416
X39.001 Y26.378 Z-4.542
X38.998 Y26.346 Z-4.521
X38.996 Y26.324 Z-4.488
X38.995 Y26.317 Z-4.45
G0 Z5.
X39.195 Y26.298
G1 Z-2.55 F320.
Z-5.36
Y26.306 Z-5.398
X39.197 Y26.328 Z-5.431
X39.2 Y26.36 Z-5.452
X39.204 Y26.398 Z-5.46
X39.213 Y26.498
G3 X39.123 Y26.606 I-0.1 J0.009
G2 X38.154 Y27.087 I0.138 J1.494
G3 X38.01 Y27.09 I-0.074 J-0.068
X38.013 Y26.946 I0.071 J-0.071
G2 X38.5 Y25.84 I-1.013 J-1.106
G1 Y21.26
G2 X38.013 Y20.154 I-1.5
G3 X38.01 Y20.01 I0.068 J-0.074
X38.154 Y20.013 I0.071 J0.071
G2 X39.261 Y20.5 I1.106 J-1.013
G1 X46.739
G2 X47.846 Y20.013 J-1.5
G3 X47.99 Y20.01 I0.074 J0.068
X47.987 Y20.154 I-0.071 J0.071
G2 X47.5 Y21.26 I1.013 J1.106
G1 Y25.84
G2 X47.987 Y26.946 I1.5
G3 X47.99 Y27.09 I-0.068 J0.074
X47.846 Y27.087 I-0.071 J-0.071
G2 X46.739 Y26.6 I-1.106 J1.013
G1 X39.261
G2 X39.123 Y26.606 J1.5
G3 X39.014 Y26.516 I-0.009 J-0.1
G1 X39.005 Y26.416
X39.001 Y26.378 Z-5.452
X38.998 Y26.346 Z-5.431
X38.996 Y26.324 Z-5.398
X38.995 Y26.317 Z-5.36
G0 Z5.
X39.195 Y26.298
G1 Z-3.46 F320.
Z-6.27
Y26.306 Z-6.308
X39.197 Y26.328 Z-6.341
X39.2 Y26.36 Z-6.362
X39.204 Y26.398 Z-6.37
X39.213 Y26.498
G3 X39.123 Y26.606 I-0.1 J0.009
G2 X38.154 Y27.087 I0.138 J1.494
G3 X38.01 Y27.09 I-0.074 J-0.068
X38.013 Y26.946 I0.071 J-0.071
G2 X38.5 Y25.84 I-1.013 J-1.106
G1 Y21.26
G2 X38.013 Y20.154 I-1.5
G3 X38.01 Y20.01 I0.068 J-0.074
X38.154 Y20.013 I0.071 J0.071
G2 X39.261 Y20.5 I1.106 J-1.013
G1 X46.739
G2 X47.846 Y20.013 J-1.5
G3 X47.99 Y20.01 I0.074 J0.068
X47.987 Y20.154 I-0.071 J0.071
G2 X47.5 Y21.26 I1.013 J1.106
G1 Y25.84
G2 X47.987 Y26.946 I1.5
G3 X47.99 Y27.09 I-0.068 J0.074
X47.846 Y27.087 I-0.071 J-0.071
G2 X46.739 Y26.6 I-1.106 J1.013
G1 X39.261
G2 X39.123 Y26.606 J1.5
G3 X39.014 Y26.516 I-0.009 J-0.1
G1 X39.005 Y26.416
X39.001 Y26.378 Z-6.362
X38.998 Y26.346 Z-6.341
X38.996 Y26.324 Z-6.308
X38.995 Y26.317 Z-6.27
G0 Z5.
X39.195 Y26.298
G1 Z-4.37 F320.
Z-7.18
Y26.306 Z-7.218
X39.197 Y26.328 Z-7.251
X39.2 Y26.36 Z-7.272
X39.204 Y26.398 Z-7.28
X39.213 Y26.498
G3 X39.123 Y26.606 I-0.1 J0.009
G2 X38.154 Y27.087 I0.138 J1.494
G3 X38.01 Y27.09 I-0.074 J-0.068
X38.013 Y26.946 I0.071 J-0.071
G2 X38.5 Y25.84 I-1.013 J-1.106
G1 Y21.26
G2 X38.013 Y20.154 I-1.5
G3 X38.01 Y20.01 I0.068 J-0.074
X38.154 Y20.013 I0.071 J0.071
G2 X39.261 Y20.5 I1.106 J-1.013
G1 X46.739
G2 X47.846 Y20.013 J-1.5
G3 X47.99 Y20.01 I0.074 J0.068
X47.987 Y20.154 I-0.071 J0.071
G2 X47.5 Y21.26 I1.013 J1.106
G1 Y25.84
G2 X47.987 Y26.946 I1.5
G3 X47.99 Y27.09 I-0.068 J0.074
X47.846 Y27.087 I-0.071 J-0.071
G2 X46.739 Y26.6 I-1.106 J1.013
G1 X39.261
G2 X39.123 Y26.606 J1.5
G3 X39.014 Y26.516 I-0.009 J-0.1
G1 X39.005 Y26.416
X39.001 Y26.378 Z-7.272
X38.998 Y26.346 Z-7.251
X38.996 Y26.324 Z-7.218
X38.995 Y26.317 Z-7.18
G0 Z5.
X39.195 Y26.298
G1 Z-5.28 F320.
Z-8.09
Y26.306 Z-8.128
X39.197 Y26.328 Z-8.161
X39.2 Y26.36 Z-8.182
X39.204 Y26.398 Z-8.19
X39.213 Y26.498
G3 X39.123 Y26.606 I-0.1 J0.009
G2 X38.154 Y27.087 I0.138 J1.494
G3 X38.01 Y27.09 I-0.074 J-0.068
X38.013 Y26.946 I0.071 J-0.071
G2 X38.5 Y25.84 I-1.013 J-1.106
G1 Y21.26
G2 X38.013 Y20.154 I-1.5
G3 X38.01 Y20.01 I0.068 J-0.074
X38.154 Y20.013 I0.071 J0.071
G2 X39.261 Y20.5 I1.106 J-1.013
G1 X46.739
G2 X47.846 Y20.013 J-1.5
G3 X47.99 Y20.01 I0.074 J0.068
X47.987 Y20.154 I-0.071 J0.071
G2 X47.5 Y21.26 I1.013 J1.106
G1 Y25.84
G2 X47.987 Y26.946 I1.5
G3 X47.99 Y27.09 I-0.068 J0.074
X47.846 Y27.087 I-0.071 J-0.071
G2 X46.739 Y26.6 I-1.106 J1.013
G1 X39.261
G2 X39.123 Y26.606 J1.5
G3 X39.014 Y26.516 I-0.009 J-0.1
G1 X39.005 Y26.416
X39.001 Y26.378 Z-8.182
X38.998 Y26.346 Z-8.161
X38.996 Y26.324 Z-8.128
X38.995 Y26.317 Z-8.09
G0 Z5.
X39.195 Y26.298
G1 Z-6.19 F320.
Z-9.
Y26.306 Z-9.038
X39.197 Y26.328 Z-9.071
X39.2 Y26.36 Z-9.092
X39.204 Y26.398 Z-9.1
X39.213 Y26.498
G3 X39.123 Y26.606 I-0.1 J0.009
G2 X38.154 Y27.087 I0.138 J1.494
G3 X38.01 Y27.09 I-0.074 J-0.068
X38.013 Y26.946 I0.071 J-0.071
G2 X38.5 Y25.84 I-1.013 J-1.106
G1 Y21.26
G2 X38.013 Y20.154 I-1.5
G3 X38.01 Y20.01 I0.068 J-0.074
X38.154 Y20.013 I0.071 J0.071
G2 X39.261 Y20.5 I1.106 J-1.013
G1 X46.739
G2 X47.846 Y20.013 J-1.5
G3 X47.99 Y20.01 I0.074 J0.068
X47.987 Y20.154 I-0.071 J0.071
G2 X47.5 Y21.26 I1.013 J1.106
G1 Y25.84
G2 X47.987 Y26.946 I1.5
G3 X47.99 Y27.09 I-0.068 J0.074
X47.846 Y27.087 I-0.071 J-0.071
G2 X46.739 Y26.6 I-1.106 J1.013
G1 X39.261
G2 X39.123 Y26.606 J1.5
G3 X39.014 Y26.516 I-0.009 J-0.1
G1 X39.005 Y26.416
X39.001 Y26.378 Z-9.092
X38.998 Y26.346 Z-9.071
X38.996 Y26.324 Z-9.038
X38.995 Y26.317 Z-9.
G0 Z5.
X63.195 Y26.298
G1 Z2. F320.
Z-0.81
Y26.306 Z-0.848
X63.197 Y26.328 Z-0.881
X63.2 Y26.36 Z-0.902
X63.204 Y26.398 Z-0.91
X63.213 Y26.498
G3 X63.123 Y26.606 I-0.1 J0.009
G2 X62.154 Y27.087 I0.138 J1.494
G3 X62.01 Y27.09 I-0.074 J-0.068
X62.013 Y26.946 I0.071 J-0.071
G2 X62.5 Y25.84 I-1.013 J-1.106
G1 Y21.26
G2 X62.013 Y20.154 I-1.5
G3 X62.01 Y20.01 I0.068 J-0.074
X62.154 Y20.013 I0.071 J0.071
G2 X63.261 Y20.5 I1.106 J-1.013
G1 X70.74
G2 X71.846 Y20.013 J-1.5
G3 X71.99 Y20.01 I0.074 J0.068
X71.987 Y20.154 I-0.071 J0.071
G2 X71.5 Y21.26 I1.013 J1.106
G1 Y25.84
G2 X71.987 Y26.946 I1.5
G3 X71.99 Y27.09 I-0.068 J0.074
X71.846 Y27.087 I-0.071 J-0.071
G2 X70.74 Y26.6 I-1.106 J1.013
G1 X63.261
G2 X63.123 Y26.606 J1.5
G3 X63.014 Y26.516 I-0.009 J-0.1
G1 X63.005 Y26.416
X63.001 Y26.378 Z-0.902
X62.998 Y26.346 Z-0.881
X62.996 Y26.324 Z-0.848
X62.995 Y26.317 Z-0.81
G0 Z5.
X63.195 Y26.298
G1 Z1.09 F320.
Z-1.72
Y26.306 Z-1.758
X63.197 Y26.328 Z-1.791
X63.2 Y26.36 Z-1.812
X63.204 Y26.398 Z-1.82
X63.213 Y26.498
G3 X63.123 Y26.606 I-0.1 J0.009
G2 X62.154 Y27.087 I0.138 J1.494
G3 X62.01 Y27.09 I-0.074 J-0.068
X62.013 Y26.946 I0.071 J-0.071
G2 X62.5 Y25.84 I-1.013 J-1.106
G1 Y21.26
G2 X62.013 Y20.154 I-1.5
G3 X62.01 Y20.01 I0.068 J-0.074
X62.154 Y20.013 I0.071 J0.071
G2 X63.261 Y20.5 I1.106 J-1.013
G1 X70.74
G2 X71.846 Y20.013 J-1.5
G3 X71.99 Y20.01 I0.074 J0.068
X71.987 Y20.154 I-0.071 J0.071
G2 X71.5 Y21.26 I1.013 J1.106
G1 Y25.84
G2 X71.987 Y26.946 I1.5
G3 X71.99 Y27.09 I-0.068 J0.074
X71.846 Y27.087 I-0.071 J-0.071
G2 X70.74 Y26.6 I-1.106 J1.013
G1 X63.261
G2 X63.123 Y26.606 J1.5
G3 X63.014 Y26.516 I-0.009 J-0.1
G1 X63.005 Y26.416
X63.001 Y26.378 Z-1.812
X62.998 Y26.346 Z-1.791
X62.996 Y26.324 Z-1.758
X62.995 Y26.317 Z-1.72
G0 Z5.
X63.195 Y26.298
G1 Z0.18 F320.
Z-2.63
Y26.306 Z-2.668
X63.197 Y26.328 Z-2.701
X63.2 Y26.36 Z-2.722
X63.204 Y26.398 Z-2.73
X63.213 Y26.498
G3 X63.123 Y26.606 I-0.1 J0.009
G2 X62.154 Y27.087 I0.138 J1.494
G3 X62.01 Y27.09 I-0.074 J-0.068
X62.013 Y26.946 I0.071 J-0.071
G2 X62.5 Y25.84 I-1.013 J-1.106
G1 Y21.26
G2 X62.013 Y20.154 I-1.5
G3 X62.01 Y20.01 I0.068 J-0.074
X62.154 Y20.013 I0.071 J0.071
G2 X63.261 Y20.5 I1.106 J-1.013
G1 X70.74
G2 X71.846 Y20.013 J-1.5
G3 X71.99 Y20.01 I0.074 J0.068
X71.987 Y20.154 I-0.071 J0.071
G2 X71.5 Y21.26 I1.013 J1.106
G1 Y25.84
G2 X71.987 Y26.946 I1.5
G3 X71.99 Y27.09 I-0.068 J0.074
X71.846 Y27.087 I-0.071 J-0.071
G2 X70.74 Y26.6 I-1.106 J1.013
G1 X63.261
G2 X63.123 Y26.606 J1.5
G3 X63.014 Y26.516 I-0.009 J-0.1
G1 X63.005 Y26.416
X63.001 Y26.378 Z-2.722
X62.998 Y26.346 Z-2.701
X62.996 Y26.324 Z-2.668
X62.995 Y26.317 Z-2.63
G0 Z5.
X63.195 Y26.298
G1 Z-0.73 F320.
Z-3.54
Y26.306 Z-3.578
X63.197 Y26.328 Z-3.611
X63.2 Y26.36 Z-3.632
X63.204 Y26.398 Z-3.64
X63.213 Y26.498
G3 X63.123 Y26.606 I-0.1 J0.009
G2 X62.154 Y27.087 I0.138 J1.494
G3 X62.01 Y27.09 I-0.074 J-0.068
X62.013 Y26.946 I0.071 J-0.071
G2 X62.5 Y25.84 I-1.013 J-1.106
G1 Y21.26
G2 X62.013 Y20.154 I-1.5
G3 X62.01 Y20.01 I0.068 J-0.074
X62.154 Y20.013 I0.071 J0.071
G2 X63.261 Y20.5 I1.106 J-1.013
G1 X70.74
G2 X71.846 Y20.013 J-1.5
G3 X71.99 Y20.01 I0.074 J0.068
X71.987 Y20.154 I-0.071 J0.071
G2 X71.5 Y21.26 I1.013 J1.106
G1 Y25.84
G2 X71.987 Y26.946 I1.5
G3 X71.99 Y27.09 I-0.068 J0.074
X71.846 Y27.087 I-0.071 J-0.071
G2 X70.74 Y26.6 I-1.106 J1.013
G1 X63.261
G2 X63.123 Y26.606 J1.5
G3 X63.014 Y26.516 I-0.009 J-0.1
G1 X63.005 Y26.416
X63.001 Y26.378 Z-3.632
X62.998 Y26.346 Z-3.611
X62.996 Y26.324 Z-3.578
X62.995 Y26.317 Z-3.54
G0 Z5.
X63.195 Y26.298
G1 Z-1.64 F320.
Z-4.45
Y26.306 Z-4.488
X63.197 Y26.328 Z-4.521
X63.2 Y26.36 Z-4.542
X63.204 Y26.398 Z-4.55
X63.213 Y26.498
G3 X63.123 Y26.606 I-0.1 J0.009
G2 X62.154 Y27.087 I0.138 J1.494
G3 X62.01 Y27.09 I-0.074 J-0.068
X62.013 Y26.946 I0.071 J-0.071
G2 X62.5 Y25.84 I-1.013 J-1.106
G1 Y21.26
G2 X62.013 Y20.154 I-1.5
G3 X62.01 Y20.01 I0.068 J-0.074
X62.154 Y20.013 I0.071 J0.071
G2 X63.261 Y20.5 I1.106 J-1.013
G1 X70.74
G2 X71.846 Y20.013 J-1.5
G3 X71.99 Y20.01 I0.074 J0.068
X71.987 Y20.154 I-0.071 J0.071
G2 X71.5 Y21.26 I1.013 J1.106
G1 Y25.84
G2 X71.987 Y26.946 I1.5
G3 X71.99 Y27.09 I-0.068 J0.074
X71.846 Y27.087 I-0.071 J-0.071
G2 X70.74 Y26.6 I-1.106 J1.013
G1 X63.261
G2 X63.123 Y26.606 J1.5
G3 X63.014 Y26.516 I-0.009 J-0.1
G1 X63.005 Y26.416
X63.001 Y26.378 Z-4.542
X62.998 Y26.346 Z-4.521
X62.996 Y26.324 Z-4.488
X62.995 Y26.317 Z-4.45
G0 Z5.
X63.195 Y26.298
G1 Z-2.55 F320.
Z-5.36
Y26.306 Z-5.398
X63.197 Y26.328 Z-5.431
X63.2 Y26.36 Z-5.452
X63.204 Y26.398 Z-5.46
X63.213 Y26.498
G3 X63.123 Y26.606 I-0.1 J0.009
G2 X62.154 Y27.087 I0.138 J1.494
G3 X62.01 Y27.09 I-0.074 J-0.068
X62.013 Y26.946 I0.071 J-0.071
G2 X62.5 Y25.84 I-1.013 J-1.106
G1 Y21.26
G2 X62.013 Y20.154 I-1.5
G3 X62.01 Y20.01 I0.068 J-0.074
X62.154 Y20.013 I0.071 J0.071
G2 X63.261 Y20.5 I1.106 J-1.013
G1 X70.74
G2 X71.846 Y20.013 J-1.5
G3 X71.99 Y20.01 I0.074 J0.068
X71.987 Y20.154 I-0.071 J0.071
G2 X71.5 Y21.26 I1.013 J1.106
G1 Y25.84
G2 X71.987 Y26.946 I1.5
G3 X71.99 Y27.09 I-0.068 J0.074
X71.846 Y27.087 I-0.071 J-0.071
G2 X70.74 Y26.6 I-1.106 J1.013
G1 X63.261
G2 X63.123 Y26.606 J1.5
G3 X63.014 Y26.516 I-0.009 J-0.1
G1 X63.005 Y26.416
X63.001 Y26.378 Z-5.452
X62.998 Y26.346 Z-5.431
X62.996 Y26.324 Z-5.398
X62.995 Y26.317 Z-5.36
G0 Z5.
X63.195 Y26.298
G1 Z-3.46 F320.
Z-6.27
Y26.306 Z-6.308
X63.197 Y26.328 Z-6.341
X63.2 Y26.36 Z-6.362
X63.204 Y26.398 Z-6.37
X63.213 Y26.498
G3 X63.123 Y26.606 I-0.1 J0.009
G2 X62.154 Y27.087 I0.138 J1.494
G3 X62.01 Y27.09 I-0.074 J-0.068
X62.013 Y26.946 I0.071 J-0.071
G2 X62.5 Y25.84 I-1.013 J-1.106
G1 Y21.26
G2 X62.013 Y20.154 I-1.5
G3 X62.01 Y20.01 I0.068 J-0.074
X62.154 Y20.013 I0.071 J0.071
G2 X63.261 Y20.5 I1.106 J-1.013
G1 X70.74
G2 X71.846 Y20.013 J-1.5
G3 X71.99 Y20.01 I0.074 J0.068
X71.987 Y20.154 I-0.071 J0.071
G2 X71.5 Y21.26 I1.013 J1.106
G1 Y25.84
G2 X71.987 Y26.946 I1.5
G3 X71.99 Y27.09 I-0.068 J0.074
X71.846 Y27.087 I-0.071 J-0.071
G2 X70.74 Y26.6 I-1.106 J1.013
G1 X63.261
G2 X63.123 Y26.606 J1.5
G3 X63.014 Y26.516 I-0.009 J-0.1
G1 X63.005 Y26.416
X63.001 Y26.378 Z-6.362
X62.998 Y26.346 Z-6.341
X62.996 Y26.324 Z-6.308
X62.995 Y26.317 Z-6.27
G0 Z5.
X63.195 Y26.298
G1 Z-4.37 F320.
Z-7.18
Y26.306 Z-7.218
X63.197 Y26.328 Z-7.251
X63.2 Y26.36 Z-7.272
X63.204 Y26.398 Z-7.28
X63.213 Y26.498
G3 X63.123 Y26.606 I-0.1 J0.009
G2 X62.154 Y27.087 I0.138 J1.494
G3 X62.01 Y27.09 I-0.074 J-0.068
X62.013 Y26.946 I0.071 J-0.071
G2 X62.5 Y25.84 I-1.013 J-1.106
G1 Y21.26
G2 X62.013 Y20.154 I-1.5
G3 X62.01 Y20.01 I0.068 J-0.074
X62.154 Y20.013 I0.071 J0.071
G2 X63.261 Y20.5 I1.106 J-1.013
G1 X70.74
G2 X71.846 Y20.013 J-1.5
G3 X71.99 Y20.01 I0.074 J0.068
X71.987 Y20.154 I-0.071 J0.071
G2 X71.5 Y21.26 I1.013 J1.106
G1 Y25.84
G2 X71.987 Y26.946 I1.5
G3 X71.99 Y27.09 I-0.068 J0.074
X71.846 Y27.087 I-0.071 J-0.071
G2 X70.74 Y26.6 I-1.106 J1.013
G1 X63.261
G2 X63.123 Y26.606 J1.5
G3 X63.014 Y26.516 I-0.009 J-0.1
G1 X63.005 Y26.416
X63.001 Y26.378 Z-7.272
X62.998 Y26.346 Z-7.251
X62.996 Y26.324 Z-7.218
X62.995 Y26.317 Z-7.18
G0 Z5.
X63.195 Y26.298
G1 Z-5.28 F320.
Z-8.09
Y26.306 Z-8.128
X63.197 Y26.328 Z-8.161
X63.2 Y26.36 Z-8.182
X63.204 Y26.398 Z-8.19
X63.213 Y26.498
G3 X63.123 Y26.606 I-0.1 J0.009
G2 X62.154 Y27.087 I0.138 J1.494
G3 X62.01 Y27.09 I-0.074 J-0.068
X62.013 Y26.946 I0.071 J-0.071
G2 X62.5 Y25.84 I-1.013 J-1.106
G1 Y21.26
G2 X62.013 Y20.154 I-1.5
G3 X62.01 Y20.01 I0.068 J-0.074
X62.154 Y20.013 I0.071 J0.071
G2 X63.261 Y20.5 I1.106 J-1.013
G1 X70.74
G2 X71.846 Y20.013 J-1.5
G3 X71.99 Y20.01 I0.074 J0.068
X71.987 Y20.154 I-0.071 J0.071
G2 X71.5 Y21.26 I1.013 J1.106
G1 Y25.84
G2 X71.987 Y26.946 I1.5
G3 X71.99 Y27.09 I-0.068 J0.074
X71.846 Y27.087 I-0.071 J-0.071
G2 X70.74 Y26.6 I-1.106 J1.013
G1 X63.261
G2 X63.123 Y26.606 J1.5
G3 X63.014 Y26.516 I-0.009 J-0.1
G1 X63.005 Y26.416
X63.001 Y26.378 Z-8.182
X62.998 Y26.346 Z-8.161
X62.996 Y26.324 Z-8.128
X62.995 Y26.317 Z-8.09
G0 Z5.
X63.195 Y26.298
G1 Z-6.19 F320.
Z-9.
Y26.306 Z-9.038
X63.197 Y26.328 Z-9.071
X63.2 Y26.36 Z-9.092
X63.204 Y26.398 Z-9.1
X63.213 Y26.498
G3 X63.123 Y26.606 I-0.1 J0.009
G2 X62.154 Y27.087 I0.138 J1.494
G3 X62.01 Y27.09 I-0.074 J-0.068
X62.013 Y26.946 I0.071 J-0.071
G2 X62.5 Y25.84 I-1.013 J-1.106
G1 Y21.26
G2 X62.013 Y20.154 I-1.5
G3 X62.01 Y20.01 I0.068 J-0.074
X62.154 Y20.013 I0.071 J0.071
G2 X63.261 Y20.5 I1.106 J-1.013
G1 X70.74
G2 X71.846 Y20.013 J-1.5
G3 X71.99 Y20.01 I0.074 J0.068
X71.987 Y20.154 I-0.071 J0.071
G2 X71.5 Y21.26 I1.013 J1.106
G1 Y25.84
G2 X71.987 Y26.946 I1.5
G3 X71.99 Y27.09 I-0.068 J0.074
X71.846 Y27.087 I-0.071 J-0.071
G2 X70.74 Y26.6 I-1.106 J1.013
G1 X63.261
G2 X63.123 Y26.606 J1.5
G3 X63.014 Y26.516 I-0.009 J-0.1
G1 X63.005 Y26.416
X63.001 Y26.378 Z-9.092
X62.998 Y26.346 Z-9.071
X62.996 Y26.324 Z-9.038
X62.995 Y26.317 Z-9.
G0 Z5.
X192.99 Y143.8
G1 Z2. F320.
Z-0.81
G19 G2 Y143.7 Z-0.91 J-0.1
G1 Y143.6
G17 G3 X193.09 Y143.5 I0.1
G1 X203.
G3 Y144.5 J0.5
G1 X193.
G3 Y143.5 J-0.5
G1 X193.09
G3 X193.19 Y143.6 J0.1
G1 Y143.7
G19 G3 Y143.8 Z-0.81 K0.1
G0 Z5.
X192.99
G1 Z1.09 F320.
Z-1.72
G2 Y143.7 Z-1.82 J-0.1
G1 Y143.6
G17 G3 X193.09 Y143.5 I0.1
G1 X203.
G3 Y144.5 J0.5
G1 X193.
G3 Y143.5 J-0.5
G1 X193.09
G3 X193.19 Y143.6 J0.1
G1 Y143.7
G19 G3 Y143.8 Z-1.72 K0.1
G0 Z5.
X192.99
G1 Z0.18 F320.
Z-2.63
G2 Y143.7 Z-2.73 J-0.1
G1 Y143.6
G17 G3 X193.09 Y143.5 I0.1
G1 X203.
G3 Y144.5 J0.5
G1 X193.
G3 Y143.5 J-0.5
G1 X193.09
G3 X193.19 Y143.6 J0.1
G1 Y143.7
G19 G3 Y143.8 Z-2.63 K0.1
G0 Z5.
X192.99
G1 Z-0.73 F320.
Z-3.54
G2 Y143.7 Z-3.64 J-0.1
G1 Y143.6
G17 G3 X193.09 Y143.5 I0.1
G1 X203.
G3 Y144.5 J0.5
G1 X193.
G3 Y143.5 J-0.5
G1 X193.09
G3 X193.19 Y143.6 J0.1
G1 Y143.7
G19 G3 Y143.8 Z-3.54 K0.1
G0 Z5.
X192.99
G1 Z-1.64 F320.
Z-4.45
G2 Y143.7 Z-4.55 J-0.1
G1 Y143.6
G17 G3 X193.09 Y143.5 I0.1
G1 X203.
G3 Y144.5 J0.5
G1 X193.
G3 Y143.5 J-0.5
G1 X193.09
G3 X193.19 Y143.6 J0.1
G1 Y143.7
G19 G3 Y143.8 Z-4.45 K0.1
G0 Z5.
X192.99
G1 Z-2.55 F320.
Z-5.36
G2 Y143.7 Z-5.46 J-0.1
G1 Y143.6
G17 G3 X193.09 Y143.5 I0.1
G1 X203.
G3 Y144.5 J0.5
G1 X193.
G3 Y143.5 J-0.5
G1 X193.09
G3 X193.19 Y143.6 J0.1
G1 Y143.7
G19 G3 Y143.8 Z-5.36 K0.1
G0 Z5.
X192.99
G1 Z-3.46 F320.
Z-6.27
G2 Y143.7 Z-6.37 J-0.1
G1 Y143.6
G17 G3 X193.09 Y143.5 I0.1
G1 X203.
G3 Y144.5 J0.5
G1 X193.
G3 Y143.5 J-0.5
G1 X193.09
G3 X193.19 Y143.6 J0.1
G1 Y143.7
G19 G3 Y143.8 Z-6.27 K0.1
G0 Z5.
X192.99
G1 Z-4.37 F320.
Z-7.18
G2 Y143.7 Z-7.28 J-0.1
G1 Y143.6
G17 G3 X193.09 Y143.5 I0.1
G1 X203.
G3 Y144.5 J0.5
G1 X193.
G3 Y143.5 J-0.5
G1 X193.09
G3 X193.19 Y143.6 J0.1
G1 Y143.7
G19 G3 Y143.8 Z-7.18 K0.1
G0 Z5.
X192.99
G1 Z-5.28 F320.
Z-8.09
G2 Y143.7 Z-8.19 J-0.1
G1 Y143.6
G17 G3 X193.09 Y143.5 I0.1
G1 X203.
G3 Y144.5 J0.5
G1 X193.
G3 Y143.5 J-0.5
G1 X193.09
G3 X193.19 Y143.6 J0.1
G1 Y143.7
G19 G3 Y143.8 Z-8.09 K0.1
G0 Z5.
X192.99
G1 Z-6.19 F320.
Z-9.
G2 Y143.7 Z-9.1 J-0.1
G1 Y143.6
G17 G3 X193.09 Y143.5 I0.1
G1 X203.
G3 Y144.5 J0.5
G1 X193.
G3 Y143.5 J-0.5
G1 X193.09
G3 X193.19 Y143.6 J0.1
G1 Y143.7
G19 G3 Y143.8 Z-9. K0.1
G0 Z5.
X193.1 Y168.2
G1 Z2. F320.
Z-0.81
G3 Y168.3 Z-0.91 J0.1
G1 Y168.4
G17 G3 X193. Y168.5 I-0.1
Y167.5 J-0.5
G1 X203.
G3 Y168.5 J0.5
G1 X193.
G3 X192.9 Y168.4 J-0.1
G1 Y168.3
G19 G2 Y168.2 Z-0.81 K0.1
G0 Z5.
X193.1
G1 Z1.09 F320.
Z-1.72
G3 Y168.3 Z-1.82 J0.1
G1 Y168.4
G17 G3 X193. Y168.5 I-0.1
Y167.5 J-0.5
G1 X203.
G3 Y168.5 J0.5
G1 X193.
G3 X192.9 Y168.4 J-0.1
G1 Y168.3
G19 G2 Y168.2 Z-1.72 K0.1
G0 Z5.
X193.1
G1 Z0.18 F320.
Z-2.63
G3 Y168.3 Z-2.73 J0.1
G1 Y168.4
G17 G3 X193. Y168.5 I-0.1
Y167.5 J-0.5
G1 X203.
G3 Y168.5 J0.5
G1 X193.
G3 X192.9 Y168.4 J-0.1
G1 Y168.3
G19 G2 Y168.2 Z-2.63 K0.1
G0 Z5.
X193.1
G1 Z-0.73 F320.
Z-3.54
G3 Y168.3 Z-3.64 J0.1
G1 Y168.4
G17 G3 X193. Y168.5 I-0.1
Y167.5 J-0.5
G1 X203.
G3 Y168.5 J0.5
G1 X193.
G3 X192.9 Y168.4 J-0.1
G1 Y168.3
G19 G2 Y168.2 Z-3.54 K0.1
G0 Z5.
X193.1
G1 Z-1.64 F320.
Z-4.45
G3 Y168.3 Z-4.55 J0.1
G1 Y168.4
G17 G3 X193. Y168.5 I-0.1
Y167.5 J-0.5
G1 X203.
G3 Y168.5 J0.5
G1 X193.
G3 X192.9 Y168.4 J-0.1
G1 Y168.3
G19 G2 Y168.2 Z-4.45 K0.1
G0 Z5.
X193.1
G1 Z-2.55 F320.
Z-5.36
G3 Y168.3 Z-5.46 J0.1
G1 Y168.4
G17 G3 X193. Y168.5 I-0.1
Y167.5 J-0.5
G1 X203.
G3 Y168.5 J0.5
G1 X193.
G3 X192.9 Y168.4 J-0.1
G1 Y168.3
G19 G2 Y168.2 Z-5.36 K0.1
G0 Z5.
X193.1
G1 Z-3.46 F320.
Z-6.27
G3 Y168.3 Z-6.37 J0.1
G1 Y168.4
G17 G3 X193. Y168.5 I-0.1
Y167.5 J-0.5
G1 X203.
G3 Y168.5 J0.5
G1 X193.
G3 X192.9 Y168.4 J-0.1
G1 Y168.3
G19 G2 Y168.2 Z-6.27 K0.1
G0 Z5.
X193.1
G1 Z-4.37 F320.
Z-7.18
G3 Y168.3 Z-7.28 J0.1
G1 Y168.4
G17 G3 X193. Y168.5 I-0.1
Y167.5 J-0.5
G1 X203.
G3 Y168.5 J0.5
G1 X193.
G3 X192.9 Y168.4 J-0.1
G1 Y168.3
G19 G2 Y168.2 Z-7.18 K0.1
G0 Z5.
X193.1
G1 Z-5.28 F320.
Z-8.09
G3 Y168.3 Z-8.19 J0.1
G1 Y168.4
G17 G3 X193. Y168.5 I-0.1
Y167.5 J-0.5
G1 X203.
G3 Y168.5 J0.5
G1 X193.
G3 X192.9 Y168.4 J-0.1
G1 Y168.3
G19 G2 Y168.2 Z-8.09 K0.1
G0 Z5.
X193.1
G1 Z-6.19 F320.
Z-9.
G3 Y168.3 Z-9.1 J0.1
G1 Y168.4
G17 G3 X193. Y168.5 I-0.1
Y167.5 J-0.5
G1 X203.
G3 Y168.5 J0.5
G1 X193.
G3 X192.9 Y168.4 J-0.1
G1 Y168.3
G19 G2 Y168.2 Z-9. K0.1
G0 Z5.
X234.9 Y167.8
G1 Z2. F320.
Z-0.81
G2 Y167.7 Z-0.91 J-0.1
G1 Y167.6
G17 G3 X235. Y167.5 I0.1
G1 X245.
G3 Y168.5 J0.5
G1 X235.
G3 Y167.5 J-0.5
X235.1 Y167.6 J0.1
G1 Y167.7
G19 G3 Y167.8 Z-0.81 K0.1
G0 Z5.
Y168.2
G1 Z1.09 F320.
Z-1.72
G3 Y168.3 Z-1.82 J0.1
G1 Y168.4
G17 G3 X235. Y168.5 I-0.1
Y167.5 J-0.5
G1 X245.
G3 Y168.5 J0.5
G1 X235.
G3 X234.9 Y168.4 J-0.1
G1 Y168.3
G19 G2 Y168.2 Z-1.72 K0.1
G0 Z5.
Y167.8
G1 Z0.18 F320.
Z-2.63
G2 Y167.7 Z-2.73 J-0.1
G1 Y167.6
G17 G3 X235. Y167.5 I0.1
G1 X245.
G3 Y168.5 J0.5
G1 X235.
G3 Y167.5 J-0.5
X235.1 Y167.6 J0.1
G1 Y167.7
G19 G3 Y167.8 Z-2.63 K0.1
G0 Z5.
Y168.2
G1 Z-0.73 F320.
Z-3.54
G3 Y168.3 Z-3.64 J0.1
G1 Y168.4
G17 G3 X235. Y168.5 I-0.1
Y167.5 J-0.5
G1 X245.
G3 Y168.5 J0.5
G1 X235.
G3 X234.9 Y168.4 J-0.1
G1 Y168.3
G19 G2 Y168.2 Z-3.54 K0.1
G0 Z5.
Y167.8
G1 Z-1.64 F320.
Z-4.45
G2 Y167.7 Z-4.55 J-0.1
G1 Y167.6
G17 G3 X235. Y167.5 I0.1
G1 X245.
G3 Y168.5 J0.5
G1 X235.
G3 Y167.5 J-0.5
X235.1 Y167.6 J0.1
G1 Y167.7
G19 G3 Y167.8 Z-4.45 K0.1
G0 Z5.
Y168.2
G1 Z-2.55 F320.
Z-5.36
G3 Y168.3 Z-5.46 J0.1
G1 Y168.4
G17 G3 X235. Y168.5 I-0.1
Y167.5 J-0.5
G1 X245.
G3 Y168.5 J0.5
G1 X235.
G3 X234.9 Y168.4 J-0.1
G1 Y168.3
G19 G2 Y168.2 Z-5.36 K0.1
G0 Z5.
Y167.8
G1 Z-3.46 F320.
Z-6.27
G2 Y167.7 Z-6.37 J-0.1
G1 Y167.6
G17 G3 X235. Y167.5 I0.1
G1 X245.
G3 Y168.5 J0.5
G1 X235.
G3 Y167.5 J-0.5
X235.1 Y167.6 J0.1
G1 Y167.7
G19 G3 Y167.8 Z-6.27 K0.1
G0 Z5.
Y168.2
G1 Z-4.37 F320.
Z-7.18
G3 Y168.3 Z-7.28 J0.1
G1 Y168.4
G17 G3 X235. Y168.5 I-0.1
Y167.5 J-0.5
G1 X245.
G3 Y168.5 J0.5
G1 X235.
G3 X234.9 Y168.4 J-0.1
G1 Y168.3
G19 G2 Y168.2 Z-7.18 K0.1
G0 Z5.
Y167.8
G1 Z-5.28 F320.
Z-8.09
G2 Y167.7 Z-8.19 J-0.1
G1 Y167.6
G17 G3 X235. Y167.5 I0.1
G1 X245.
G3 Y168.5 J0.5
G1 X235.
G3 Y167.5 J-0.5
X235.1 Y167.6 J0.1
G1 Y167.7
G19 G3 Y167.8 Z-8.09 K0.1
G0 Z5.
Y168.2
G1 Z-6.19 F320.
Z-9.
G3 Y168.3 Z-9.1 J0.1
G1 Y168.4
G17 G3 X235. Y168.5 I-0.1
Y167.5 J-0.5
G1 X245.
G3 Y168.5 J0.5
G1 X235.
G3 X234.9 Y168.4 J-0.1
G1 Y168.3
G19 G2 Y168.2 Z-9. K0.1
G0 Z5.
X235.1 Y144.2
G1 Z2. F320.
Z-0.81
G3 Y144.3 Z-0.91 J0.1
G1 Y144.4
G17 G3 X235. Y144.5 I-0.1
Y143.5 J-0.5
G1 X245.
G3 Y144.5 J0.5
G1 X235.
G3 X234.9 Y144.4 J-0.1
G1 Y144.3
G19 G2 Y144.2 Z-0.81 K0.1
G0 Z5.
X235.1
G1 Z1.09 F320.
Z-1.72
G3 Y144.3 Z-1.82 J0.1
G1 Y144.4
G17 G3 X235. Y144.5 I-0.1
Y143.5 J-0.5
G1 X245.
G3 Y144.5 J0.5
G1 X235.
G3 X234.9 Y144.4 J-0.1
G1 Y144.3
G19 G2 Y144.2 Z-1.72 K0.1
G0 Z5.
X235.1
G1 Z0.18 F320.
Z-2.63
G3 Y144.3 Z-2.73 J0.1
G1 Y144.4
G17 G3 X235. Y144.5 I-0.1
Y143.5 J-0.5
G1 X245.
G3 Y144.5 J0.5
G1 X235.
G3 X234.9 Y144.4 J-0.1
G1 Y144.3
G19 G2 Y144.2 Z-2.63 K0.1
G0 Z5.
X235.1
G1 Z-0.73 F320.
Z-3.54
G3 Y144.3 Z-3.64 J0.1
G1 Y144.4
G17 G3 X235. Y144.5 I-0.1
Y143.5 J-0.5
G1 X245.
G3 Y144.5 J0.5
G1 X235.
G3 X234.9 Y144.4 J-0.1
G1 Y144.3
G19 G2 Y144.2 Z-3.54 K0.1
G0 Z5.
X235.1
G1 Z-1.64 F320.
Z-4.45
G3 Y144.3 Z-4.55 J0.1
G1 Y144.4
G17 G3 X235. Y144.5 I-0.1
Y143.5 J-0.5
G1 X245.
G3 Y144.5 J0.5
G1 X235.
G3 X234.9 Y144.4 J-0.1
G1 Y144.3
G19 G2 Y144.2 Z-4.45 K0.1
G0 Z5.
X235.1
G1 Z-2.55 F320.
Z-5.36
G3 Y144.3 Z-5.46 J0.1
G1 Y144.4
G17 G3 X235. Y144.5 I-0.1
Y143.5 J-0.5
G1 X245.
G3 Y144.5 J0.5
G1 X235.
G3 X234.9 Y144.4 J-0.1
G1 Y144.3
G19 G2 Y144.2 Z-5.36 K0.1
G0 Z5.
X235.1
G1 Z-3.46 F320.
Z-6.27
G3 Y144.3 Z-6.37 J0.1
G1 Y144.4
G17 G3 X235. Y144.5 I-0.1
Y143.5 J-0.5
G1 X245.
G3 Y144.5 J0.5
G1 X235.
G3 X234.9 Y144.4 J-0.1
G1 Y144.3
G19 G2 Y144.2 Z-6.27 K0.1
G0 Z5.
X235.1
G1 Z-4.37 F320.
Z-7.18
G3 Y144.3 Z-7.28 J0.1
G1 Y144.4
G17 G3 X235. Y144.5 I-0.1
Y143.5 J-0.5
G1 X245.
G3 Y144.5 J0.5
G1 X235.
G3 X234.9 Y144.4 J-0.1
G1 Y144.3
G19 G2 Y144.2 Z-7.18 K0.1
G0 Z5.
X235.1
G1 Z-5.28 F320.
Z-8.09
G3 Y144.3 Z-8.19 J0.1
G1 Y144.4
G17 G3 X235. Y144.5 I-0.1
Y143.5 J-0.5
G1 X245.
G3 Y144.5 J0.5
G1 X235.
G3 X234.9 Y144.4 J-0.1
G1 Y144.3
G19 G2 Y144.2 Z-8.09 K0.1
G0 Z5.
X235.1
G1 Z-6.19 F320.
Z-9.
G3 Y144.3 Z-9.1 J0.1
G1 Y144.4
G17 G3 X235. Y144.5 I-0.1
Y143.5 J-0.5
G1 X245.
G3 Y144.5 J0.5
G1 X235.
G3 X234.9 Y144.4 J-0.1
G1 Y144.3
G19 G2 Y144.2 Z-9. K0.1
G0 Z15.
G17
(BORE1)
G0 X6. Y23.55
Z15.
Z1.9
G1 Z0. F320.
X5.975 Y23.575
G3 X5.95 Y23.55 J-0.025
X6.05 Z-0.5 I0.05
X5.95 Z-1. I-0.05
X6.05 Z-1.5 I0.05
X5.95 Z-2. I-0.05
X6.05 Z-2.5 I0.05
X5.95 Z-3. I-0.05
X6.05 Z-3.5 I0.05
X5.95 Z-4. I-0.05
X6.05 Z-4.5 I0.05
X5.95 Z-5. I-0.05
X6.05 Z-5.5 I0.05
X5.95 Z-6. I-0.05
X6.05 Z-6.5 I0.05
X5.95 Z-7. I-0.05
X6.05 Z-7.5 I0.05
X5.95 Z-8. I-0.05
X6.05 Z-8.5 I0.05
X5.95 Z-9. I-0.05
X5.96 Y23.521 Z-9.1 I0.05
X6.04 Y23.579 I0.04 J0.029
X5.96 Y23.521 I-0.04 J-0.029
X5.994 Y23.515 I0.02 J0.015
G1 X6. Y23.55
G0 Z5.
X27.55 Y63.6
Z2.
G1 Z0.1 F320.
G18 G3 X27.45 Z0. I-0.1
G1 X27.3
G17 G3 X27.2 Y63.5 J-0.1
X29.2 Z-0.5 I1.
X27.2 Z-1. I-1.
X29.2 Z-1.5 I1.
X27.2 Z-2. I-1.
X29.2 Z-2.5 I1.
X27.2 Z-3. I-1.
X29.2 Z-3.5 I1.
X27.2 Z-4. I-1.
X29.2 Z-4.5 I1.
X27.2 Z-5. I-1.
X29.2 Z-5.5 I1.
X27.2 Z-6. I-1.
X29.2 Z-6.5 I1.
X27.2 Z-7. I-1.
X29.2 Z-7.5 I1.
X27.2 Z-8. I-1.
X29.2 Z-8.5 I1.
X27.2 Z-9. I-1.
X27.391 Y62.912 Z-9.1 I1.
X29.009 Y64.088 I0.809 J0.588
X27.391 Y62.912 I-0.809 J-0.588
X27.531 Y62.89 I0.081 J0.059
G1 X27.652 Y62.978
X27.683 Y63.001 Z-9.092
X27.709 Y63.02 Z-9.071
X27.727 Y63.033 Z-9.038
X27.733 Y63.037 Z-9.
G0 Z5.
X8.85 Y63.4
Z2.
G1 Z0.1 F320.
G18 G2 X8.95 Z0. I0.1
G1 X9.1
G17 G3 X9.2 Y63.5 J0.1
X7.2 Z-0.5 I-1.
X9.2 Z-1. I1.
X7.2 Z-1.5 I-1.
X9.2 Z-2. I1.
X7.2 Z-2.5 I-1.
X9.2 Z-3. I1.
X7.2 Z-3.5 I-1.
X9.2 Z-4. I1.
X7.2 Z-4.5 I-1.
X9.2 Z-5. I1.
X7.2 Z-5.5 I-1.
X9.2 Z-6. I1.
X7.2 Z-6.5 I-1.
X9.2 Z-7. I1.
X7.2 Z-7.5 I-1.
X9.2 Z-8. I1.
X7.2 Z-8.5 I-1.
X9.2 Z-9. I1.
X9.009 Y64.088 Z-9.1 I-1.
X7.391 Y62.912 I-0.809 J-0.588
X9.009 Y64.088 I0.809 J0.588
X8.869 Y64.11 I-0.081 J-0.059
G1 X8.748 Y64.022
X8.717 Y63.999 Z-9.092
X8.691 Y63.98 Z-9.071
X8.673 Y63.967 Z-9.038
X8.667 Y63.963 Z-9.
G0 Z5.
X8.85 Y43.4
Z2.
G1 Z0.1 F320.
G18 G2 X8.95 Z0. I0.1
G1 X9.1
G17 G3 X9.2 Y43.5 J0.1
X7.2 Z-0.5 I-1.
X9.2 Z-1. I1.
X7.2 Z-1.5 I-1.
X9.2 Z-2. I1.
X7.2 Z-2.5 I-1.
X9.2 Z-3. I1.
X7.2 Z-3.5 I-1.
X9.2 Z-4. I1.
X7.2 Z-4.5 I-1.
X9.2 Z-5. I1.
X7.2 Z-5.5 I-1.
X9.2 Z-6. I1.
X7.2 Z-6.5 I-1.
X9.2 Z-7. I1.
X7.2 Z-7.5 I-1.
X9.2 Z-8. I1.
X7.2 Z-8.5 I-1.
X9.2 Z-9. I1.
X9.009 Y44.088 Z-9.1 I-1.
X7.391 Y42.912 I-0.809 J-0.588
X9.009 Y44.088 I0.809 J0.588
X8.869 Y44.11 I-0.081 J-0.059
G1 X8.748 Y44.022
X8.717 Y43.999 Z-9.092
X8.691 Y43.98 Z-9.071
X8.673 Y43.967 Z-9.038
X8.667 Y43.963 Z-9.
G0 Z5.
X27.55 Y43.6
Z2.
G1 Z0.1 F320.
G18 G3 X27.45 Z0. I-0.1
G1 X27.3
G17 G3 X27.2 Y43.5 J-0.1
X29.2 Z-0.5 I1.
X27.2 Z-1. I-1.
X29.2 Z-1.5 I1.
X27.2 Z-2. I-1.
X29.2 Z-2.5 I1.
X27.2 Z-3. I-1.
X29.2 Z-3.5 I1.
X27.2 Z-4. I-1.
X29.2 Z-4.5 I1.
X27.2 Z-5. I-1.
X29.2 Z-5.5 I1.
X27.2 Z-6. I-1.
X29.2 Z-6.5 I1.
X27.2 Z-7. I-1.
X29.2 Z-7.5 I1.
X27.2 Z-8. I-1.
X29.2 Z-8.5 I1.
X27.2 Z-9. I-1.
X27.391 Y42.912 Z-9.1 I1.
X29.009 Y44.088 I0.809 J0.588
X27.391 Y42.912 I-0.809 J-0.588
X27.531 Y42.89 I0.081 J0.059
G1 X27.652 Y42.978
X27.683 Y43.001 Z-9.092
X27.709 Y43.02 Z-9.071
X27.727 Y43.033 Z-9.038
X27.733 Y43.037 Z-9.
G0 Z5.
X31. Y23.55
Z1.9
G1 Z0. F320.
X30.975 Y23.575
G3 X30.95 Y23.55 J-0.025
X31.05 Z-0.5 I0.05
X30.95 Z-1. I-0.05
X31.05 Z-1.5 I0.05
X30.95 Z-2. I-0.05
X31.05 Z-2.5 I0.05
X30.95 Z-3. I-0.05
X31.05 Z-3.5 I0.05
X30.95 Z-4. I-0.05
X31.05 Z-4.5 I0.05
X30.95 Z-5. I-0.05
X31.05 Z-5.5 I0.05
X30.95 Z-6. I-0.05
X31.05 Z-6.5 I0.05
X30.95 Z-7. I-0.05
X31.05 Z-7.5 I0.05
X30.95 Z-8. I-0.05
X31.05 Z-8.5 I0.05
X30.95 Z-9. I-0.05
X30.96 Y23.521 Z-9.1 I0.05
X31.04 Y23.579 I0.04 J0.029
X30.96 Y23.521 I-0.04 J-0.029
X30.994 Y23.515 I0.02 J0.015
G1 X31. Y23.55
G0 Z5.
X55.
Z1.9
G1 Z0. F320.
X54.975 Y23.575
G3 X54.95 Y23.55 J-0.025
X55.05 Z-0.5 I0.05
X54.95 Z-1. I-0.05
X55.05 Z-1.5 I0.05
X54.95 Z-2. I-0.05
X55.05 Z-2.5 I0.05
X54.95 Z-3. I-0.05
X55.05 Z-3.5 I0.05
X54.95 Z-4. I-0.05
X55.05 Z-4.5 I0.05
X54.95 Z-5. I-0.05
X55.05 Z-5.5 I0.05
X54.95 Z-6. I-0.05
X55.05 Z-6.5 I0.05
X54.95 Z-7. I-0.05
X55.05 Z-7.5 I0.05
X54.95 Z-8. I-0.05
X55.05 Z-8.5 I0.05
X54.95 Z-9. I-0.05
X54.96 Y23.521 Z-9.1 I0.05
X55.04 Y23.579 I0.04 J0.029
X54.96 Y23.521 I-0.04 J-0.029
X54.994 Y23.515 I0.02 J0.015
G1 X55. Y23.55
G0 Z5.
X80.
Z1.9
G1 Z0. F320.
X80.025 Y23.525
G3 X80.05 Y23.55 J0.025
X79.95 Z-0.5 I-0.05
X80.05 Z-1. I0.05
X79.95 Z-1.5 I-0.05
X80.05 Z-2. I0.05
X79.95 Z-2.5 I-0.05
X80.05 Z-3. I0.05
X79.95 Z-3.5 I-0.05
X80.05 Z-4. I0.05
X79.95 Z-4.5 I-0.05
X80.05 Z-5. I0.05
X79.95 Z-5.5 I-0.05
X80.05 Z-6. I0.05
X79.95 Z-6.5 I-0.05
X80.05 Z-7. I0.05
X79.95 Z-7.5 I-0.05
X80.05 Z-8. I0.05
X79.95 Z-8.5 I-0.05
X80.05 Z-9. I0.05
X80.04 Y23.579 Z-9.1 I-0.05
X79.96 Y23.521 I-0.04 J-0.029
X80.04 Y23.579 I0.04 J0.029
X80.006 Y23.585 I-0.02 J-0.015
G1 X80. Y23.55
G0 Z5.
X77.15 Y43.6
Z2.
G1 Z0.1 F320.
G18 G3 X77.05 Z0. I-0.1
G1 X76.9
G17 G3 X76.8 Y43.5 J-0.1
X78.8 Z-0.5 I1.
X76.8 Z-1. I-1.
X78.8 Z-1.5 I1.
X76.8 Z-2. I-1.
X78.8 Z-2.5 I1.
X76.8 Z-3. I-1.
X78.8 Z-3.5 I1.
X76.8 Z-4. I-1.
X78.8 Z-4.5 I1.
X76.8 Z-5. I-1.
X78.8 Z-5.5 I1.
X76.8 Z-6. I-1.
X78.8 Z-6.5 I1.
X76.8 Z-7. I-1.
X78.8 Z-7.5 I1.
X76.8 Z-8. I-1.
X78.8 Z-8.5 I1.
X76.8 Z-9. I-1.
X76.991 Y42.912 Z-9.1 I1.
X78.609 Y44.088 I0.809 J0.588
X76.991 Y42.912 I-0.809 J-0.588
X77.131 Y42.89 I0.081 J0.059
G1 X77.252 Y42.978
X77.283 Y43.001 Z-9.092
X77.309 Y43.02 Z-9.071
X77.327 Y43.033 Z-9.038
X77.333 Y43.037 Z-9.
G0 Z5.
X58.45 Y43.4
Z2.
G1 Z0.1 F320.
G18 G2 X58.55 Z0. I0.1
G1 X58.7
G17 G3 X58.8 Y43.5 J0.1
X56.8 Z-0.5 I-1.
X58.8 Z-1. I1.
X56.8 Z-1.5 I-1.
X58.8 Z-2. I1.
X56.8 Z-2.5 I-1.
X58.8 Z-3. I1.
X56.8 Z-3.5 I-1.
X58.8 Z-4. I1.
X56.8 Z-4.5 I-1.
X58.8 Z-5. I1.
X56.8 Z-5.5 I-1.
X58.8 Z-6. I1.
X56.8 Z-6.5 I-1.
X58.8 Z-7. I1.
X56.8 Z-7.5 I-1.
X58.8 Z-8. I1.
X56.8 Z-8.5 I-1.
X58.8 Z-9. I1.
X58.609 Y44.088 Z-9.1 I-1.
X56.991 Y42.912 I-0.809 J-0.588
X58.609 Y44.088 I0.809 J0.588
X58.469 Y44.11 I-0.081 J-0.059
G1 X58.348 Y44.022
X58.317 Y43.999 Z-9.092
X58.291 Y43.98 Z-9.071
X58.273 Y43.967 Z-9.038
X58.267 Y43.963 Z-9.
G0 Z5.
X58.45 Y63.4
Z2.
G1 Z0.1 F320.
G18 G2 X58.55 Z0. I0.1
G1 X58.7
G17 G3 X58.8 Y63.5 J0.1
X56.8 Z-0.5 I-1.
X58.8 Z-1. I1.
X56.8 Z-1.5 I-1.
X58.8 Z-2. I1.
X56.8 Z-2.5 I-1.
X58.8 Z-3. I1.
X56.8 Z-3.5 I-1.
X58.8 Z-4. I1.
X56.8 Z-4.5 I-1.
X58.8 Z-5. I1.
X56.8 Z-5.5 I-1.
X58.8 Z-6. I1.
X56.8 Z-6.5 I-1.
X58.8 Z-7. I1.
X56.8 Z-7.5 I-1.
X58.8 Z-8. I1.
X56.8 Z-8.5 I-1.
X58.8 Z-9. I1.
X58.609 Y64.088 Z-9.1 I-1.
X56.991 Y62.912 I-0.809 J-0.588
X58.609 Y64.088 I0.809 J0.588
X58.469 Y64.11 I-0.081 J-0.059
G1 X58.348 Y64.022
X58.317 Y63.999 Z-9.092
X58.291 Y63.98 Z-9.071
X58.273 Y63.967 Z-9.038
X58.267 Y63.963 Z-9.
G0 Z5.
X77.15 Y63.6
Z2.
G1 Z0.1 F320.
G18 G3 X77.05 Z0. I-0.1
G1 X76.9
G17 G3 X76.8 Y63.5 J-0.1
X78.8 Z-0.5 I1.
X76.8 Z-1. I-1.
X78.8 Z-1.5 I1.
X76.8 Z-2. I-1.
X78.8 Z-2.5 I1.
X76.8 Z-3. I-1.
X78.8 Z-3.5 I1.
X76.8 Z-4. I-1.
X78.8 Z-4.5 I1.
X76.8 Z-5. I-1.
X78.8 Z-5.5 I1.
X76.8 Z-6. I-1.
X78.8 Z-6.5 I1.
X76.8 Z-7. I-1.
X78.8 Z-7.5 I1.
X76.8 Z-8. I-1.
X78.8 Z-8.5 I1.
X76.8 Z-9. I-1.
X76.991 Y62.912 Z-9.1 I1.
X78.609 Y64.088 I0.809 J0.588
X76.991 Y62.912 I-0.809 J-0.588
X77.131 Y62.89 I0.081 J0.059
G1 X77.252 Y62.978
X77.283 Y63.001 Z-9.092
X77.309 Y63.02 Z-9.071
X77.327 Y63.033 Z-9.038
X77.333 Y63.037 Z-9.
G0 Z5.
X114.15 Y39.9
Z2.
G1 Z0.1 F320.
G18 G2 X114.25 Z0. I0.1
G1 X114.4
G17 G3 X114.5 Y40. J0.1
X99.5 Z-0.5 I-7.5
X114.5 Z-1. I7.5
X99.5 Z-1.5 I-7.5
X114.5 Z-2. I7.5
X99.5 Z-2.5 I-7.5
X114.5 Z-3. I7.5
X99.5 Z-3.5 I-7.5
X114.5 Z-4. I7.5
X99.5 Z-4.5 I-7.5
X114.5 Z-5. I7.5
X99.5 Z-5.5 I-7.5
X114.5 Z-6. I7.5
X99.5 Z-6.5 I-7.5
X114.5 Z-7. I7.5
X99.5 Z-7.5 I-7.5
X114.5 Z-8. I7.5
X99.5 Z-8.5 I-7.5
X114.5 Z-9. I7.5
X113.068 Y44.408 Z-9.1 I-7.5
X100.932 Y35.592 I-6.068 J-4.408
X113.068 Y44.408 I6.068 J4.408
X112.928 Y44.431 I-0.081 J-0.059
G1 X112.807 Y44.342
X112.776 Y44.32 Z-9.092
X112.749 Y44.301 Z-9.071
X112.732 Y44.288 Z-9.038
X112.726 Y44.284 Z-9.
G0 Z5.
X137.399 Y43.425
Z1.9
G1 Z0. F320.
X137.549
G3 X137.624 Y43.5 J0.075
X137.324 Z-0.5 I-0.15
X137.624 Z-1. I0.15
X137.324 Z-1.5 I-0.15
X137.624 Z-2. I0.15
X137.324 Z-2.5 I-0.15
X137.624 Z-3. I0.15
X137.324 Z-3.5 I-0.15
X137.624 Z-4. I0.15
X137.324 Z-4.5 I-0.15
X137.624 Z-5. I0.15
X137.324 Z-5.5 I-0.15
X137.624 Z-6. I0.15
X137.324 Z-6.5 I-0.15
X137.624 Z-7. I0.15
X137.324 Z-7.5 I-0.15
X137.624 Z-8. I0.15
X137.324 Z-8.5 I-0.15
X137.624 Z-9. I0.15
X137.595 Y43.588 Z-9.1 I-0.15
X137.352 Y43.412 I-0.121 J-0.088
X137.595 Y43.588 I0.121 J0.088
X137.49 Y43.605 I-0.061 J-0.044
G1 X137.369 Y43.517
G0 Z5.
X146.925 Y48.925
Z1.9
G1 Z0. F320.
X147.075
G3 X147.15 Y49. J0.075
X146.85 Z-0.5 I-0.15
X147.15 Z-1. I0.15
X146.85 Z-1.5 I-0.15
X147.15 Z-2. I0.15
X146.85 Z-2.5 I-0.15
X147.15 Z-3. I0.15
X146.85 Z-3.5 I-0.15
X147.15 Z-4. I0.15
X146.85 Z-4.5 I-0.15
X147.15 Z-5. I0.15
X146.85 Z-5.5 I-0.15
X147.15 Z-6. I0.15
X146.85 Z-6.5 I-0.15
X147.15 Z-7. I0.15
X146.85 Z-7.5 I-0.15
X147.15 Z-8. I0.15
X146.85 Z-8.5 I-0.15
X147.15 Z-9. I0.15
X147.121 Y49.088 Z-9.1 I-0.15
X146.879 Y48.912 I-0.121 J-0.088
X147.121 Y49.088 I0.121 J0.088
X147.017 Y49.105 I-0.061 J-0.044
G1 X146.895 Y49.017
G0 Z5.
X156.451 Y43.425
Z1.9
G1 Z0. F320.
X156.601
G3 X156.676 Y43.5 J0.075
X156.376 Z-0.5 I-0.15
X156.676 Z-1. I0.15
X156.376 Z-1.5 I-0.15
X156.676 Z-2. I0.15
X156.376 Z-2.5 I-0.15
X156.676 Z-3. I0.15
X156.376 Z-3.5 I-0.15
X156.676 Z-4. I0.15
X156.376 Z-4.5 I-0.15
X156.676 Z-5. I0.15
X156.376 Z-5.5 I-0.15
X156.676 Z-6. I0.15
X156.376 Z-6.5 I-0.15
X156.676 Z-7. I0.15
X156.376 Z-7.5 I-0.15
X156.676 Z-8. I0.15
X156.376 Z-8.5 I-0.15
X156.676 Z-9. I0.15
X156.648 Y43.588 Z-9.1 I-0.15
X156.405 Y43.412 I-0.121 J-0.088
X156.648 Y43.588 I0.121 J0.088
X156.543 Y43.605 I-0.061 J-0.044
G1 X156.422 Y43.517
G0 Z5.
X153.9 Y37.9
Z2.
G1 Z0.1 F320.
G18 G2 X154. Z0. I0.1
G1 X154.15
G17 G3 X154.25 Y38. J0.1
X139.75 Z-0.5 I-7.25
X154.25 Z-1. I7.25
X139.75 Z-1.5 I-7.25
X154.25 Z-2. I7.25
X139.75 Z-2.5 I-7.25
X154.25 Z-3. I7.25
X139.75 Z-3.5 I-7.25
X154.25 Z-4. I7.25
X139.75 Z-4.5 I-7.25
X154.25 Z-5. I7.25
X139.75 Z-5.5 I-7.25
X154.25 Z-6. I7.25
X139.75 Z-6.5 I-7.25
X154.25 Z-7. I7.25
X139.75 Z-7.5 I-7.25
X154.25 Z-8. I7.25
X139.75 Z-8.5 I-7.25
X154.25 Z-9. I7.25
X152.865 Y42.261 Z-9.1 I-7.25
X141.135 Y33.739 I-5.865 J-4.261
X152.865 Y42.261 I5.865 J4.261
X152.726 Y42.284 I-0.081 J-0.059
G1 X152.604 Y42.195
X152.573 Y42.173 Z-9.092
X152.547 Y42.154 Z-9.071
X152.53 Y42.141 Z-9.038
X152.523 Y42.137 Z-9.
G0 Z5.
X156.451 Y32.425
Z1.9
G1 Z0. F320.
X156.601
G3 X156.676 Y32.5 J0.075
X156.376 Z-0.5 I-0.15
X156.676 Z-1. I0.15
X156.376 Z-1.5 I-0.15
X156.676 Z-2. I0.15
X156.376 Z-2.5 I-0.15
X156.676 Z-3. I0.15
X156.376 Z-3.5 I-0.15
X156.676 Z-4. I0.15
X156.376 Z-4.5 I-0.15
X156.676 Z-5. I0.15
X156.376 Z-5.5 I-0.15
X156.676 Z-6. I0.15
X156.376 Z-6.5 I-0.15
X156.676 Z-7. I0.15
X156.376 Z-7.5 I-0.15
X156.676 Z-8. I0.15
X156.376 Z-8.5 I-0.15
X156.676 Z-9. I0.15
X156.648 Y32.588 Z-9.1 I-0.15
X156.405 Y32.412 I-0.121 J-0.088
X156.648 Y32.588 I0.121 J0.088
X156.543 Y32.605 I-0.061 J-0.044
G1 X156.422 Y32.517
G0 Z5.
X146.925 Y26.925
Z1.9
G1 Z0. F320.
X147.075
G3 X147.15 Y27. J0.075
X146.85 Z-0.5 I-0.15
X147.15 Z-1. I0.15
X146.85 Z-1.5 I-0.15
X147.15 Z-2. I0.15
X146.85 Z-2.5 I-0.15
X147.15 Z-3. I0.15
X146.85 Z-3.5 I-0.15
X147.15 Z-4. I0.15
X146.85 Z-4.5 I-0.15
X147.15 Z-5. I0.15
X146.85 Z-5.5 I-0.15
X147.15 Z-6. I0.15
X146.85 Z-6.5 I-0.15
X147.15 Z-7. I0.15
X146.85 Z-7.5 I-0.15
X147.15 Z-8. I0.15
X146.85 Z-8.5 I-0.15
X147.15 Z-9. I0.15
X147.121 Y27.088 Z-9.1 I-0.15
X146.879 Y26.912 I-0.121 J-0.088
X147.121 Y27.088 I0.121 J0.088
X147.017 Y27.105 I-0.061 J-0.044
G1 X146.895 Y27.017
G0 Z5.
X137.399 Y32.425
Z1.9
G1 Z0. F320.
X137.549
G3 X137.624 Y32.5 J0.075
X137.324 Z-0.5 I-0.15
X137.624 Z-1. I0.15
X137.324 Z-1.5 I-0.15
X137.624 Z-2. I0.15
X137.324 Z-2.5 I-0.15
X137.624 Z-3. I0.15
X137.324 Z-3.5 I-0.15
X137.624 Z-4. I0.15
X137.324 Z-4.5 I-0.15
X137.624 Z-5. I0.15
X137.324 Z-5.5 I-0.15
X137.624 Z-6. I0.15
X137.324 Z-6.5 I-0.15
X137.624 Z-7. I0.15
X137.324 Z-7.5 I-0.15
X137.624 Z-8. I0.15
X137.324 Z-8.5 I-0.15
X137.624 Z-9. I0.15
X137.595 Y32.588 Z-9.1 I-0.15
X137.352 Y32.412 I-0.121 J-0.088
X137.595 Y32.588 I0.121 J0.088
X137.49 Y32.605 I-0.061 J-0.044
G1 X137.369 Y32.517
G0 Z5.
X128.15 Y12.9
Z2.
G1 Z0.1 F320.
G18 G2 X128.25 Z0. I0.1
G1 X128.4
G17 G3 X128.5 Y13. J0.1
X125.5 Z-0.5 I-1.5
X128.5 Z-1. I1.5
X125.5 Z-1.5 I-1.5
X128.5 Z-2. I1.5
X125.5 Z-2.5 I-1.5
X128.5 Z-3. I1.5
X125.5 Z-3.5 I-1.5
X128.5 Z-4. I1.5
X125.5 Z-4.5 I-1.5
X128.5 Z-5. I1.5
X125.5 Z-5.5 I-1.5
X128.5 Z-6. I1.5
X125.5 Z-6.5 I-1.5
X128.5 Z-7. I1.5
X125.5 Z-7.5 I-1.5
X128.5 Z-8. I1.5
X125.5 Z-8.5 I-1.5
X128.5 Z-9. I1.5
X128.214 Y13.882 Z-9.1 I-1.5
X125.786 Y12.118 I-1.214 J-0.882
X128.214 Y13.882 I1.214 J0.882
X128.074 Y13.904 I-0.081 J-0.059
G1 X127.952 Y13.816
X127.922 Y13.793 Z-9.092
X127.895 Y13.774 Z-9.071
X127.878 Y13.761 Z-9.038
X127.872 Y13.757 Z-9.
G0 Z5.
X228.925 Y120.425
Z1.9
G1 Z0. F320.
X229.075
G3 X229.15 Y120.5 J0.075
X228.85 Z-0.5 I-0.15
X229.15 Z-1. I0.15
X228.85 Z-1.5 I-0.15
X229.15 Z-2. I0.15
X228.85 Z-2.5 I-0.15
X229.15 Z-3. I0.15
X228.85 Z-3.5 I-0.15
X229.15 Z-4. I0.15
X228.85 Z-4.5 I-0.15
X229.15 Z-5. I0.15
X228.85 Z-5.5 I-0.15
X229.15 Z-6. I0.15
X228.85 Z-6.5 I-0.15
X229.15 Z-7. I0.15
X228.85 Z-7.5 I-0.15
X229.15 Z-8. I0.15
X228.85 Z-8.5 I-0.15
X229.15 Z-9. I0.15
X229.121 Y120.588 Z-9.1 I-0.15
X228.879 Y120.412 I-0.121 J-0.088
X229.121 Y120.588 I0.121 J0.088
X229.017 Y120.605 I-0.061 J-0.044
G1 X228.895 Y120.517
G0 Z5.
X249.075 Y120.575
Z1.9
G1 Z0. F320.
X248.925
G3 X248.85 Y120.5 J-0.075
X249.15 Z-0.5 I0.15
X248.85 Z-1. I-0.15
X249.15 Z-1.5 I0.15
X248.85 Z-2. I-0.15
X249.15 Z-2.5 I0.15
X248.85 Z-3. I-0.15
X249.15 Z-3.5 I0.15
X248.85 Z-4. I-0.15
X249.15 Z-4.5 I0.15
X248.85 Z-5. I-0.15
X249.15 Z-5.5 I0.15
X248.85 Z-6. I-0.15
X249.15 Z-6.5 I0.15
X248.85 Z-7. I-0.15
X249.15 Z-7.5 I0.15
X248.85 Z-8. I-0.15
X249.15 Z-8.5 I0.15
X248.85 Z-9. I-0.15
X248.879 Y120.412 Z-9.1 I0.15
X249.121 Y120.588 I0.121 J0.088
X248.879 Y120.412 I-0.121 J-0.088
X248.983 Y120.395 I0.061 J0.044
G1 X249.105 Y120.483
G0 Z5.
X249.075 Y91.075
Z1.9
G1 Z0. F320.
X248.925
G3 X248.85 Y91. J-0.075
X249.15 Z-0.5 I0.15
X248.85 Z-1. I-0.15
X249.15 Z-1.5 I0.15
X248.85 Z-2. I-0.15
X249.15 Z-2.5 I0.15
X248.85 Z-3. I-0.15
X249.15 Z-3.5 I0.15
X248.85 Z-4. I-0.15
X249.15 Z-4.5 I0.15
X248.85 Z-5. I-0.15
X249.15 Z-5.5 I0.15
X248.85 Z-6. I-0.15
X249.15 Z-6.5 I0.15
X248.85 Z-7. I-0.15
X249.15 Z-7.5 I0.15
X248.85 Z-8. I-0.15
X249.15 Z-8.5 I0.15
X248.85 Z-9. I-0.15
X248.879 Y90.912 Z-9.1 I0.15
X249.121 Y91.088 I0.121 J0.088
X248.879 Y90.912 I-0.121 J-0.088
X248.983 Y90.895 I0.061 J0.044
G1 X249.105 Y90.983
G0 Z5.
X248.925 Y100.425
Z1.9
G1 Z0. F320.
X249.075
G3 X249.15 Y100.5 J0.075
X248.85 Z-0.5 I-0.15
X249.15 Z-1. I0.15
X248.85 Z-1.5 I-0.15
X249.15 Z-2. I0.15
X248.85 Z-2.5 I-0.15
X249.15 Z-3. I0.15
X248.85 Z-3.5 I-0.15
X249.15 Z-4. I0.15
X248.85 Z-4.5 I-0.15
X249.15 Z-5. I0.15
X248.85 Z-5.5 I-0.15
X249.15 Z-6. I0.15
X248.85 Z-6.5 I-0.15
X249.15 Z-7. I0.15
X248.85 Z-7.5 I-0.15
X249.15 Z-8. I0.15
X248.85 Z-8.5 I-0.15
X249.15 Z-9. I0.15
X249.121 Y100.588 Z-9.1 I-0.15
X248.879 Y100.412 I-0.121 J-0.088
X249.121 Y100.588 I0.121 J0.088
X249.017 Y100.605 I-0.061 J-0.044
G1 X248.895 Y100.517
G0 Z5.
X229.075 Y100.575
Z1.9
G1 Z0. F320.
X228.925
G3 X228.85 Y100.5 J-0.075
X229.15 Z-0.5 I0.15
X228.85 Z-1. I-0.15
X229.15 Z-1.5 I0.15
X228.85 Z-2. I-0.15
X229.15 Z-2.5 I0.15
X228.85 Z-3. I-0.15
X229.15 Z-3.5 I0.15
X228.85 Z-4. I-0.15
X229.15 Z-4.5 I0.15
X228.85 Z-5. I-0.15
X229.15 Z-5.5 I0.15
X228.85 Z-6. I-0.15
X229.15 Z-6.5 I0.15
X228.85 Z-7. I-0.15
X229.15 Z-7.5 I0.15
X228.85 Z-8. I-0.15
X229.15 Z-8.5 I0.15
X228.85 Z-9. I-0.15
X228.879 Y100.412 Z-9.1 I0.15
X229.121 Y100.588 I0.121 J0.088
X228.879 Y100.412 I-0.121 J-0.088
X228.983 Y100.395 I0.061 J0.044
G1 X229.105 Y100.483
G0 Z5.
X228.925 Y90.925
Z1.9
G1 Z0. F320.
X229.075
G3 X229.15 Y91. J0.075
X228.85 Z-0.5 I-0.15
X229.15 Z-1. I0.15
X228.85 Z-1.5 I-0.15
X229.15 Z-2. I0.15
X228.85 Z-2.5 I-0.15
X229.15 Z-3. I0.15
X228.85 Z-3.5 I-0.15
X229.15 Z-4. I0.15
X228.85 Z-4.5 I-0.15
X229.15 Z-5. I0.15
X228.85 Z-5.5 I-0.15
X229.15 Z-6. I0.15
X228.85 Z-6.5 I-0.15
X229.15 Z-7. I0.15
X228.85 Z-7.5 I-0.15
X229.15 Z-8. I0.15
X228.85 Z-8.5 I-0.15
X229.15 Z-9. I0.15
X229.121 Y91.088 Z-9.1 I-0.15
X228.879 Y90.912 I-0.121 J-0.088
X229.121 Y91.088 I0.121 J0.088
X229.017 Y91.105 I-0.061 J-0.044
G1 X228.895 Y91.017
G0 Z5.
X229.075 Y71.075
Z1.9
G1 Z0. F320.
X228.925
G3 X228.85 Y71. J-0.075
X229.15 Z-0.5 I0.15
X228.85 Z-1. I-0.15
X229.15 Z-1.5 I0.15
X228.85 Z-2. I-0.15
X229.15 Z-2.5 I0.15
X228.85 Z-3. I-0.15
X229.15 Z-3.5 I0.15
X228.85 Z-4. I-0.15
X229.15 Z-4.5 I0.15
X228.85 Z-5. I-0.15
X229.15 Z-5.5 I0.15
X228.85 Z-6. I-0.15
X229.15 Z-6.5 I0.15
X228.85 Z-7. I-0.15
X229.15 Z-7.5 I0.15
X228.85 Z-8. I-0.15
X229.15 Z-8.5 I0.15
X228.85 Z-9. I-0.15
X228.879 Y70.912 Z-9.1 I0.15
X229.121 Y71.088 I0.121 J0.088
X228.879 Y70.912 I-0.121 J-0.088
X228.983 Y70.895 I0.061 J0.044
G1 X229.105 Y70.983
G0 Z5.
X228.925 Y60.425
Z1.9
G1 Z0. F320.
X229.075
G3 X229.15 Y60.5 J0.075
X228.85 Z-0.5 I-0.15
X229.15 Z-1. I0.15
X228.85 Z-1.5 I-0.15
X229.15 Z-2. I0.15
X228.85 Z-2.5 I-0.15
X229.15 Z-3. I0.15
X228.85 Z-3.5 I-0.15
X229.15 Z-4. I0.15
X228.85 Z-4.5 I-0.15
X229.15 Z-5. I0.15
X228.85 Z-5.5 I-0.15
X229.15 Z-6. I0.15
X228.85 Z-6.5 I-0.15
X229.15 Z-7. I0.15
X228.85 Z-7.5 I-0.15
X229.15 Z-8. I0.15
X228.85 Z-8.5 I-0.15
X229.15 Z-9. I0.15
X229.121 Y60.588 Z-9.1 I-0.15
X228.879 Y60.412 I-0.121 J-0.088
X229.121 Y60.588 I0.121 J0.088
X229.017 Y60.605 I-0.061 J-0.044
G1 X228.895 Y60.517
G0 Z5.
X249.075 Y60.575
Z1.9
G1 Z0. F320.
X248.925
G3 X248.85 Y60.5 J-0.075
X249.15 Z-0.5 I0.15
X248.85 Z-1. I-0.15
X249.15 Z-1.5 I0.15
X248.85 Z-2. I-0.15
X249.15 Z-2.5 I0.15
X248.85 Z-3. I-0.15
X249.15 Z-3.5 I0.15
X248.85 Z-4. I-0.15
X249.15 Z-4.5 I0.15
X248.85 Z-5. I-0.15
X249.15 Z-5.5 I0.15
X248.85 Z-6. I-0.15
X249.15 Z-6.5 I0.15
X248.85 Z-7. I-0.15
X249.15 Z-7.5 I0.15
X248.85 Z-8. I-0.15
X249.15 Z-8.5 I0.15
X248.85 Z-9. I-0.15
X248.879 Y60.412 Z-9.1 I0.15
X249.121 Y60.588 I0.121 J0.088
X248.879 Y60.412 I-0.121 J-0.088
X248.983 Y60.395 I0.061 J0.044
G1 X249.105 Y60.483
G0 Z5.
X248.925 Y70.925
Z1.9
G1 Z0. F320.
X249.075
G3 X249.15 Y71. J0.075
X248.85 Z-0.5 I-0.15
X249.15 Z-1. I0.15
X248.85 Z-1.5 I-0.15
X249.15 Z-2. I0.15
X248.85 Z-2.5 I-0.15
X249.15 Z-3. I0.15
X248.85 Z-3.5 I-0.15
X249.15 Z-4. I0.15
X248.85 Z-4.5 I-0.15
X249.15 Z-5. I0.15
X248.85 Z-5.5 I-0.15
X249.15 Z-6. I0.15
X248.85 Z-6.5 I-0.15
X249.15 Z-7. I0.15
X248.85 Z-7.5 I-0.15
X249.15 Z-8. I0.15
X248.85 Z-8.5 I-0.15
X249.15 Z-9. I0.15
X249.121 Y71.088 Z-9.1 I-0.15
X248.879 Y70.912 I-0.121 J-0.088
X249.121 Y71.088 I0.121 J0.088
X249.017 Y71.105 I-0.061 J-0.044
G1 X248.895 Y71.017
G0 Z5.
X249.075 Y31.075
Z1.9
G1 Z0. F320.
X248.925
G3 X248.85 Y31. J-0.075
X249.15 Z-0.5 I0.15
X248.85 Z-1. I-0.15
X249.15 Z-1.5 I0.15
X248.85 Z-2. I-0.15
X249.15 Z-2.5 I0.15
X248.85 Z-3. I-0.15
X249.15 Z-3.5 I0.15
X248.85 Z-4. I-0.15
X249.15 Z-4.5 I0.15
X248.85 Z-5. I-0.15
X249.15 Z-5.5 I0.15
X248.85 Z-6. I-0.15
X249.15 Z-6.5 I0.15
X248.85 Z-7. I-0.15
X249.15 Z-7.5 I0.15
X248.85 Z-8. I-0.15
X249.15 Z-8.5 I0.15
X248.85 Z-9. I-0.15
X248.879 Y30.912 Z-9.1 I0.15
X249.121 Y31.088 I0.121 J0.088
X248.879 Y30.912 I-0.121 J-0.088
X248.983 Y30.895 I0.061 J0.044
G1 X249.105 Y30.983
G0 Z5.
X248.925 Y40.425
Z1.9
G1 Z0. F320.
X249.075
G3 X249.15 Y40.5 J0.075
X248.85 Z-0.5 I-0.15
X249.15 Z-1. I0.15
X248.85 Z-1.5 I-0.15
X249.15 Z-2. I0.15
X248.85 Z-2.5 I-0.15
X249.15 Z-3. I0.15
X248.85 Z-3.5 I-0.15
X249.15 Z-4. I0.15
X248.85 Z-4.5 I-0.15
X249.15 Z-5. I0.15
X248.85 Z-5.5 I-0.15
X249.15 Z-6. I0.15
X248.85 Z-6.5 I-0.15
X249.15 Z-7. I0.15
X248.85 Z-7.5 I-0.15
X249.15 Z-8. I0.15
X248.85 Z-8.5 I-0.15
X249.15 Z-9. I0.15
X249.121 Y40.588 Z-9.1 I-0.15
X248.879 Y40.412 I-0.121 J-0.088
X249.121 Y40.588 I0.121 J0.088
X249.017 Y40.605 I-0.061 J-0.044
G1 X248.895 Y40.517
G0 Z5.
X229.075 Y40.575
Z1.9
G1 Z0. F320.
X228.925
G3 X228.85 Y40.5 J-0.075
X229.15 Z-0.5 I0.15
X228.85 Z-1. I-0.15
X229.15 Z-1.5 I0.15
X228.85 Z-2. I-0.15
X229.15 Z-2.5 I0.15
X228.85 Z-3. I-0.15
X229.15 Z-3.5 I0.15
X228.85 Z-4. I-0.15
X229.15 Z-4.5 I0.15
X228.85 Z-5. I-0.15
X229.15 Z-5.5 I0.15
X228.85 Z-6. I-0.15
X229.15 Z-6.5 I0.15
X228.85 Z-7. I-0.15
X229.15 Z-7.5 I0.15
X228.85 Z-8. I-0.15
X229.15 Z-8.5 I0.15
X228.85 Z-9. I-0.15
X228.879 Y40.412 Z-9.1 I0.15
X229.121 Y40.588 I0.121 J0.088
X228.879 Y40.412 I-0.121 J-0.088
X228.983 Y40.395 I0.061 J0.044
G1 X229.105 Y40.483
G0 Z5.
X228.925 Y30.925
Z1.9
G1 Z0. F320.
X229.075
G3 X229.15 Y31. J0.075
X228.85 Z-0.5 I-0.15
X229.15 Z-1. I0.15
X228.85 Z-1.5 I-0.15
X229.15 Z-2. I0.15
X228.85 Z-2.5 I-0.15
X229.15 Z-3. I0.15
X228.85 Z-3.5 I-0.15
X229.15 Z-4. I0.15
X228.85 Z-4.5 I-0.15
X229.15 Z-5. I0.15
X228.85 Z-5.5 I-0.15
X229.15 Z-6. I0.15
X228.85 Z-6.5 I-0.15
X229.15 Z-7. I0.15
X228.85 Z-7.5 I-0.15
X229.15 Z-8. I0.15
X228.85 Z-8.5 I-0.15
X229.15 Z-9. I0.15
X229.121 Y31.088 Z-9.1 I-0.15
X228.879 Y30.912 I-0.121 J-0.088
X229.121 Y31.088 I0.121 J0.088
X229.017 Y31.105 I-0.061 J-0.044
G1 X228.895 Y31.017
G0 Z5.
X229.075 Y11.075
Z1.9
G1 Z0. F320.
X228.925
G3 X228.85 Y11. J-0.075
X229.15 Z-0.5 I0.15
X228.85 Z-1. I-0.15
X229.15 Z-1.5 I0.15
X228.85 Z-2. I-0.15
X229.15 Z-2.5 I0.15
X228.85 Z-3. I-0.15
X229.15 Z-3.5 I0.15
X228.85 Z-4. I-0.15
X229.15 Z-4.5 I0.15
X228.85 Z-5. I-0.15
X229.15 Z-5.5 I0.15
X228.85 Z-6. I-0.15
X229.15 Z-6.5 I0.15
X228.85 Z-7. I-0.15
X229.15 Z-7.5 I0.15
X228.85 Z-8. I-0.15
X229.15 Z-8.5 I0.15
X228.85 Z-9. I-0.15
X228.879 Y10.912 Z-9.1 I0.15
X229.121 Y11.088 I0.121 J0.088
X228.879 Y10.912 I-0.121 J-0.088
X228.983 Y10.895 I0.061 J0.044
G1 X229.105 Y10.983
G0 Z5.
X248.925 Y10.925
Z1.9
G1 Z0. F320.
X249.075
G3 X249.15 Y11. J0.075
X248.85 Z-0.5 I-0.15
X249.15 Z-1. I0.15
X248.85 Z-1.5 I-0.15
X249.15 Z-2. I0.15
X248.85 Z-2.5 I-0.15
X249.15 Z-3. I0.15
X248.85 Z-3.5 I-0.15
X249.15 Z-4. I0.15
X248.85 Z-4.5 I-0.15
X249.15 Z-5. I0.15
X248.85 Z-5.5 I-0.15
X249.15 Z-6. I0.15
X248.85 Z-6.5 I-0.15
X249.15 Z-7. I0.15
X248.85 Z-7.5 I-0.15
X249.15 Z-8. I0.15
X248.85 Z-8.5 I-0.15
X249.15 Z-9. I0.15
X249.121 Y11.088 Z-9.1 I-0.15
X248.879 Y10.912 I-0.121 J-0.088
X249.121 Y11.088 I0.121 J0.088
X249.017 Y11.105 I-0.061 J-0.044
G1 X248.895 Y11.017
G0 Z5.
X198.925 Y10.925
Z1.9
G1 Z0. F320.
X199.075
G3 X199.15 Y11. J0.075
X198.85 Z-0.5 I-0.15
X199.15 Z-1. I0.15
X198.85 Z-1.5 I-0.15
X199.15 Z-2. I0.15
X198.85 Z-2.5 I-0.15
X199.15 Z-3. I0.15
X198.85 Z-3.5 I-0.15
X199.15 Z-4. I0.15
X198.85 Z-4.5 I-0.15
X199.15 Z-5. I0.15
X198.85 Z-5.5 I-0.15
X199.15 Z-6. I0.15
X198.85 Z-6.5 I-0.15
X199.15 Z-7. I0.15
X198.85 Z-7.5 I-0.15
X199.15 Z-8. I0.15
X198.85 Z-8.5 I-0.15
X199.15 Z-9. I0.15
X199.121 Y11.088 Z-9.1 I-0.15
X198.879 Y10.912 I-0.121 J-0.088
X199.121 Y11.088 I0.121 J0.088
X199.017 Y11.105 I-0.061 J-0.044
G1 X198.895 Y11.017
G0 Z5.
X179.075 Y11.075
Z1.9
G1 Z0. F320.
X178.925
G3 X178.85 Y11. J-0.075
X179.15 Z-0.5 I0.15
X178.85 Z-1. I-0.15
X179.15 Z-1.5 I0.15
X178.85 Z-2. I-0.15
X179.15 Z-2.5 I0.15
X178.85 Z-3. I-0.15
X179.15 Z-3.5 I0.15
X178.85 Z-4. I-0.15
X179.15 Z-4.5 I0.15
X178.85 Z-5. I-0.15
X179.15 Z-5.5 I0.15
X178.85 Z-6. I-0.15
X179.15 Z-6.5 I0.15
X178.85 Z-7. I-0.15
X179.15 Z-7.5 I0.15
X178.85 Z-8. I-0.15
X179.15 Z-8.5 I0.15
X178.85 Z-9. I-0.15
X178.879 Y10.912 Z-9.1 I0.15
X179.121 Y11.088 I0.121 J0.088
X178.879 Y10.912 I-0.121 J-0.088
X178.983 Y10.895 I0.061 J0.044
G1 X179.105 Y10.983
G0 Z5.
X178.925 Y30.925
Z1.9
G1 Z0. F320.
X179.075
G3 X179.15 Y31. J0.075
X178.85 Z-0.5 I-0.15
X179.15 Z-1. I0.15
X178.85 Z-1.5 I-0.15
X179.15 Z-2. I0.15
X178.85 Z-2.5 I-0.15
X179.15 Z-3. I0.15
X178.85 Z-3.5 I-0.15
X179.15 Z-4. I0.15
X178.85 Z-4.5 I-0.15
X179.15 Z-5. I0.15
X178.85 Z-5.5 I-0.15
X179.15 Z-6. I0.15
X178.85 Z-6.5 I-0.15
X179.15 Z-7. I0.15
X178.85 Z-7.5 I-0.15
X179.15 Z-8. I0.15
X178.85 Z-8.5 I-0.15
X179.15 Z-9. I0.15
X179.121 Y31.088 Z-9.1 I-0.15
X178.879 Y30.912 I-0.121 J-0.088
X179.121 Y31.088 I0.121 J0.088
X179.017 Y31.105 I-0.061 J-0.044
G1 X178.895 Y31.017
G0 Z5.
X179.075 Y40.575
Z1.9
G1 Z0. F320.
X178.925
G3 X178.85 Y40.5 J-0.075
X179.15 Z-0.5 I0.15
X178.85 Z-1. I-0.15
X179.15 Z-1.5 I0.15
X178.85 Z-2. I-0.15
X179.15 Z-2.5 I0.15
X178.85 Z-3. I-0.15
X179.15 Z-3.5 I0.15
X178.85 Z-4. I-0.15
X179.15 Z-4.5 I0.15
X178.85 Z-5. I-0.15
X179.15 Z-5.5 I0.15
X178.85 Z-6. I-0.15
X179.15 Z-6.5 I0.15
X178.85 Z-7. I-0.15
X179.15 Z-7.5 I0.15
X178.85 Z-8. I-0.15
X179.15 Z-8.5 I0.15
X178.85 Z-9. I-0.15
X178.879 Y40.412 Z-9.1 I0.15
X179.121 Y40.588 I0.121 J0.088
X178.879 Y40.412 I-0.121 J-0.088
X178.983 Y40.395 I0.061 J0.044
G1 X179.105 Y40.483
G0 Z5.
X198.925 Y40.425
Z1.9
G1 Z0. F320.
X199.075
G3 X199.15 Y40.5 J0.075
X198.85 Z-0.5 I-0.15
X199.15 Z-1. I0.15
X198.85 Z-1.5 I-0.15
X199.15 Z-2. I0.15
X198.85 Z-2.5 I-0.15
X199.15 Z-3. I0.15
X198.85 Z-3.5 I-0.15
X199.15 Z-4. I0.15
X198.85 Z-4.5 I-0.15
X199.15 Z-5. I0.15
X198.85 Z-5.5 I-0.15
X199.15 Z-6. I0.15
X198.85 Z-6.5 I-0.15
X199.15 Z-7. I0.15
X198.85 Z-7.5 I-0.15
X199.15 Z-8. I0.15
X198.85 Z-8.5 I-0.15
X199.15 Z-9. I0.15
X199.121 Y40.588 Z-9.1 I-0.15
X198.879 Y40.412 I-0.121 J-0.088
X199.121 Y40.588 I0.121 J0.088
X199.017 Y40.605 I-0.061 J-0.044
G1 X198.895 Y40.517
G0 Z5.
X199.075 Y31.075
Z1.9
G1 Z0. F320.
X198.925
G3 X198.85 Y31. J-0.075
X199.15 Z-0.5 I0.15
X198.85 Z-1. I-0.15
X199.15 Z-1.5 I0.15
X198.85 Z-2. I-0.15
X199.15 Z-2.5 I0.15
X198.85 Z-3. I-0.15
X199.15 Z-3.5 I0.15
X198.85 Z-4. I-0.15
X199.15 Z-4.5 I0.15
X198.85 Z-5. I-0.15
X199.15 Z-5.5 I0.15
X198.85 Z-6. I-0.15
X199.15 Z-6.5 I0.15
X198.85 Z-7. I-0.15
X199.15 Z-7.5 I0.15
X198.85 Z-8. I-0.15
X199.15 Z-8.5 I0.15
X198.85 Z-9. I-0.15
X198.879 Y30.912 Z-9.1 I0.15
X199.121 Y31.088 I0.121 J0.088
X198.879 Y30.912 I-0.121 J-0.088
X198.983 Y30.895 I0.061 J0.044
G1 X199.105 Y30.983
G0 Z5.
X198.925 Y70.925
Z1.9
G1 Z0. F320.
X199.075
G3 X199.15 Y71. J0.075
X198.85 Z-0.5 I-0.15
X199.15 Z-1. I0.15
X198.85 Z-1.5 I-0.15
X199.15 Z-2. I0.15
X198.85 Z-2.5 I-0.15
X199.15 Z-3. I0.15
X198.85 Z-3.5 I-0.15
X199.15 Z-4. I0.15
X198.85 Z-4.5 I-0.15
X199.15 Z-5. I0.15
X198.85 Z-5.5 I-0.15
X199.15 Z-6. I0.15
X198.85 Z-6.5 I-0.15
X199.15 Z-7. I0.15
X198.85 Z-7.5 I-0.15
X199.15 Z-8. I0.15
X198.85 Z-8.5 I-0.15
X199.15 Z-9. I0.15
X199.121 Y71.088 Z-9.1 I-0.15
X198.879 Y70.912 I-0.121 J-0.088
X199.121 Y71.088 I0.121 J0.088
X199.017 Y71.105 I-0.061 J-0.044
G1 X198.895 Y71.017
G0 Z5.
X199.075 Y60.575
Z1.9
G1 Z0. F320.
X198.925
G3 X198.85 Y60.5 J-0.075
X199.15 Z-0.5 I0.15
X198.85 Z-1. I-0.15
X199.15 Z-1.5 I0.15
X198.85 Z-2. I-0.15
X199.15 Z-2.5 I0.15
X198.85 Z-3. I-0.15
X199.15 Z-3.5 I0.15
X198.85 Z-4. I-0.15
X199.15 Z-4.5 I0.15
X198.85 Z-5. I-0.15
X199.15 Z-5.5 I0.15
X198.85 Z-6. I-0.15
X199.15 Z-6.5 I0.15
X198.85 Z-7. I-0.15
X199.15 Z-7.5 I0.15
X198.85 Z-8. I-0.15
X199.15 Z-8.5 I0.15
X198.85 Z-9. I-0.15
X198.879 Y60.412 Z-9.1 I0.15
X199.121 Y60.588 I0.121 J0.088
X198.879 Y60.412 I-0.121 J-0.088
X198.983 Y60.395 I0.061 J0.044
G1 X199.105 Y60.483
G0 Z5.
X178.925 Y60.425
Z1.9
G1 Z0. F320.
X179.075
G3 X179.15 Y60.5 J0.075
X178.85 Z-0.5 I-0.15
X179.15 Z-1. I0.15
X178.85 Z-1.5 I-0.15
X179.15 Z-2. I0.15
X178.85 Z-2.5 I-0.15
X179.15 Z-3. I0.15
X178.85 Z-3.5 I-0.15
X179.15 Z-4. I0.15
X178.85 Z-4.5 I-0.15
X179.15 Z-5. I0.15
X178.85 Z-5.5 I-0.15
X179.15 Z-6. I0.15
X178.85 Z-6.5 I-0.15
X179.15 Z-7. I0.15
X178.85 Z-7.5 I-0.15
X179.15 Z-8. I0.15
X178.85 Z-8.5 I-0.15
X179.15 Z-9. I0.15
X179.121 Y60.588 Z-9.1 I-0.15
X178.879 Y60.412 I-0.121 J-0.088
X179.121 Y60.588 I0.121 J0.088
X179.017 Y60.605 I-0.061 J-0.044
G1 X178.895 Y60.517
G0 Z5.
X179.075 Y71.075
Z1.9
G1 Z0. F320.
X178.925
G3 X178.85 Y71. J-0.075
X179.15 Z-0.5 I0.15
X178.85 Z-1. I-0.15
X179.15 Z-1.5 I0.15
X178.85 Z-2. I-0.15
X179.15 Z-2.5 I0.15
X178.85 Z-3. I-0.15
X179.15 Z-3.5 I0.15
X178.85 Z-4. I-0.15
X179.15 Z-4.5 I0.15
X178.85 Z-5. I-0.15
X179.15 Z-5.5 I0.15
X178.85 Z-6. I-0.15
X179.15 Z-6.5 I0.15
X178.85 Z-7. I-0.15
X179.15 Z-7.5 I0.15
X178.85 Z-8. I-0.15
X179.15 Z-8.5 I0.15
X178.85 Z-9. I-0.15
X178.879 Y70.912 Z-9.1 I0.15
X179.121 Y71.088 I0.121 J0.088
X178.879 Y70.912 I-0.121 J-0.088
X178.983 Y70.895 I0.061 J0.044
G1 X179.105 Y70.983
G0 Z5.
X179.075 Y100.575
Z1.9
G1 Z0. F320.
X178.925
G3 X178.85 Y100.5 J-0.075
X179.15 Z-0.5 I0.15
X178.85 Z-1. I-0.15
X179.15 Z-1.5 I0.15
X178.85 Z-2. I-0.15
X179.15 Z-2.5 I0.15
X178.85 Z-3. I-0.15
X179.15 Z-3.5 I0.15
X178.85 Z-4. I-0.15
X179.15 Z-4.5 I0.15
X178.85 Z-5. I-0.15
X179.15 Z-5.5 I0.15
X178.85 Z-6. I-0.15
X179.15 Z-6.5 I0.15
X178.85 Z-7. I-0.15
X179.15 Z-7.5 I0.15
X178.85 Z-8. I-0.15
X179.15 Z-8.5 I0.15
X178.85 Z-9. I-0.15
X178.879 Y100.412 Z-9.1 I0.15
X179.121 Y100.588 I0.121 J0.088
X178.879 Y100.412 I-0.121 J-0.088
X178.983 Y100.395 I0.061 J0.044
G1 X179.105 Y100.483
G0 Z5.
X178.925 Y90.925
Z1.9
G1 Z0. F320.
X179.075
G3 X179.15 Y91. J0.075
X178.85 Z-0.5 I-0.15
X179.15 Z-1. I0.15
X178.85 Z-1.5 I-0.15
X179.15 Z-2. I0.15
X178.85 Z-2.5 I-0.15
X179.15 Z-3. I0.15
X178.85 Z-3.5 I-0.15
X179.15 Z-4. I0.15
X178.85 Z-4.5 I-0.15
X179.15 Z-5. I0.15
X178.85 Z-5.5 I-0.15
X179.15 Z-6. I0.15
X178.85 Z-6.5 I-0.15
X179.15 Z-7. I0.15
X178.85 Z-7.5 I-0.15
X179.15 Z-8. I0.15
X178.85 Z-8.5 I-0.15
X179.15 Z-9. I0.15
X179.121 Y91.088 Z-9.1 I-0.15
X178.879 Y90.912 I-0.121 J-0.088
X179.121 Y91.088 I0.121 J0.088
X179.017 Y91.105 I-0.061 J-0.044
G1 X178.895 Y91.017
G0 Z5.
X199.075 Y91.075
Z1.9
G1 Z0. F320.
X198.925
G3 X198.85 Y91. J-0.075
X199.15 Z-0.5 I0.15
X198.85 Z-1. I-0.15
X199.15 Z-1.5 I0.15
X198.85 Z-2. I-0.15
X199.15 Z-2.5 I0.15
X198.85 Z-3. I-0.15
X199.15 Z-3.5 I0.15
X198.85 Z-4. I-0.15
X199.15 Z-4.5 I0.15
X198.85 Z-5. I-0.15
X199.15 Z-5.5 I0.15
X198.85 Z-6. I-0.15
X199.15 Z-6.5 I0.15
X198.85 Z-7. I-0.15
X199.15 Z-7.5 I0.15
X198.85 Z-8. I-0.15
X199.15 Z-8.5 I0.15
X198.85 Z-9. I-0.15
X198.879 Y90.912 Z-9.1 I0.15
X199.121 Y91.088 I0.121 J0.088
X198.879 Y90.912 I-0.121 J-0.088
X198.983 Y90.895 I0.061 J0.044
G1 X199.105 Y90.983
G0 Z5.
X198.925 Y100.425
Z1.9
G1 Z0. F320.
X199.075
G3 X199.15 Y100.5 J0.075
X198.85 Z-0.5 I-0.15
X199.15 Z-1. I0.15
X198.85 Z-1.5 I-0.15
X199.15 Z-2. I0.15
X198.85 Z-2.5 I-0.15
X199.15 Z-3. I0.15
X198.85 Z-3.5 I-0.15
X199.15 Z-4. I0.15
X198.85 Z-4.5 I-0.15
X199.15 Z-5. I0.15
X198.85 Z-5.5 I-0.15
X199.15 Z-6. I0.15
X198.85 Z-6.5 I-0.15
X199.15 Z-7. I0.15
X198.85 Z-7.5 I-0.15
X199.15 Z-8. I0.15
X198.85 Z-8.5 I-0.15
X199.15 Z-9. I0.15
X199.121 Y100.588 Z-9.1 I-0.15
X198.879 Y100.412 I-0.121 J-0.088
X199.121 Y100.588 I0.121 J0.088
X199.017 Y100.605 I-0.061 J-0.044
G1 X198.895 Y100.517
G0 Z5.
X199.075 Y120.575
Z1.9
G1 Z0. F320.
X198.925
G3 X198.85 Y120.5 J-0.075
X199.15 Z-0.5 I0.15
X198.85 Z-1. I-0.15
X199.15 Z-1.5 I0.15
X198.85 Z-2. I-0.15
X199.15 Z-2.5 I0.15
X198.85 Z-3. I-0.15
X199.15 Z-3.5 I0.15
X198.85 Z-4. I-0.15
X199.15 Z-4.5 I0.15
X198.85 Z-5. I-0.15
X199.15 Z-5.5 I0.15
X198.85 Z-6. I-0.15
X199.15 Z-6.5 I0.15
X198.85 Z-7. I-0.15
X199.15 Z-7.5 I0.15
X198.85 Z-8. I-0.15
X199.15 Z-8.5 I0.15
X198.85 Z-9. I-0.15
X198.879 Y120.412 Z-9.1 I0.15
X199.121 Y120.588 I0.121 J0.088
X198.879 Y120.412 I-0.121 J-0.088
X198.983 Y120.395 I0.061 J0.044
G1 X199.105 Y120.483
G0 Z5.
X178.925 Y120.425
Z1.9
G1 Z0. F320.
X179.075
G3 X179.15 Y120.5 J0.075
X178.85 Z-0.5 I-0.15
X179.15 Z-1. I0.15
X178.85 Z-1.5 I-0.15
X179.15 Z-2. I0.15
X178.85 Z-2.5 I-0.15
X179.15 Z-3. I0.15
X178.85 Z-3.5 I-0.15
X179.15 Z-4. I0.15
X178.85 Z-4.5 I-0.15
X179.15 Z-5. I0.15
X178.85 Z-5.5 I-0.15
X179.15 Z-6. I0.15
X178.85 Z-6.5 I-0.15
X179.15 Z-7. I0.15
X178.85 Z-7.5 I-0.15
X179.15 Z-8. I0.15
X178.85 Z-8.5 I-0.15
X179.15 Z-9. I0.15
X179.121 Y120.588 Z-9.1 I-0.15
X178.879 Y120.412 I-0.121 J-0.088
X179.121 Y120.588 I0.121 J0.088
X179.017 Y120.605 I-0.061 J-0.044
G1 X178.895 Y120.517
G0 Z5.
X156.451 Y110.925
Z1.9
G1 Z0. F320.
X156.601
G3 X156.676 Y111. J0.075
X156.376 Z-0.5 I-0.15
X156.676 Z-1. I0.15
X156.376 Z-1.5 I-0.15
X156.676 Z-2. I0.15
X156.376 Z-2.5 I-0.15
X156.676 Z-3. I0.15
X156.376 Z-3.5 I-0.15
X156.676 Z-4. I0.15
X156.376 Z-4.5 I-0.15
X156.676 Z-5. I0.15
X156.376 Z-5.5 I-0.15
X156.676 Z-6. I0.15
X156.376 Z-6.5 I-0.15
X156.676 Z-7. I0.15
X156.376 Z-7.5 I-0.15
X156.676 Z-8. I0.15
X156.376 Z-8.5 I-0.15
X156.676 Z-9. I0.15
X156.648 Y111.088 Z-9.1 I-0.15
X156.405 Y110.912 I-0.121 J-0.088
X156.648 Y111.088 I0.121 J0.088
X156.543 Y111.105 I-0.061 J-0.044
G1 X156.422 Y111.017
G0 Z5.
X146.925 Y116.425
Z1.9
G1 Z0. F320.
X147.075
G3 X147.15 Y116.5 J0.075
X146.85 Z-0.5 I-0.15
X147.15 Z-1. I0.15
X146.85 Z-1.5 I-0.15
X147.15 Z-2. I0.15
X146.85 Z-2.5 I-0.15
X147.15 Z-3. I0.15
X146.85 Z-3.5 I-0.15
X147.15 Z-4. I0.15
X146.85 Z-4.5 I-0.15
X147.15 Z-5. I0.15
X146.85 Z-5.5 I-0.15
X147.15 Z-6. I0.15
X146.85 Z-6.5 I-0.15
X147.15 Z-7. I0.15
X146.85 Z-7.5 I-0.15
X147.15 Z-8. I0.15
X146.85 Z-8.5 I-0.15
X147.15 Z-9. I0.15
X147.121 Y116.588 Z-9.1 I-0.15
X146.879 Y116.412 I-0.121 J-0.088
X147.121 Y116.588 I0.121 J0.088
X147.017 Y116.605 I-0.061 J-0.044
G1 X146.895 Y116.517
G0 Z5.
X137.399 Y110.925
Z1.9
G1 Z0. F320.
X137.549
G3 X137.624 Y111. J0.075
X137.324 Z-0.5 I-0.15
X137.624 Z-1. I0.15
X137.324 Z-1.5 I-0.15
X137.624 Z-2. I0.15
X137.324 Z-2.5 I-0.15
X137.624 Z-3. I0.15
X137.324 Z-3.5 I-0.15
X137.624 Z-4. I0.15
X137.324 Z-4.5 I-0.15
X137.624 Z-5. I0.15
X137.324 Z-5.5 I-0.15
X137.624 Z-6. I0.15
X137.324 Z-6.5 I-0.15
X137.624 Z-7. I0.15
X137.324 Z-7.5 I-0.15
X137.624 Z-8. I0.15
X137.324 Z-8.5 I-0.15
X137.624 Z-9. I0.15
X137.595 Y111.088 Z-9.1 I-0.15
X137.352 Y110.912 I-0.121 J-0.088
X137.595 Y111.088 I0.121 J0.088
X137.49 Y111.105 I-0.061 J-0.044
G1 X137.369 Y111.017
G0 Z5.
X137.399 Y99.925
Z1.9
G1 Z0. F320.
X137.549
G3 X137.624 Y100. J0.075
X137.324 Z-0.5 I-0.15
X137.624 Z-1. I0.15
X137.324 Z-1.5 I-0.15
X137.624 Z-2. I0.15
X137.324 Z-2.5 I-0.15
X137.624 Z-3. I0.15
X137.324 Z-3.5 I-0.15
X137.624 Z-4. I0.15
X137.324 Z-4.5 I-0.15
X137.624 Z-5. I0.15
X137.324 Z-5.5 I-0.15
X137.624 Z-6. I0.15
X137.324 Z-6.5 I-0.15
X137.624 Z-7. I0.15
X137.324 Z-7.5 I-0.15
X137.624 Z-8. I0.15
X137.324 Z-8.5 I-0.15
X137.624 Z-9. I0.15
X137.595 Y100.088 Z-9.1 I-0.15
X137.352 Y99.912 I-0.121 J-0.088
X137.595 Y100.088 I0.121 J0.088
X137.49 Y100.105 I-0.061 J-0.044
G1 X137.369 Y100.017
G0 Z5.
X153.9 Y105.4
Z2.
G1 Z0.1 F320.
G18 G2 X154. Z0. I0.1
G1 X154.15
G17 G3 X154.25 Y105.5 J0.1
X139.75 Z-0.5 I-7.25
X154.25 Z-1. I7.25
X139.75 Z-1.5 I-7.25
X154.25 Z-2. I7.25
X139.75 Z-2.5 I-7.25
X154.25 Z-3. I7.25
X139.75 Z-3.5 I-7.25
X154.25 Z-4. I7.25
X139.75 Z-4.5 I-7.25
X154.25 Z-5. I7.25
X139.75 Z-5.5 I-7.25
X154.25 Z-6. I7.25
X139.75 Z-6.5 I-7.25
X154.25 Z-7. I7.25
X139.75 Z-7.5 I-7.25
X154.25 Z-8. I7.25
X139.75 Z-8.5 I-7.25
X154.25 Z-9. I7.25
X152.865 Y109.761 Z-9.1 I-7.25
X141.135 Y101.239 I-5.865 J-4.261
X152.865 Y109.761 I5.865 J4.261
X152.726 Y109.784 I-0.081 J-0.059
G1 X152.604 Y109.695
X152.573 Y109.673 Z-9.092
X152.547 Y109.654 Z-9.071
X152.53 Y109.641 Z-9.038
X152.523 Y109.637 Z-9.
G0 Z5.
X156.451 Y99.925
Z1.9
G1 Z0. F320.
X156.601
G3 X156.676 Y100. J0.075
X156.376 Z-0.5 I-0.15
X156.676 Z-1. I0.15
X156.376 Z-1.5 I-0.15
X156.676 Z-2. I0.15
X156.376 Z-2.5 I-0.15
X156.676 Z-3. I0.15
X156.376 Z-3.5 I-0.15
X156.676 Z-4. I0.15
X156.376 Z-4.5 I-0.15
X156.676 Z-5. I0.15
X156.376 Z-5.5 I-0.15
X156.676 Z-6. I0.15
X156.376 Z-6.5 I-0.15
X156.676 Z-7. I0.15
X156.376 Z-7.5 I-0.15
X156.676 Z-8. I0.15
X156.376 Z-8.5 I-0.15
X156.676 Z-9. I0.15
X156.648 Y100.088 Z-9.1 I-0.15
X156.405 Y99.912 I-0.121 J-0.088
X156.648 Y100.088 I0.121 J0.088
X156.543 Y100.105 I-0.061 J-0.044
G1 X156.422 Y100.017
G0 Z5.
X146.925 Y94.425
Z1.9
G1 Z0. F320.
X147.075
G3 X147.15 Y94.5 J0.075
X146.85 Z-0.5 I-0.15
X147.15 Z-1. I0.15
X146.85 Z-1.5 I-0.15
X147.15 Z-2. I0.15
X146.85 Z-2.5 I-0.15
X147.15 Z-3. I0.15
X146.85 Z-3.5 I-0.15
X147.15 Z-4. I0.15
X146.85 Z-4.5 I-0.15
X147.15 Z-5. I0.15
X146.85 Z-5.5 I-0.15
X147.15 Z-6. I0.15
X146.85 Z-6.5 I-0.15
X147.15 Z-7. I0.15
X146.85 Z-7.5 I-0.15
X147.15 Z-8. I0.15
X146.85 Z-8.5 I-0.15
X147.15 Z-9. I0.15
X147.121 Y94.588 Z-9.1 I-0.15
X146.879 Y94.412 I-0.121 J-0.088
X147.121 Y94.588 I0.121 J0.088
X147.017 Y94.605 I-0.061 J-0.044
G1 X146.895 Y94.517
G0 Z5.
X128.15 Y80.4
Z2.
G1 Z0.1 F320.
G18 G2 X128.25 Z0. I0.1
G1 X128.4
G17 G3 X128.5 Y80.5 J0.1
X125.5 Z-0.5 I-1.5
X128.5 Z-1. I1.5
X125.5 Z-1.5 I-1.5
X128.5 Z-2. I1.5
X125.5 Z-2.5 I-1.5
X128.5 Z-3. I1.5
X125.5 Z-3.5 I-1.5
X128.5 Z-4. I1.5
X125.5 Z-4.5 I-1.5
X128.5 Z-5. I1.5
X125.5 Z-5.5 I-1.5
X128.5 Z-6. I1.5
X125.5 Z-6.5 I-1.5
X128.5 Z-7. I1.5
X125.5 Z-7.5 I-1.5
X128.5 Z-8. I1.5
X125.5 Z-8.5 I-1.5
X128.5 Z-9. I1.5
X128.214 Y81.382 Z-9.1 I-1.5
X125.786 Y79.618 I-1.214 J-0.882
X128.214 Y81.382 I1.214 J0.882
X128.074 Y81.404 I-0.081 J-0.059
G1 X127.952 Y81.316
X127.922 Y81.293 Z-9.092
X127.895 Y81.274 Z-9.071
X127.878 Y81.261 Z-9.038
X127.872 Y81.257 Z-9.
G0 Z5.
X114.15 Y107.4
Z2.
G1 Z0.1 F320.
G18 G2 X114.25 Z0. I0.1
G1 X114.4
G17 G3 X114.5 Y107.5 J0.1
X99.5 Z-0.5 I-7.5
X114.5 Z-1. I7.5
X99.5 Z-1.5 I-7.5
X114.5 Z-2. I7.5
X99.5 Z-2.5 I-7.5
X114.5 Z-3. I7.5
X99.5 Z-3.5 I-7.5
X114.5 Z-4. I7.5
X99.5 Z-4.5 I-7.5
X114.5 Z-5. I7.5
X99.5 Z-5.5 I-7.5
X114.5 Z-6. I7.5
X99.5 Z-6.5 I-7.5
X114.5 Z-7. I7.5
X99.5 Z-7.5 I-7.5
X114.5 Z-8. I7.5
X99.5 Z-8.5 I-7.5
X114.5 Z-9. I7.5
X113.068 Y111.908 Z-9.1 I-7.5
X100.932 Y103.092 I-6.068 J-4.408
X113.068 Y111.908 I6.068 J4.408
X112.928 Y111.931 I-0.081 J-0.059
G1 X112.807 Y111.842
X112.776 Y111.82 Z-9.092
X112.749 Y111.801 Z-9.071
X112.732 Y111.788 Z-9.038
X112.726 Y111.784 Z-9.
G0 Z5.
X80. Y95.65
Z1.9
G1 Z0. F320.
X79.975 Y95.675
G3 X79.95 Y95.65 J-0.025
X80.05 Z-0.5 I0.05
X79.95 Z-1. I-0.05
X80.05 Z-1.5 I0.05
X79.95 Z-2. I-0.05
X80.05 Z-2.5 I0.05
X79.95 Z-3. I-0.05
X80.05 Z-3.5 I0.05
X79.95 Z-4. I-0.05
X80.05 Z-4.5 I0.05
X79.95 Z-5. I-0.05
X80.05 Z-5.5 I0.05
X79.95 Z-6. I-0.05
X80.05 Z-6.5 I0.05
X79.95 Z-7. I-0.05
X80.05 Z-7.5 I0.05
X79.95 Z-8. I-0.05
X80.05 Z-8.5 I0.05
X79.95 Z-9. I-0.05
X79.96 Y95.621 Z-9.1 I0.05
X80.04 Y95.679 I0.04 J0.029
X79.96 Y95.621 I-0.04 J-0.029
X79.994 Y95.615 I0.02 J0.015
G1 X80. Y95.65
G0 Z5.
X78.45 Y103.4
Z2.
G1 Z0.1 F320.
G18 G2 X78.55 Z0. I0.1
G1 X78.7
G17 G3 X78.8 Y103.5 J0.1
X76.8 Z-0.5 I-1.
X78.8 Z-1. I1.
X76.8 Z-1.5 I-1.
X78.8 Z-2. I1.
X76.8 Z-2.5 I-1.
X78.8 Z-3. I1.
X76.8 Z-3.5 I-1.
X78.8 Z-4. I1.
X76.8 Z-4.5 I-1.
X78.8 Z-5. I1.
X76.8 Z-5.5 I-1.
X78.8 Z-6. I1.
X76.8 Z-6.5 I-1.
X78.8 Z-7. I1.
X76.8 Z-7.5 I-1.
X78.8 Z-8. I1.
X76.8 Z-8.5 I-1.
X78.8 Z-9. I1.
X78.609 Y104.088 Z-9.1 I-1.
X76.991 Y102.912 I-0.809 J-0.588
X78.609 Y104.088 I0.809 J0.588
X78.469 Y104.11 I-0.081 J-0.059
G1 X78.348 Y104.022
X78.317 Y103.999 Z-9.092
X78.291 Y103.98 Z-9.071
X78.273 Y103.967 Z-9.038
X78.267 Y103.963 Z-9.
G0 Z5.
X57.15 Y103.6
Z2.
G1 Z0.1 F320.
G18 G3 X57.05 Z0. I-0.1
G1 X56.9
G17 G3 X56.8 Y103.5 J-0.1
X58.8 Z-0.5 I1.
X56.8 Z-1. I-1.
X58.8 Z-1.5 I1.
X56.8 Z-2. I-1.
X58.8 Z-2.5 I1.
X56.8 Z-3. I-1.
X58.8 Z-3.5 I1.
X56.8 Z-4. I-1.
X58.8 Z-4.5 I1.
X56.8 Z-5. I-1.
X58.8 Z-5.5 I1.
X56.8 Z-6. I-1.
X58.8 Z-6.5 I1.
X56.8 Z-7. I-1.
X58.8 Z-7.5 I1.
X56.8 Z-8. I-1.
X58.8 Z-8.5 I1.
X56.8 Z-9. I-1.
X56.991 Y102.912 Z-9.1 I1.
X58.609 Y104.088 I0.809 J0.588
X56.991 Y102.912 I-0.809 J-0.588
X57.131 Y102.89 I0.081 J0.059
G1 X57.252 Y102.978
X57.283 Y103.001 Z-9.092
X57.309 Y103.02 Z-9.071
X57.327 Y103.033 Z-9.038
X57.333 Y103.037 Z-9.
G0 Z5.
X55. Y95.65
Z1.9
G1 Z0. F320.
X54.975 Y95.675
G3 X54.95 Y95.65 J-0.025
X55.05 Z-0.5 I0.05
X54.95 Z-1. I-0.05
X55.05 Z-1.5 I0.05
X54.95 Z-2. I-0.05
X55.05 Z-2.5 I0.05
X54.95 Z-3. I-0.05
X55.05 Z-3.5 I0.05
X54.95 Z-4. I-0.05
X55.05 Z-4.5 I0.05
X54.95 Z-5. I-0.05
X55.05 Z-5.5 I0.05
X54.95 Z-6. I-0.05
X55.05 Z-6.5 I0.05
X54.95 Z-7. I-0.05
X55.05 Z-7.5 I0.05
X54.95 Z-8. I-0.05
X55.05 Z-8.5 I0.05
X54.95 Z-9. I-0.05
X54.96 Y95.621 Z-9.1 I0.05
X55.04 Y95.679 I0.04 J0.029
X54.96 Y95.621 I-0.04 J-0.029
X54.994 Y95.615 I0.02 J0.015
G1 X55. Y95.65
G0 Z5.
X31.
Z1.9
G1 Z0. F320.
X30.975 Y95.675
G3 X30.95 Y95.65 J-0.025
X31.05 Z-0.5 I0.05
X30.95 Z-1. I-0.05
X31.05 Z-1.5 I0.05
X30.95 Z-2. I-0.05
X31.05 Z-2.5 I0.05
X30.95 Z-3. I-0.05
X31.05 Z-3.5 I0.05
X30.95 Z-4. I-0.05
X31.05 Z-4.5 I0.05
X30.95 Z-5. I-0.05
X31.05 Z-5.5 I0.05
X30.95 Z-6. I-0.05
X31.05 Z-6.5 I0.05
X30.95 Z-7. I-0.05
X31.05 Z-7.5 I0.05
X30.95 Z-8. I-0.05
X31.05 Z-8.5 I0.05
X30.95 Z-9. I-0.05
X30.96 Y95.621 Z-9.1 I0.05
X31.04 Y95.679 I0.04 J0.029
X30.96 Y95.621 I-0.04 J-0.029
X30.994 Y95.615 I0.02 J0.015
G1 X31. Y95.65
G0 Z5.
X28.85 Y103.4
Z2.
G1 Z0.1 F320.
G18 G2 X28.95 Z0. I0.1
G1 X29.1
G17 G3 X29.2 Y103.5 J0.1
X27.2 Z-0.5 I-1.
X29.2 Z-1. I1.
X27.2 Z-1.5 I-1.
X29.2 Z-2. I1.
X27.2 Z-2.5 I-1.
X29.2 Z-3. I1.
X27.2 Z-3.5 I-1.
X29.2 Z-4. I1.
X27.2 Z-4.5 I-1.
X29.2 Z-5. I1.
X27.2 Z-5.5 I-1.
X29.2 Z-6. I1.
X27.2 Z-6.5 I-1.
X29.2 Z-7. I1.
X27.2 Z-7.5 I-1.
X29.2 Z-8. I1.
X27.2 Z-8.5 I-1.
X29.2 Z-9. I1.
X29.009 Y104.088 Z-9.1 I-1.
X27.391 Y102.912 I-0.809 J-0.588
X29.009 Y104.088 I0.809 J0.588
X28.869 Y104.11 I-0.081 J-0.059
G1 X28.748 Y104.022
X28.717 Y103.999 Z-9.092
X28.691 Y103.98 Z-9.071
X28.673 Y103.967 Z-9.038
X28.667 Y103.963 Z-9.
G0 Z5.
X7.55 Y103.6
Z2.
G1 Z0.1 F320.
G18 G3 X7.45 Z0. I-0.1
G1 X7.3
G17 G3 X7.2 Y103.5 J-0.1
X9.2 Z-0.5 I1.
X7.2 Z-1. I-1.
X9.2 Z-1.5 I1.
X7.2 Z-2. I-1.
X9.2 Z-2.5 I1.
X7.2 Z-3. I-1.
X9.2 Z-3.5 I1.
X7.2 Z-4. I-1.
X9.2 Z-4.5 I1.
X7.2 Z-5. I-1.
X9.2 Z-5.5 I1.
X7.2 Z-6. I-1.
X9.2 Z-6.5 I1.
X7.2 Z-7. I-1.
X9.2 Z-7.5 I1.
X7.2 Z-8. I-1.
X9.2 Z-8.5 I1.
X7.2 Z-9. I-1.
X7.391 Y102.912 Z-9.1 I1.
X9.009 Y104.088 I0.809 J0.588
X7.391 Y102.912 I-0.809 J-0.588
X7.531 Y102.89 I0.081 J0.059
G1 X7.652 Y102.978
X7.683 Y103.001 Z-9.092
X7.709 Y103.02 Z-9.071
X7.727 Y103.033 Z-9.038
X7.733 Y103.037 Z-9.
G0 Z5.
X6. Y95.65
Z1.9
G1 Z0. F320.
X6.025 Y95.625
G3 X6.05 Y95.65 J0.025
X5.95 Z-0.5 I-0.05
X6.05 Z-1. I0.05
X5.95 Z-1.5 I-0.05
X6.05 Z-2. I0.05
X5.95 Z-2.5 I-0.05
X6.05 Z-3. I0.05
X5.95 Z-3.5 I-0.05
X6.05 Z-4. I0.05
X5.95 Z-4.5 I-0.05
X6.05 Z-5. I0.05
X5.95 Z-5.5 I-0.05
X6.05 Z-6. I0.05
X5.95 Z-6.5 I-0.05
X6.05 Z-7. I0.05
X5.95 Z-7.5 I-0.05
X6.05 Z-8. I0.05
X5.95 Z-8.5 I-0.05
X6.05 Z-9. I0.05
X6.04 Y95.679 Z-9.1 I-0.05
X5.96 Y95.621 I-0.04 J-0.029
X6.04 Y95.679 I0.04 J0.029
X6.006 Y95.685 I-0.02 J-0.015
G1 X6. Y95.65
G0 Z5.
X7.55 Y123.6
Z2.
G1 Z0.1 F320.
G18 G3 X7.45 Z0. I-0.1
G1 X7.3
G17 G3 X7.2 Y123.5 J-0.1
X9.2 Z-0.5 I1.
X7.2 Z-1. I-1.
X9.2 Z-1.5 I1.
X7.2 Z-2. I-1.
X9.2 Z-2.5 I1.
X7.2 Z-3. I-1.
X9.2 Z-3.5 I1.
X7.2 Z-4. I-1.
X9.2 Z-4.5 I1.
X7.2 Z-5. I-1.
X9.2 Z-5.5 I1.
X7.2 Z-6. I-1.
X9.2 Z-6.5 I1.
X7.2 Z-7. I-1.
X9.2 Z-7.5 I1.
X7.2 Z-8. I-1.
X9.2 Z-8.5 I1.
X7.2 Z-9. I-1.
X7.391 Y122.912 Z-9.1 I1.
X9.009 Y124.088 I0.809 J0.588
X7.391 Y122.912 I-0.809 J-0.588
X7.531 Y122.89 I0.081 J0.059
G1 X7.652 Y122.978
X7.683 Y123.001 Z-9.092
X7.709 Y123.02 Z-9.071
X7.727 Y123.033 Z-9.038
X7.733 Y123.037 Z-9.
G0 Z5.
X28.85 Y123.4
Z2.
G1 Z0.1 F320.
G18 G2 X28.95 Z0. I0.1
G1 X29.1
G17 G3 X29.2 Y123.5 J0.1
X27.2 Z-0.5 I-1.
X29.2 Z-1. I1.
X27.2 Z-1.5 I-1.
X29.2 Z-2. I1.
X27.2 Z-2.5 I-1.
X29.2 Z-3. I1.
X27.2 Z-3.5 I-1.
X29.2 Z-4. I1.
X27.2 Z-4.5 I-1.
X29.2 Z-5. I1.
X27.2 Z-5.5 I-1.
X29.2 Z-6. I1.
X27.2 Z-6.5 I-1.
X29.2 Z-7. I1.
X27.2 Z-7.5 I-1.
X29.2 Z-8. I1.
X27.2 Z-8.5 I-1.
X29.2 Z-9. I1.
X29.009 Y124.088 Z-9.1 I-1.
X27.391 Y122.912 I-0.809 J-0.588
X29.009 Y124.088 I0.809 J0.588
X28.869 Y124.11 I-0.081 J-0.059
G1 X28.748 Y124.022
X28.717 Y123.999 Z-9.092
X28.691 Y123.98 Z-9.071
X28.673 Y123.967 Z-9.038
X28.667 Y123.963 Z-9.
G0 Z5.
X57.15 Y123.6
Z2.
G1 Z0.1 F320.
G18 G3 X57.05 Z0. I-0.1
G1 X56.9
G17 G3 X56.8 Y123.5 J-0.1
X58.8 Z-0.5 I1.
X56.8 Z-1. I-1.
X58.8 Z-1.5 I1.
X56.8 Z-2. I-1.
X58.8 Z-2.5 I1.
X56.8 Z-3. I-1.
X58.8 Z-3.5 I1.
X56.8 Z-4. I-1.
X58.8 Z-4.5 I1.
X56.8 Z-5. I-1.
X58.8 Z-5.5 I1.
X56.8 Z-6. I-1.
X58.8 Z-6.5 I1.
X56.8 Z-7. I-1.
X58.8 Z-7.5 I1.
X56.8 Z-8. I-1.
X58.8 Z-8.5 I1.
X56.8 Z-9. I-1.
X56.991 Y122.912 Z-9.1 I1.
X58.609 Y124.088 I0.809 J0.588
X56.991 Y122.912 I-0.809 J-0.588
X57.131 Y122.89 I0.081 J0.059
G1 X57.252 Y122.978
X57.283 Y123.001 Z-9.092
X57.309 Y123.02 Z-9.071
X57.327 Y123.033 Z-9.038
X57.333 Y123.037 Z-9.
G0 Z5.
X78.45 Y123.4
Z2.
G1 Z0.1 F320.
G18 G2 X78.55 Z0. I0.1
G1 X78.7
G17 G3 X78.8 Y123.5 J0.1
X76.8 Z-0.5 I-1.
X78.8 Z-1. I1.
X76.8 Z-1.5 I-1.
X78.8 Z-2. I1.
X76.8 Z-2.5 I-1.
X78.8 Z-3. I1.
X76.8 Z-3.5 I-1.
X78.8 Z-4. I1.
X76.8 Z-4.5 I-1.
X78.8 Z-5. I1.
X76.8 Z-5.5 I-1.
X78.8 Z-6. I1.
X76.8 Z-6.5 I-1.
X78.8 Z-7. I1.
X76.8 Z-7.5 I-1.
X78.8 Z-8. I1.
X76.8 Z-8.5 I-1.
X78.8 Z-9. I1.
X78.609 Y124.088 Z-9.1 I-1.
X76.991 Y122.912 I-0.809 J-0.588
X78.609 Y124.088 I0.809 J0.588
X78.469 Y124.11 I-0.081 J-0.059
G1 X78.348 Y124.022
X78.317 Y123.999 Z-9.092
X78.291 Y123.98 Z-9.071
X78.273 Y123.967 Z-9.038
X78.267 Y123.963 Z-9.
G0 Z5.
X91.925 Y142.925
Z1.9
G1 Z0. F320.
X92.075
G3 X92.15 Y143. J0.075
X91.85 Z-0.5 I-0.15
X91.954 Y142.857 Z-0.7 I0.15
X92.046 Y143.143 Z-1.2 I0.046 J0.143
X91.879 Y143.088 Z-1.4 I-0.046 J-0.143
X92.121 Y142.912 Z-1.9 I0.121 J-0.088
Y143.088 Z-2.1 I-0.121 J0.088
X91.879 Y142.912 Z-2.6 I-0.121 J-0.088
X92.046 Y142.857 Z-2.8 I0.121 J0.088
X91.954 Y143.143 Z-3.3 I-0.046 J0.143
X92.046 Y142.857 Z-3.8 I0.046 J-0.143
Y143.143 Z-4.2 I-0.046 J0.143
X91.954 Y142.857 Z-4.7 I-0.046 J-0.143
X92.121 Y142.912 Z-4.9 I0.046 J0.143
X91.879 Y143.088 Z-5.4 I-0.121 J0.088
Y142.912 Z-5.6 I0.121 J-0.088
X92.121 Y143.088 Z-6.1 I0.121 J0.088
X91.954 Y143.143 Z-6.3 I-0.121 J-0.088
X92.046 Y142.857 Z-6.8 I0.046 J-0.143
X91.954 Y143.143 Z-7.3 I-0.046 J0.143
Y142.857 Z-7.7 I0.046 J-0.143
X92.046 Y143.143 Z-8.2 I0.046 J0.143
X91.879 Y143.088 Z-8.4 I-0.046 J-0.143
X92.121 Y142.912 Z-8.9 I0.121 J-0.088
Y143.088 Z-9.1 I-0.121 J0.088
X91.879 Y142.912 I-0.121 J-0.088
X92.121 Y143.088 I0.121 J0.088
X92.017 Y143.105 I-0.061 J-0.044
G1 X91.895 Y143.017
G0 Z5.
X106.65 Y151.9
Z2.
G1 Z0.1 F320.
G18 G2 X106.75 Z0. I0.1
G1 X106.9
G17 G3 X107. Y152. J0.1
X99. Z-0.5 I-4.
X107. Z-1. I4.
X99. Z-1.5 I-4.
X107. Z-2. I4.
X99. Z-2.5 I-4.
X107. Z-3. I4.
X99. Z-3.5 I-4.
X107. Z-4. I4.
X99. Z-4.5 I-4.
X107. Z-5. I4.
X99. Z-5.5 I-4.
X107. Z-6. I4.
X99. Z-6.5 I-4.
X107. Z-7. I4.
X99. Z-7.5 I-4.
X107. Z-8. I4.
X99. Z-8.5 I-4.
X107. Z-9. I4.
X106.236 Y154.351 Z-9.1 I-4.
X99.764 Y149.649 I-3.236 J-2.351
X106.236 Y154.351 I3.236 J2.351
X106.096 Y154.373 I-0.081 J-0.059
G1 X105.975 Y154.285
