%
O00001003
(T1  D=2.5 CR=0. TAPER=118DEG - ZMIN=-9. - DRILL)
G90 G94 G17
G21
G91
G28 Z0.
G90
(DRILL1)
T1 M6
S10000 M3
G54
G0 X28. Y183.
G43 Z15. H1
G0 Z5.
Z2.
G1 Z-2. F625.
G0 Z-1.5
G1 Z-4. F625.
G0 Z-3.5
G1 Z-6. F625.
G0 Z-5.5
G1 Z-8. F625.
G0 Z-7.5
G1 Z-9. F625.
G0 Z5.
X8.
Z2.
G1 Z-2. F625.
G0 Z-1.5
G1 Z-4. F625.
G0 Z-3.5
G1 Z-6. F625.
G0 Z-5.5
G1 Z-8. F625.
G0 Z-7.5
G1 Z-9. F625.
G0 Z5.
Y163.
Z2.
G1 Z-2. F625.
G0 Z-1.5
G1 Z-4. F625.
G0 Z-3.5
G1 Z-6. F625.
G0 Z-5.5
G1 Z-8. F625.
G0 Z-7.5
G1 Z-9. F625.
G0 Z5.
X28.
Z2.
G1 Z-2. F625.
G0 Z-1.5
G1 Z-4. F625.
G0 Z-3.5
G1 Z-6. F625.
G0 Z-5.5
G1 Z-8. F625.
G0 Z-7.5
G1 Z-9. F625.
G0 Z5.
X54.5 Y163.5
Z2.
G1 Z-2. F625.
G0 Z-1.5
G1 Z-4. F625.
G0 Z-3.5
G1 Z-6. F625.
G0 Z-5.5
G1 Z-8. F625.
G0 Z-7.5
G1 Z-9. F625.
G0 Z5.
X98.63 Y101.
Z2.
G1 Z-2. F625.
G0 Z-1.5
G1 Z-4. F625.
G0 Z-3.5
G1 Z-6. F625.
G0 Z-5.5
G1 Z-8. F625.
G0 Z-7.5
G1 Z-9. F625.
G0 Z5.
X128.63
Z2.
G1 Z-2. F625.
G0 Z-1.5
G1 Z-4. F625.
G0 Z-3.5
G1 Z-6. F625.
G0 Z-5.5
G1 Z-8. F625.
G0 Z-7.5
G1 Z-9. F625.
G0 Z5.
X130. Y135.08
Z2.
G1 Z-2. F625.
G0 Z-1.5
G1 Z-4. F625.
G0 Z-3.5
G1 Z-6. F625.
G0 Z-5.5
G1 Z-8. F625.
G0 Z-7.5
G1 Z-9. F625.
G0 Z5.
X160. Y132.
Z2.
G1 Z-2. F625.
G0 Z-1.5
G1 Z-4. F625.
G0 Z-3.5
G1 Z-6. F625.
G0 Z-5.5
G1 Z-8. F625.
G0 Z-7.5
G1 Z-9. F625.
G0 Z5.
X151.92 Y157.
Z2.
G1 Z-2. F625.
G0 Z-1.5
G1 Z-4. F625.
G0 Z-3.5
G1 Z-6. F625.
G0 Z-5.5
G1 Z-8. F625.
G0 Z-7.5
G1 Z-9. F625.
G0 Z5.
X160. Y182.
Z2.
G1 Z-2. F625.
G0 Z-1.5
G1 Z-4. F625.
G0 Z-3.5
G1 Z-6. F625.
G0 Z-5.5
G1 Z-8. F625.
G0 Z-7.5
G1 Z-9. F625.
G0 Z5.
X130. Y178.92
Z2.
G1 Z-2. F625.
G0 Z-1.5
G1 Z-4. F625.
G0 Z-3.5
G1 Z-6. F625.
G0 Z-5.5
G1 Z-8. F625.
G0 Z-7.5
G1 Z-9. F625.
G0 Z5.
X100. Y182.
Z2.
G1 Z-2. F625.
G0 Z-1.5
G1 Z-4. F625.
G0 Z-3.5
G1 Z-6. F625.
G0 Z-5.5
G1 Z-8. F625.
G0 Z-7.5
G1 Z-9. F625.
G0 Z5.
X85.5 Y163.5
Z2.
G1 Z-2. F625.
G0 Z-1.5
G1 Z-4. F625.
G0 Z-3.5
G1 Z-6. F625.
G0 Z-5.5
G1 Z-8. F625.
G0 Z-7.5
G1 Z-9. F625.
G0 Z5.
X108.08 Y157.
Z2.
G1 Z-2. F625.
G0 Z-1.5
G1 Z-4. F625.
G0 Z-3.5
G1 Z-6. F625.
G0 Z-5.5
G1 Z-8. F625.
G0 Z-7.5
G1 Z-9. F625.
G0 Z5.
X100. Y132.
Z2.
G1 Z-2. F625.
G0 Z-1.5
G1 Z-4. F625.
G0 Z-3.5
G1 Z-6. F625.
G0 Z-5.5
G1 Z-8. F625.
G0 Z-7.5
G1 Z-9. F625.
G0 Z5.
X85.5 Y132.5
Z2.
G1 Z-2. F625.
G0 Z-1.5
G1 Z-4. F625.
G0 Z-3.5
G1 Z-6. F625.
G0 Z-5.5
G1 Z-8. F625.
G0 Z-7.5
G1 Z-9. F625.
G0 Z5.
X54.5
Z2.
G1 Z-2. F625.
G0 Z-1.5
G1 Z-4. F625.
G0 Z-3.5
G1 Z-6. F625.
G0 Z-5.5
G1 Z-8. F625.
G0 Z-7.5
G1 Z-9. F625.
G0 Z5.
X59.63 Y113.
Z2.
G1 Z-2. F625.
G0 Z-1.5
G1 Z-4. F625.
G0 Z-3.5
G1 Z-6. F625.
G0 Z-5.5
G1 Z-8. F625.
G0 Z-7.5
G1 Z-9. F625.
G0 Z5.
X68.63 Y101.
Z2.
G1 Z-2. F625.
G0 Z-1.5
G1 Z-4. F625.
G0 Z-3.5
G1 Z-6. F625.
G0 Z-5.5
G1 Z-8. F625.
G0 Z-7.5
G1 Z-9. F625.
G0 Z5.
Y88.
Z2.
G1 Z-2. F625.
G0 Z-1.5
G1 Z-4. F625.
G0 Z-3.5
G1 Z-6. F625.
G0 Z-5.5
G1 Z-8. F625.
G0 Z-7.5
G1 Z-9. F625.
G0 Z5.
X38.63 Y101.
Z2.
G1 Z-2. F625.
G0 Z-1.5
G1 Z-4. F625.
G0 Z-3.5
G1 Z-6. F625.
G0 Z-5.5
G1 Z-8. F625.
G0 Z-7.5
G1 Z-9. F625.
G0 Z5.
X17.63 Y113.
Z2.
G1 Z-2. F625.
G0 Z-1.5
G1 Z-4. F625.
G0 Z-3.5
G1 Z-6. F625.
G0 Z-5.5
G1 Z-8. F625.
G0 Z-7.5
G1 Z-9. F625.
G0 Z5.
X8.63 Y101.
Z2.
G1 Z-2. F625.
G0 Z-1.5
G1 Z-4. F625.
G0 Z-3.5
G1 Z-6. F625.
G0 Z-5.5
G1 Z-8. F625.
G0 Z-7.5
G1 Z-9. F625.
G0 Z5.
Y88.
Z2.
G1 Z-2. F625.
G0 Z-1.5
G1 Z-4. F625.
G0 Z-3.5
G1 Z-6. F625.
G0 Z-5.5
G1 Z-8. F625.
G0 Z-7.5
G1 Z-9. F625.
G0 Z5.
X28.63 Y73.
Z2.
G1 Z-2. F625.
G0 Z-1.5
G1 Z-4. F625.
G0 Z-3.5
G1 Z-6. F625.
G0 Z-5.5
G1 Z-8. F625.
G0 Z-7.5
G1 Z-9. F625.
G0 Z5.
X48.63
Z2.
G1 Z-2. F625.
G0 Z-1.5
G1 Z-4. F625.
G0 Z-3.5
G1 Z-6. F625.
G0 Z-5.5
G1 Z-8. F625.
G0 Z-7.5
G1 Z-9. F625.
G0 Z5.
Y53.
Z2.
G1 Z-2. F625.
G0 Z-1.5
G1 Z-4. F625.
G0 Z-3.5
G1 Z-6. F625.
G0 Z-5.5
G1 Z-8. F625.
G0 Z-7.5
G1 Z-9. F625.
G0 Z5.
X28.63
Z2.
G1 Z-2. F625.
G0 Z-1.5
G1 Z-4. F625.
G0 Z-3.5
G1 Z-6. F625.
G0 Z-5.5
G1 Z-8. F625.
G0 Z-7.5
G1 Z-9. F625.
G0 Z5.
X8.63 Y38.
Z2.
G1 Z-2. F625.
G0 Z-1.5
G1 Z-4. F625.
G0 Z-3.5
G1 Z-6. F625.
G0 Z-5.5
G1 Z-8. F625.
G0 Z-7.5
G1 Z-9. F625.
G0 Z5.
X28.63 Y33.
Z2.
G1 Z-2. F625.
G0 Z-1.5
G1 Z-4. F625.
G0 Z-3.5
G1 Z-6. F625.
G0 Z-5.5
G1 Z-8. F625.
G0 Z-7.5
G1 Z-9. F625.
G0 Z5.
X48.63
Z2.
G1 Z-2. F625.
G0 Z-1.5
G1 Z-4. F625.
G0 Z-3.5
G1 Z-6. F625.
G0 Z-5.5
G1 Z-8. F625.
G0 Z-7.5
G1 Z-9. F625.
G0 Z5.
X68.63 Y38.
Z2.
G1 Z-2. F625.
G0 Z-1.5
G1 Z-4. F625.
G0 Z-3.5
G1 Z-6. F625.
G0 Z-5.5
G1 Z-8. F625.
G0 Z-7.5
G1 Z-9. F625.
G0 Z5.
X48.63 Y13.
Z2.
G1 Z-2. F625.
G0 Z-1.5
G1 Z-4. F625.
G0 Z-3.5
G1 Z-6. F625.
G0 Z-5.5
G1 Z-8. F625.
G0 Z-7.5
G1 Z-9. F625.
G0 Z5.
X28.63
Z2.
G1 Z-2. F625.
G0 Z-1.5
G1 Z-4. F625.
G0 Z-3.5
G1 Z-6. F625.
G0 Z-5.5
G1 Z-8. F625.
G0 Z-7.5
G1 Z-9. F625.
G0 Z5.
X113.63 Y25.
Z2.
G1 Z-2. F625.
G0 Z-1.5
G1 Z-4. F625.
G0 Z-3.5
G1 Z-6. F625.
G0 Z-5.5
G1 Z-8. F625.
G0 Z-7.5
G1 Z-9. F625.
G0 Z5.
X143.63
Z2.
G1 Z-2. F625.
G0 Z-1.5
G1 Z-4. F625.
G0 Z-3.5
G1 Z-6. F625.
G0 Z-5.5
G1 Z-8. F625.
G0 Z-7.5
G1 Z-9. F625.
G0 Z5.
X233.63 Y38.
Z2.
G1 Z-2. F625.
G0 Z-1.5
G1 Z-4. F625.
G0 Z-3.5
G1 Z-6. F625.
G0 Z-5.5
G1 Z-8. F625.
G0 Z-7.5
G1 Z-9. F625.
G0 Z5.
Y25.
Z2.
G1 Z-2. F625.
G0 Z-1.5
G1 Z-4. F625.
G0 Z-3.5
G1 Z-6. F625.
G0 Z-5.5
G1 Z-8. F625.
G0 Z-7.5
G1 Z-9. F625.
G0 Z5.
X224.63 Y13.
Z2.
G1 Z-2. F625.
G0 Z-1.5
G1 Z-4. F625.
G0 Z-3.5
G1 Z-6. F625.
G0 Z-5.5
G1 Z-8. F625.
G0 Z-7.5
G1 Z-9. F625.
G0 Z5.
X203.63 Y25.
Z2.
G1 Z-2. F625.
G0 Z-1.5
G1 Z-4. F625.
G0 Z-3.5
G1 Z-6. F625.
G0 Z-5.5
G1 Z-8. F625.
G0 Z-7.5
G1 Z-9. F625.
G0 Z5.
X182.63 Y13.
Z2.
G1 Z-2. F625.
G0 Z-1.5
G1 Z-4. F625.
G0 Z-3.5
G1 Z-6. F625.
G0 Z-5.5
G1 Z-8. F625.
G0 Z-7.5
G1 Z-9. F625.
G0 Z5.
X173.63 Y25.
Z2.
G1 Z-2. F625.
G0 Z-1.5
G1 Z-4. F625.
G0 Z-3.5
G1 Z-6. F625.
G0 Z-5.5
G1 Z-8. F625.
G0 Z-7.5
G1 Z-9. F625.
G0 Z5.
Y38.
Z2.
G1 Z-2. F625.
G0 Z-1.5
G1 Z-4. F625.
G0 Z-3.5
G1 Z-6. F625.
G0 Z-5.5
G1 Z-8. F625.
G0 Z-7.5
G1 Z-9. F625.
G0 Z5.
X193.63 Y53.
Z2.
G1 Z-2. F625.
G0 Z-1.5
G1 Z-4. F625.
G0 Z-3.5
G1 Z-6. F625.
G0 Z-5.5
G1 Z-8. F625.
G0 Z-7.5
G1 Z-9. F625.
G0 Z5.
X213.63
Z2.
G1 Z-2. F625.
G0 Z-1.5
G1 Z-4. F625.
G0 Z-3.5
G1 Z-6. F625.
G0 Z-5.5
G1 Z-8. F625.
G0 Z-7.5
G1 Z-9. F625.
G0 Z5.
Y73.
Z2.
G1 Z-2. F625.
G0 Z-1.5
G1 Z-4. F625.
G0 Z-3.5
G1 Z-6. F625.
G0 Z-5.5
G1 Z-8. F625.
G0 Z-7.5
G1 Z-9. F625.
G0 Z5.
X193.63
Z2.
G1 Z-2. F625.
G0 Z-1.5
G1 Z-4. F625.
G0 Z-3.5
G1 Z-6. F625.
G0 Z-5.5
G1 Z-8. F625.
G0 Z-7.5
G1 Z-9. F625.
G0 Z5.
X173.63 Y88.
Z2.
G1 Z-2. F625.
G0 Z-1.5
G1 Z-4. F625.
G0 Z-3.5
G1 Z-6. F625.
G0 Z-5.5
G1 Z-8. F625.
G0 Z-7.5
G1 Z-9. F625.
G0 Z5.
X193.63 Y93.
Z2.
G1 Z-2. F625.
G0 Z-1.5
G1 Z-4. F625.
G0 Z-3.5
G1 Z-6. F625.
G0 Z-5.5
G1 Z-8. F625.
G0 Z-7.5
G1 Z-9. F625.
G0 Z5.
X213.63
Z2.
G1 Z-2. F625.
G0 Z-1.5
G1 Z-4. F625.
G0 Z-3.5
G1 Z-6. F625.
G0 Z-5.5
G1 Z-8. F625.
G0 Z-7.5
G1 Z-9. F625.
G0 Z5.
X233.63 Y88.
Z2.
G1 Z-2. F625.
G0 Z-1.5
G1 Z-4. F625.
G0 Z-3.5
G1 Z-6. F625.
G0 Z-5.5
G1 Z-8. F625.
G0 Z-7.5
G1 Z-9. F625.
G0 Z5.
X213.63 Y113.
Z2.
G1 Z-2. F625.
G0 Z-1.5
G1 Z-4. F625.
G0 Z-3.5
G1 Z-6. F625.
G0 Z-5.5
G1 Z-8. F625.
G0 Z-7.5
G1 Z-9. F625.
G0 Z5.
X193.63
Z2.
G1 Z-2. F625.
G0 Z-1.5
G1 Z-4. F625.
G0 Z-3.5
G1 Z-6. F625.
G0 Z-5.5
G1 Z-8. F625.
G0 Z-7.5
G1 Z-9. F625.
G0 Z5.
X199. Y150.
Z2.
G1 Z-2. F625.
G0 Z-1.5
G1 Z-4. F625.
G0 Z-3.5
G1 Z-6. F625.
G0 Z-5.5
G1 Z-8. F625.
G0 Z-7.5
G1 Z-9. F625.
G0 Z5.
X189. Y136.
Z2.
G1 Z-2. F625.
G0 Z-1.5
G1 Z-4. F625.
G0 Z-3.5
G1 Z-6. F625.
G0 Z-5.5
G1 Z-8. F625.
G0 Z-7.5
G1 Z-9. F625.
G0 Z5.
X179. Y150.
Z2.
G1 Z-2. F625.
G0 Z-1.5
G1 Z-4. F625.
G0 Z-3.5
G1 Z-6. F625.
G0 Z-5.5
G1 Z-8. F625.
G0 Z-7.5
G1 Z-9. F625.
G0 Z5.
Y170.
Z2.
G1 Z-2. F625.
G0 Z-1.5
G1 Z-4. F625.
G0 Z-3.5
G1 Z-6. F625.
G0 Z-5.5
G1 Z-8. F625.
G0 Z-7.5
G1 Z-9. F625.
G0 Z5.
X199.
Z2.
G1 Z-2. F625.
G0 Z-1.5
G1 Z-4. F625.
G0 Z-3.5
G1 Z-6. F625.
G0 Z-5.5
G1 Z-8. F625.
G0 Z-7.5
G1 Z-9. F625.
G0 Z5.
Z15.
G91
G28 Z0.
M5
G28 X0. Y0.
M30
%
