%
O00001004
(T2  D=3. CR=0. - ZMIN=-9.2 - FLAT END MILL)
G90 G94 G17
G21
G91
G28 Z0.
G90
(BORE1)
T2 M6
S8000 M3
G54
G0 X113.43 Y24.75
G43 Z15. H2
G0 Z2.
G1 Z0.3 F320.
G18 G2 X113.73 Z0. I0.3
G1 X113.88
G17 G3 X114.13 Y25. J0.25
X113.13 Z-0.5 I-0.5
X114.13 Z-1. I0.5
X113.13 Z-1.5 I-0.5
X114.13 Z-2. I0.5
X113.13 Z-2.5 I-0.5
X114.13 Z-3. I0.5
X113.13 Z-3.5 I-0.5
X114.13 Z-4. I0.5
X113.13 Z-4.5 I-0.5
X114.13 Z-5. I0.5
X113.13 Z-5.5 I-0.5
X114.13 Z-6. I0.5
X113.13 Z-6.5 I-0.5
X114.13 Z-7. I0.5
X113.13 Z-7.5 I-0.5
X114.13 Z-8. I0.5
X113.13 Z-8.5 I-0.5
X114.13 Z-9. I0.5
X113.13 I-0.5
X114.13 I0.5
X113.88 Y25.25 I-0.25
G1 X113.73
G18 G3 X113.43 Z-8.7 K0.3
G0 Z5.
X143.43 Y24.75
Z2.
G1 Z0.3 F320.
G2 X143.73 Z0. I0.3
G1 X143.88
G17 G3 X144.13 Y25. J0.25
X143.13 Z-0.5 I-0.5
X144.13 Z-1. I0.5
X143.13 Z-1.5 I-0.5
X144.13 Z-2. I0.5
X143.13 Z-2.5 I-0.5
X144.13 Z-3. I0.5
X143.13 Z-3.5 I-0.5
X144.13 Z-4. I0.5
X143.13 Z-4.5 I-0.5
X144.13 Z-5. I0.5
X143.13 Z-5.5 I-0.5
X144.13 Z-6. I0.5
X143.13 Z-6.5 I-0.5
X144.13 Z-7. I0.5
X143.13 Z-7.5 I-0.5
X144.13 Z-8. I0.5
X143.13 Z-8.5 I-0.5
X144.13 Z-9. I0.5
X143.13 I-0.5
X144.13 I0.5
X143.88 Y25.25 I-0.25
G1 X143.73
G18 G3 X143.43 Z-8.7 K0.3
G0 Z5.
X173.83 Y38.25
Z2.
G1 Z0.3 F320.
G3 X173.53 Z0. I-0.3
G1 X173.38
G17 G3 X173.13 Y38. J-0.25
X174.13 Z-0.5 I0.5
X173.13 Z-1. I-0.5
X174.13 Z-1.5 I0.5
X173.13 Z-2. I-0.5
X174.13 Z-2.5 I0.5
X173.13 Z-3. I-0.5
X174.13 Z-3.5 I0.5
X173.13 Z-4. I-0.5
X174.13 Z-4.5 I0.5
X173.13 Z-5. I-0.5
X174.13 Z-5.5 I0.5
X173.13 Z-6. I-0.5
X174.13 Z-6.5 I0.5
X173.13 Z-7. I-0.5
X174.13 Z-7.5 I0.5
X173.13 Z-8. I-0.5
X174.13 Z-8.5 I0.5
X173.13 Z-9. I-0.5
X174.13 I0.5
X173.13 I-0.5
X173.38 Y37.75 I0.25
G1 X173.53
G18 G2 X173.83 Z-8.7 K0.3
G0 Z5.
X173.43 Y24.75
Z2.
G1 Z0.3 F320.
G2 X173.73 Z0. I0.3
G1 X173.88
G17 G3 X174.13 Y25. J0.25
X173.13 Z-0.5 I-0.5
X174.13 Z-1. I0.5
X173.13 Z-1.5 I-0.5
X174.13 Z-2. I0.5
X173.13 Z-2.5 I-0.5
X174.13 Z-3. I0.5
X173.13 Z-3.5 I-0.5
X174.13 Z-4. I0.5
X173.13 Z-4.5 I-0.5
X174.13 Z-5. I0.5
X173.13 Z-5.5 I-0.5
X174.13 Z-6. I0.5
X173.13 Z-6.5 I-0.5
X174.13 Z-7. I0.5
X173.13 Z-7.5 I-0.5
X174.13 Z-8. I0.5
X173.13 Z-8.5 I-0.5
X174.13 Z-9. I0.5
X173.13 I-0.5
X174.13 I0.5
X173.88 Y25.25 I-0.25
G1 X173.73
G18 G3 X173.43 Z-8.7 K0.3
G0 Z5.
X183.78 Y12.7
Z2.
G1 Z0.3 F320.
G2 X184.08 Z0. I0.3
G1 X184.23
G17 G3 X184.53 Y13. J0.3
X180.73 Z-0.5 I-1.9
X184.53 Z-1. I1.9
X180.73 Z-1.5 I-1.9
X184.53 Z-2. I1.9
X180.73 Z-2.5 I-1.9
X184.53 Z-3. I1.9
X180.73 Z-3.5 I-1.9
X184.53 Z-4. I1.9
X180.73 Z-4.5 I-1.9
X184.53 Z-5. I1.9
X180.73 Z-5.5 I-1.9
X184.53 Z-6. I1.9
X180.73 Z-6.5 I-1.9
X184.53 Z-7. I1.9
X180.73 Z-7.5 I-1.9
X184.53 Z-8. I1.9
X180.73 Z-8.5 I-1.9
X184.53 Z-9. I1.9
X180.73 I-1.9
X184.53 I1.9
X184.23 Y13.3 I-0.3
G1 X184.08
G18 G3 X183.78 Z-8.7 K0.3
G0 Z5.
X203.83 Y25.25
Z2.
G1 Z0.3 F320.
G3 X203.53 Z0. I-0.3
G1 X203.38
G17 G3 X203.13 Y25. J-0.25
X204.13 Z-0.5 I0.5
X203.13 Z-1. I-0.5
X204.13 Z-1.5 I0.5
X203.13 Z-2. I-0.5
X204.13 Z-2.5 I0.5
X203.13 Z-3. I-0.5
X204.13 Z-3.5 I0.5
X203.13 Z-4. I-0.5
X204.13 Z-4.5 I0.5
X203.13 Z-5. I-0.5
X204.13 Z-5.5 I0.5
X203.13 Z-6. I-0.5
X204.13 Z-6.5 I0.5
X203.13 Z-7. I-0.5
X204.13 Z-7.5 I0.5
X203.13 Z-8. I-0.5
X204.13 Z-8.5 I0.5
X203.13 Z-9. I-0.5
X204.13 I0.5
X203.13 I-0.5
X203.38 Y24.75 I0.25
G1 X203.53
G18 G2 X203.83 Z-8.7 K0.3
G0 Z5.
X223.48 Y13.3
Z2.
G1 Z0.3 F320.
G3 X223.18 Z0. I-0.3
G1 X223.03
G17 G3 X222.73 Y13. J-0.3
X226.53 Z-0.5 I1.9
X222.73 Z-1. I-1.9
X226.53 Z-1.5 I1.9
X222.73 Z-2. I-1.9
X226.53 Z-2.5 I1.9
X222.73 Z-3. I-1.9
X226.53 Z-3.5 I1.9
X222.73 Z-4. I-1.9
X226.53 Z-4.5 I1.9
X222.73 Z-5. I-1.9
X226.53 Z-5.5 I1.9
X222.73 Z-6. I-1.9
X226.53 Z-6.5 I1.9
X222.73 Z-7. I-1.9
X226.53 Z-7.5 I1.9
X222.73 Z-8. I-1.9
X226.53 Z-8.5 I1.9
X222.73 Z-9. I-1.9
X226.53 I1.9
X222.73 I-1.9
X223.03 Y12.7 I0.3
G1 X223.18
G18 G2 X223.48 Z-8.7 K0.3
G0 Z5.
X233.83 Y25.25
Z2.
G1 Z0.3 F320.
G3 X233.53 Z0. I-0.3
G1 X233.38
G17 G3 X233.13 Y25. J-0.25
X234.13 Z-0.5 I0.5
X233.13 Z-1. I-0.5
X234.13 Z-1.5 I0.5
X233.13 Z-2. I-0.5
X234.13 Z-2.5 I0.5
X233.13 Z-3. I-0.5
X234.13 Z-3.5 I0.5
X233.13 Z-4. I-0.5
X234.13 Z-4.5 I0.5
X233.13 Z-5. I-0.5
X234.13 Z-5.5 I0.5
X233.13 Z-6. I-0.5
X234.13 Z-6.5 I0.5
X233.13 Z-7. I-0.5
X234.13 Z-7.5 I0.5
X233.13 Z-8. I-0.5
X234.13 Z-8.5 I0.5
X233.13 Z-9. I-0.5
X234.13 I0.5
X233.13 I-0.5
X233.38 Y24.75 I0.25
G1 X233.53
G18 G2 X233.83 Z-8.7 K0.3
G0 Z5.
X233.43 Y37.75
Z2.
G1 Z0.3 F320.
G2 X233.73 Z0. I0.3
G1 X233.88
G17 G3 X234.13 Y38. J0.25
X233.13 Z-0.5 I-0.5
X234.13 Z-1. I0.5
X233.13 Z-1.5 I-0.5
X234.13 Z-2. I0.5
X233.13 Z-2.5 I-0.5
X234.13 Z-3. I0.5
X233.13 Z-3.5 I-0.5
X234.13 Z-4. I0.5
X233.13 Z-4.5 I-0.5
X234.13 Z-5. I0.5
X233.13 Z-5.5 I-0.5
X234.13 Z-6. I0.5
X233.13 Z-6.5 I-0.5
X234.13 Z-7. I0.5
X233.13 Z-7.5 I-0.5
X234.13 Z-8. I0.5
X233.13 Z-8.5 I-0.5
X234.13 Z-9. I0.5
X233.13 I-0.5
X234.13 I0.5
X233.88 Y38.25 I-0.25
G1 X233.73
G18 G3 X233.43 Z-8.7 K0.3
G0 Z5.
X213.63 Y52.7
Z2.
G1 Z0.3 F320.
G2 X213.93 Z0. I0.3
G1 X214.08
G17 G3 X214.38 Y53. J0.3
X212.88 Z-0.5 I-0.75
X214.38 Z-1. I0.75
X212.88 Z-1.5 I-0.75
X214.38 Z-2. I0.75
X212.88 Z-2.5 I-0.75
X214.38 Z-3. I0.75
X212.88 Z-3.5 I-0.75
X214.38 Z-4. I0.75
X212.88 Z-4.5 I-0.75
X214.38 Z-5. I0.75
X212.88 Z-5.5 I-0.75
X214.38 Z-6. I0.75
X212.88 Z-6.5 I-0.75
X214.38 Z-7. I0.75
X212.88 Z-7.5 I-0.75
X214.38 Z-8. I0.75
X212.88 Z-8.5 I-0.75
X214.38 Z-9. I0.75
X212.88 I-0.75
X214.38 I0.75
X214.08 Y53.3 I-0.3
G1 X213.93
G18 G3 X213.63 Z-8.7 K0.3
G0 Z5.
X193.63
Z2.
G1 Z0.3 F320.
G3 X193.33 Z0. I-0.3
G1 X193.18
G17 G3 X192.88 Y53. J-0.3
X194.38 Z-0.5 I0.75
X192.88 Z-1. I-0.75
X194.38 Z-1.5 I0.75
X192.88 Z-2. I-0.75
X194.38 Z-2.5 I0.75
X192.88 Z-3. I-0.75
X194.38 Z-3.5 I0.75
X192.88 Z-4. I-0.75
X194.38 Z-4.5 I0.75
X192.88 Z-5. I-0.75
X194.38 Z-5.5 I0.75
X192.88 Z-6. I-0.75
X194.38 Z-6.5 I0.75
X192.88 Z-7. I-0.75
X194.38 Z-7.5 I0.75
X192.88 Z-8. I-0.75
X194.38 Z-8.5 I0.75
X192.88 Z-9. I-0.75
X194.38 I0.75
X192.88 I-0.75
X193.18 Y52.7 I0.3
G1 X193.33
G18 G2 X193.63 Z-8.7 K0.3
G0 Z5.
X209.38 Y62.7
Z2.
G1 Z0.3 F320.
G2 X209.68 Z0. I0.3
G1 X209.83
G17 G3 X210.13 Y63. J0.3
X197.13 Z-0.5 I-6.5
X210.13 Z-1. I6.5
X197.13 Z-1.5 I-6.5
X210.13 Z-2. I6.5
X197.13 Z-2.5 I-6.5
X210.13 Z-3. I6.5
X197.13 Z-3.5 I-6.5
X210.13 Z-4. I6.5
X197.13 Z-4.5 I-6.5
X210.13 Z-5. I6.5
X197.13 Z-5.5 I-6.5
X210.13 Z-6. I6.5
X197.13 Z-6.5 I-6.5
X210.13 Z-7. I6.5
X197.13 Z-7.5 I-6.5
X210.13 Z-8. I6.5
X197.13 Z-8.5 I-6.5
X210.13 Z-9. I6.5
X197.13 I-6.5
X210.13 I6.5
X209.83 Y63.3 I-0.3
G1 X209.68
G18 G3 X209.38 Z-8.7 K0.3
G0 Z5.
X193.63 Y72.7
Z2.
G1 Z0.3 F320.
G2 X193.93 Z0. I0.3
G1 X194.08
G17 G3 X194.38 Y73. J0.3
X192.88 Z-0.5 I-0.75
X194.38 Z-1. I0.75
X192.88 Z-1.5 I-0.75
X194.38 Z-2. I0.75
X192.88 Z-2.5 I-0.75
X194.38 Z-3. I0.75
X192.88 Z-3.5 I-0.75
X194.38 Z-4. I0.75
X192.88 Z-4.5 I-0.75
X194.38 Z-5. I0.75
X192.88 Z-5.5 I-0.75
X194.38 Z-6. I0.75
X192.88 Z-6.5 I-0.75
X194.38 Z-7. I0.75
X192.88 Z-7.5 I-0.75
X194.38 Z-8. I0.75
X192.88 Z-8.5 I-0.75
X194.38 Z-9. I0.75
X192.88 I-0.75
X194.38 I0.75
X194.08 Y73.3 I-0.3
G1 X193.93
G18 G3 X193.63 Z-8.7 K0.3
G0 Z5.
X213.63
Z2.
G1 Z0.3 F320.
G3 X213.33 Z0. I-0.3
G1 X213.18
G17 G3 X212.88 Y73. J-0.3
X214.38 Z-0.5 I0.75
X212.88 Z-1. I-0.75
X214.38 Z-1.5 I0.75
X212.88 Z-2. I-0.75
X214.38 Z-2.5 I0.75
X212.88 Z-3. I-0.75
X214.38 Z-3.5 I0.75
X212.88 Z-4. I-0.75
X214.38 Z-4.5 I0.75
X212.88 Z-5. I-0.75
X214.38 Z-5.5 I0.75
X212.88 Z-6. I-0.75
X214.38 Z-6.5 I0.75
X212.88 Z-7. I-0.75
X214.38 Z-7.5 I0.75
X212.88 Z-8. I-0.75
X214.38 Z-8.5 I0.75
X212.88 Z-9. I-0.75
X214.38 I0.75
X212.88 I-0.75
X213.18 Y72.7 I0.3
G1 X213.33
G18 G2 X213.63 Z-8.7 K0.3
G0 Z5.
X233.83 Y88.25
Z2.
G1 Z0.3 F320.
G3 X233.53 Z0. I-0.3
G1 X233.38
G17 G3 X233.13 Y88. J-0.25
X234.13 Z-0.5 I0.5
X233.13 Z-1. I-0.5
X234.13 Z-1.5 I0.5
X233.13 Z-2. I-0.5
X234.13 Z-2.5 I0.5
X233.13 Z-3. I-0.5
X234.13 Z-3.5 I0.5
X233.13 Z-4. I-0.5
X234.13 Z-4.5 I0.5
X233.13 Z-5. I-0.5
X234.13 Z-5.5 I0.5
X233.13 Z-6. I-0.5
X234.13 Z-6.5 I0.5
X233.13 Z-7. I-0.5
X234.13 Z-7.5 I0.5
X233.13 Z-8. I-0.5
X234.13 Z-8.5 I0.5
X233.13 Z-9. I-0.5
X234.13 I0.5
X233.13 I-0.5
X233.38 Y87.75 I0.25
G1 X233.53
G18 G2 X233.83 Z-8.7 K0.3
G0 Z5.
X213.63 Y92.7
Z2.
G1 Z0.3 F320.
G2 X213.93 Z0. I0.3
G1 X214.08
G17 G3 X214.38 Y93. J0.3
X212.88 Z-0.5 I-0.75
X214.38 Z-1. I0.75
X212.88 Z-1.5 I-0.75
X214.38 Z-2. I0.75
X212.88 Z-2.5 I-0.75
X214.38 Z-3. I0.75
X212.88 Z-3.5 I-0.75
X214.38 Z-4. I0.75
X212.88 Z-4.5 I-0.75
X214.38 Z-5. I0.75
X212.88 Z-5.5 I-0.75
X214.38 Z-6. I0.75
X212.88 Z-6.5 I-0.75
X214.38 Z-7. I0.75
X212.88 Z-7.5 I-0.75
X214.38 Z-8. I0.75
X212.88 Z-8.5 I-0.75
X214.38 Z-9. I0.75
X212.88 I-0.75
X214.38 I0.75
X214.08 Y93.3 I-0.3
G1 X213.93
G18 G3 X213.63 Z-8.7 K0.3
G0 Z5.
X193.63
Z2.
G1 Z0.3 F320.
G3 X193.33 Z0. I-0.3
G1 X193.18
G17 G3 X192.88 Y93. J-0.3
X194.38 Z-0.5 I0.75
X192.88 Z-1. I-0.75
X194.38 Z-1.5 I0.75
X192.88 Z-2. I-0.75
X194.38 Z-2.5 I0.75
X192.88 Z-3. I-0.75
X194.38 Z-3.5 I0.75
X192.88 Z-4. I-0.75
X194.38 Z-4.5 I0.75
X192.88 Z-5. I-0.75
X194.38 Z-5.5 I0.75
X192.88 Z-6. I-0.75
X194.38 Z-6.5 I0.75
X192.88 Z-7. I-0.75
X194.38 Z-7.5 I0.75
X192.88 Z-8. I-0.75
X194.38 Z-8.5 I0.75
X192.88 Z-9. I-0.75
X194.38 I0.75
X192.88 I-0.75
X193.18 Y92.7 I0.3
G1 X193.33
G18 G2 X193.63 Z-8.7 K0.3
G0 Z5.
X173.43 Y87.75
Z2.
G1 Z0.3 F320.
G2 X173.73 Z0. I0.3
G1 X173.88
G17 G3 X174.13 Y88. J0.25
X173.13 Z-0.5 I-0.5
X174.13 Z-1. I0.5
X173.13 Z-1.5 I-0.5
X174.13 Z-2. I0.5
X173.13 Z-2.5 I-0.5
X174.13 Z-3. I0.5
X173.13 Z-3.5 I-0.5
X174.13 Z-4. I0.5
X173.13 Z-4.5 I-0.5
X174.13 Z-5. I0.5
X173.13 Z-5.5 I-0.5
X174.13 Z-6. I0.5
X173.13 Z-6.5 I-0.5
X174.13 Z-7. I0.5
X173.13 Z-7.5 I-0.5
X174.13 Z-8. I0.5
X173.13 Z-8.5 I-0.5
X174.13 Z-9. I0.5
X173.13 I-0.5
X174.13 I0.5
X173.88 Y88.25 I-0.25
G1 X173.73
G18 G3 X173.43 Z-8.7 K0.3
G0 Z5.
X193.63 Y112.7
Z2.
G1 Z0.3 F320.
G2 X193.93 Z0. I0.3
G1 X194.08
G17 G3 X194.38 Y113. J0.3
X192.88 Z-0.5 I-0.75
X194.38 Z-1. I0.75
X192.88 Z-1.5 I-0.75
X194.38 Z-2. I0.75
X192.88 Z-2.5 I-0.75
X194.38 Z-3. I0.75
X192.88 Z-3.5 I-0.75
X194.38 Z-4. I0.75
X192.88 Z-4.5 I-0.75
X194.38 Z-5. I0.75
X192.88 Z-5.5 I-0.75
X194.38 Z-6. I0.75
X192.88 Z-6.5 I-0.75
X194.38 Z-7. I0.75
X192.88 Z-7.5 I-0.75
X194.38 Z-8. I0.75
X192.88 Z-8.5 I-0.75
X194.38 Z-9. I0.75
X192.88 I-0.75
X194.38 I0.75
X194.08 Y113.3 I-0.3
G1 X193.93
G18 G3 X193.63 Z-8.7 K0.3
G0 Z5.
X213.63
Z2.
G1 Z0.3 F320.
G3 X213.33 Z0. I-0.3
G1 X213.18
G17 G3 X212.88 Y113. J-0.3
X214.38 Z-0.5 I0.75
X212.88 Z-1. I-0.75
X214.38 Z-1.5 I0.75
X212.88 Z-2. I-0.75
X214.38 Z-2.5 I0.75
X212.88 Z-3. I-0.75
X214.38 Z-3.5 I0.75
X212.88 Z-4. I-0.75
X214.38 Z-4.5 I0.75
X212.88 Z-5. I-0.75
X214.38 Z-5.5 I0.75
X212.88 Z-6. I-0.75
X214.38 Z-6.5 I0.75
X212.88 Z-7. I-0.75
X214.38 Z-7.5 I0.75
X212.88 Z-8. I-0.75
X214.38 Z-8.5 I0.75
X212.88 Z-9. I-0.75
X214.38 I0.75
X212.88 I-0.75
X213.18 Y112.7 I0.3
G1 X213.33
G18 G2 X213.63 Z-8.7 K0.3
G0 Z5.
X198.8 Y149.75
Z2.
G1 Z0.3 F320.
G2 X199.1 Z0. I0.3
G1 X199.25
G17 G3 X199.5 Y150. J0.25
X198.5 Z-0.5 I-0.5
X199.5 Z-1. I0.5
X198.5 Z-1.5 I-0.5
X199.5 Z-2. I0.5
X198.5 Z-2.5 I-0.5
X199.5 Z-3. I0.5
X198.5 Z-3.5 I-0.5
X199.5 Z-4. I0.5
X198.5 Z-4.5 I-0.5
X199.5 Z-5. I0.5
X198.5 Z-5.5 I-0.5
X199.5 Z-6. I0.5
X198.5 Z-6.5 I-0.5
X199.5 Z-7. I0.5
X198.5 Z-7.5 I-0.5
X199.5 Z-8. I0.5
X198.5 Z-8.5 I-0.5
X199.5 Z-9. I0.5
X198.5 I-0.5
X199.5 I0.5
X199.25 Y150.25 I-0.25
G1 X199.1
G18 G3 X198.8 Z-8.7 K0.3
G0 Z5.
X190.15 Y135.7
Z2.
G1 Z0.3 F320.
G2 X190.45 Z0. I0.3
G1 X190.6
G17 G3 X190.9 Y136. J0.3
X187.1 Z-0.5 I-1.9
X190.9 Z-1. I1.9
X187.1 Z-1.5 I-1.9
X190.9 Z-2. I1.9
X187.1 Z-2.5 I-1.9
X190.9 Z-3. I1.9
X187.1 Z-3.5 I-1.9
X190.9 Z-4. I1.9
X187.1 Z-4.5 I-1.9
X190.9 Z-5. I1.9
X187.1 Z-5.5 I-1.9
X190.9 Z-6. I1.9
X187.1 Z-6.5 I-1.9
X190.9 Z-7. I1.9
X187.1 Z-7.5 I-1.9
X190.9 Z-8. I1.9
X187.1 Z-8.5 I-1.9
X190.9 Z-9. I1.9
X187.1 I-1.9
X190.9 I1.9
X190.6 Y136.3 I-0.3
G1 X190.45
G18 G3 X190.15 Z-8.7 K0.3
G0 Z5.
X179.2 Y150.25
Z2.
G1 Z0.3 F320.
G3 X178.9 Z0. I-0.3
G1 X178.75
G17 G3 X178.5 Y150. J-0.25
X179.5 Z-0.5 I0.5
X178.5 Z-1. I-0.5
X179.5 Z-1.5 I0.5
X178.5 Z-2. I-0.5
X179.5 Z-2.5 I0.5
X178.5 Z-3. I-0.5
X179.5 Z-3.5 I0.5
X178.5 Z-4. I-0.5
X179.5 Z-4.5 I0.5
X178.5 Z-5. I-0.5
X179.5 Z-5.5 I0.5
X178.5 Z-6. I-0.5
X179.5 Z-6.5 I0.5
X178.5 Z-7. I-0.5
X179.5 Z-7.5 I0.5
X178.5 Z-8. I-0.5
X179.5 Z-8.5 I0.5
X178.5 Z-9. I-0.5
X179.5 I0.5
X178.5 I-0.5
X178.75 Y149.75 I0.25
G1 X178.9
G18 G2 X179.2 Z-8.7 K0.3
G0 Z5.
X178.8 Y169.75
Z2.
G1 Z0.3 F320.
G2 X179.1 Z0. I0.3
G1 X179.25
G17 G3 X179.5 Y170. J0.25
X178.5 Z-0.5 I-0.5
X179.5 Z-1. I0.5
X178.5 Z-1.5 I-0.5
X179.5 Z-2. I0.5
X178.5 Z-2.5 I-0.5
X179.5 Z-3. I0.5
X178.5 Z-3.5 I-0.5
X179.5 Z-4. I0.5
X178.5 Z-4.5 I-0.5
X179.5 Z-5. I0.5
X178.5 Z-5.5 I-0.5
X179.5 Z-6. I0.5
X178.5 Z-6.5 I-0.5
X179.5 Z-7. I0.5
X178.5 Z-7.5 I-0.5
X179.5 Z-8. I0.5
X178.5 Z-8.5 I-0.5
X179.5 Z-9. I0.5
X178.5 I-0.5
X179.5 I0.5
X179.25 Y170.25 I-0.25
G1 X179.1
G18 G3 X178.8 Z-8.7 K0.3
G0 Z5.
X199.2
Z2.
G1 Z0.3 F320.
G3 X198.9 Z0. I-0.3
G1 X198.75
G17 G3 X198.5 Y170. J-0.25
X199.5 Z-0.5 I0.5
X198.5 Z-1. I-0.5
X199.5 Z-1.5 I0.5
X198.5 Z-2. I-0.5
X199.5 Z-2.5 I0.5
X198.5 Z-3. I-0.5
X199.5 Z-3.5 I0.5
X198.5 Z-4. I-0.5
X199.5 Z-4.5 I0.5
X198.5 Z-5. I-0.5
X199.5 Z-5.5 I0.5
X198.5 Z-6. I-0.5
X199.5 Z-6.5 I0.5
X198.5 Z-7. I-0.5
X199.5 Z-7.5 I0.5
X198.5 Z-8. I-0.5
X199.5 Z-8.5 I0.5
X198.5 Z-9. I-0.5
X199.5 I0.5
X198.5 I-0.5
X198.75 Y169.75 I0.25
G1 X198.9
G18 G2 X199.2 Z-8.7 K0.3
G0 Z5.
X160.2 Y182.25
Z2.
G1 Z0.3 F320.
G3 X159.9 Z0. I-0.3
G1 X159.75
G17 G3 X159.5 Y182. J-0.25
X160.5 Z-0.5 I0.5
X159.5 Z-1. I-0.5
X160.5 Z-1.5 I0.5
X159.5 Z-2. I-0.5
X160.5 Z-2.5 I0.5
X159.5 Z-3. I-0.5
X160.5 Z-3.5 I0.5
X159.5 Z-4. I-0.5
X160.5 Z-4.5 I0.5
X159.5 Z-5. I-0.5
X160.5 Z-5.5 I0.5
X159.5 Z-6. I-0.5
X160.5 Z-6.5 I0.5
X159.5 Z-7. I-0.5
X160.5 Z-7.5 I0.5
X159.5 Z-8. I-0.5
X160.5 Z-8.5 I0.5
X159.5 Z-9. I-0.5
X160.5 I0.5
X159.5 I-0.5
X159.75 Y181.75 I0.25
G1 X159.9
G18 G2 X160.2 Z-8.7 K0.3
G0 Z5.
X159.8 Y131.75
Z2.
G1 Z0.3 F320.
G2 X160.1 Z0. I0.3
G1 X160.25
G17 G3 X160.5 Y132. J0.25
X159.5 Z-0.5 I-0.5
X160.5 Z-1. I0.5
X159.5 Z-1.5 I-0.5
X160.5 Z-2. I0.5
X159.5 Z-2.5 I-0.5
X160.5 Z-3. I0.5
X159.5 Z-3.5 I-0.5
X160.5 Z-4. I0.5
X159.5 Z-4.5 I-0.5
X160.5 Z-5. I0.5
X159.5 Z-5.5 I-0.5
X160.5 Z-6. I0.5
X159.5 Z-6.5 I-0.5
X160.5 Z-7. I0.5
X159.5 Z-7.5 I-0.5
X160.5 Z-8. I0.5
X159.5 Z-8.5 I-0.5
X160.5 Z-9. I0.5
X159.5 I-0.5
X160.5 I0.5
X160.25 Y132.25 I-0.25
G1 X160.1
G18 G3 X159.8 Z-8.7 K0.3
G0 Z5.
X142.75 Y156.7
Z2.
G1 Z0.3 F320.
G2 X143.05 Z0. I0.3
G1 X143.2
G17 G3 X143.5 Y157. J0.3
X116.5 Z-0.5 I-13.5
X143.5 Z-1. I13.5
X116.5 Z-1.5 I-13.5
X143.5 Z-2. I13.5
X116.5 Z-2.5 I-13.5
X143.5 Z-3. I13.5
X116.5 Z-3.5 I-13.5
X143.5 Z-4. I13.5
X116.5 Z-4.5 I-13.5
X143.5 Z-5. I13.5
X116.5 Z-5.5 I-13.5
X143.5 Z-6. I13.5
X116.5 Z-6.5 I-13.5
X143.5 Z-7. I13.5
X116.5 Z-7.5 I-13.5
X143.5 Z-8. I13.5
X116.5 Z-8.5 I-13.5
X143.5 Z-9. I13.5
X116.5 I-13.5
X143.5 I13.5
X143.2 Y157.3 I-0.3
G1 X143.05
G18 G3 X142.75 Z-8.7 K0.3
G0 Z5.
X99.8 Y181.75
Z2.
G1 Z0.3 F320.
G2 X100.1 Z0. I0.3
G1 X100.25
G17 G3 X100.5 Y182. J0.25
X99.5 Z-0.5 I-0.5
X100.5 Z-1. I0.5
X99.5 Z-1.5 I-0.5
X100.5 Z-2. I0.5
X99.5 Z-2.5 I-0.5
X100.5 Z-3. I0.5
X99.5 Z-3.5 I-0.5
X100.5 Z-4. I0.5
X99.5 Z-4.5 I-0.5
X100.5 Z-5. I0.5
X99.5 Z-5.5 I-0.5
X100.5 Z-6. I0.5
X99.5 Z-6.5 I-0.5
X100.5 Z-7. I0.5
X99.5 Z-7.5 I-0.5
X100.5 Z-8. I0.5
X99.5 Z-8.5 I-0.5
X100.5 Z-9. I0.5
X99.5 I-0.5
X100.5 I0.5
X100.25 Y182.25 I-0.25
G1 X100.1
G18 G3 X99.8 Z-8.7 K0.3
G0 Z5.
X28.2 Y183.25
Z2.
G1 Z0.3 F320.
G3 X27.9 Z0. I-0.3
G1 X27.75
G17 G3 X27.5 Y183. J-0.25
X28.5 Z-0.5 I0.5
X27.5 Z-1. I-0.5
X28.5 Z-1.5 I0.5
X27.5 Z-2. I-0.5
X28.5 Z-2.5 I0.5
X27.5 Z-3. I-0.5
X28.5 Z-3.5 I0.5
X27.5 Z-4. I-0.5
X28.5 Z-4.5 I0.5
X27.5 Z-5. I-0.5
X28.5 Z-5.5 I0.5
X27.5 Z-6. I-0.5
X28.5 Z-6.5 I0.5
X27.5 Z-7. I-0.5
X28.5 Z-7.5 I0.5
X27.5 Z-8. I-0.5
X28.5 Z-8.5 I0.5
X27.5 Z-9. I-0.5
X28.5 I0.5
X27.5 I-0.5
X27.75 Y182.75 I0.25
G1 X27.9
G18 G2 X28.2 Z-8.7 K0.3
G0 Z5.
X7.8
Z2.
G1 Z0.3 F320.
G2 X8.1 Z0. I0.3
G1 X8.25
G17 G3 X8.5 Y183. J0.25
X7.5 Z-0.5 I-0.5
X8.5 Z-1. I0.5
X7.5 Z-1.5 I-0.5
X8.5 Z-2. I0.5
X7.5 Z-2.5 I-0.5
X8.5 Z-3. I0.5
X7.5 Z-3.5 I-0.5
X8.5 Z-4. I0.5
X7.5 Z-4.5 I-0.5
X8.5 Z-5. I0.5
X7.5 Z-5.5 I-0.5
X8.5 Z-6. I0.5
X7.5 Z-6.5 I-0.5
X8.5 Z-7. I0.5
X7.5 Z-7.5 I-0.5
X8.5 Z-8. I0.5
X7.5 Z-8.5 I-0.5
X8.5 Z-9. I0.5
X7.5 I-0.5
X8.5 I0.5
X8.25 Y183.25 I-0.25
G1 X8.1
G18 G3 X7.8 Z-8.7 K0.3
G0 Z5.
X8.2 Y163.25
Z2.
G1 Z0.3 F320.
G3 X7.9 Z0. I-0.3
G1 X7.75
G17 G3 X7.5 Y163. J-0.25
X8.5 Z-0.5 I0.5
X7.5 Z-1. I-0.5
X8.5 Z-1.5 I0.5
X7.5 Z-2. I-0.5
X8.5 Z-2.5 I0.5
X7.5 Z-3. I-0.5
X8.5 Z-3.5 I0.5
X7.5 Z-4. I-0.5
X8.5 Z-4.5 I0.5
X7.5 Z-5. I-0.5
X8.5 Z-5.5 I0.5
X7.5 Z-6. I-0.5
X8.5 Z-6.5 I0.5
X7.5 Z-7. I-0.5
X8.5 Z-7.5 I0.5
X7.5 Z-8. I-0.5
X8.5 Z-8.5 I0.5
X7.5 Z-9. I-0.5
X8.5 I0.5
X7.5 I-0.5
X7.75 Y162.75 I0.25
G1 X7.9
G18 G2 X8.2 Z-8.7 K0.3
G0 Z5.
X27.8
Z2.
G1 Z0.3 F320.
G2 X28.1 Z0. I0.3
G1 X28.25
G17 G3 X28.5 Y163. J0.25
X27.5 Z-0.5 I-0.5
X28.5 Z-1. I0.5
X27.5 Z-1.5 I-0.5
X28.5 Z-2. I0.5
X27.5 Z-2.5 I-0.5
X28.5 Z-3. I0.5
X27.5 Z-3.5 I-0.5
X28.5 Z-4. I0.5
X27.5 Z-4.5 I-0.5
X28.5 Z-5. I0.5
X27.5 Z-5.5 I-0.5
X28.5 Z-6. I0.5
X27.5 Z-6.5 I-0.5
X28.5 Z-7. I0.5
X27.5 Z-7.5 I-0.5
X28.5 Z-8. I0.5
X27.5 Z-8.5 I-0.5
X28.5 Z-9. I0.5
X27.5 I-0.5
X28.5 I0.5
X28.25 Y163.25 I-0.25
G1 X28.1
G18 G3 X27.8 Z-8.7 K0.3
G0 Z5.
X78.75 Y147.7
Z2.
G1 Z0.3 F320.
G2 X79.05 Z0. I0.3
G1 X79.2
G17 G3 X79.5 Y148. J0.3
X60.5 Z-0.5 I-9.5
X79.5 Z-1. I9.5
X60.5 Z-1.5 I-9.5
X79.5 Z-2. I9.5
X60.5 Z-2.5 I-9.5
X79.5 Z-3. I9.5
X60.5 Z-3.5 I-9.5
X79.5 Z-4. I9.5
X60.5 Z-4.5 I-9.5
X79.5 Z-5. I9.5
X60.5 Z-5.5 I-9.5
X79.5 Z-6. I9.5
X60.5 Z-6.5 I-9.5
X79.5 Z-7. I9.5
X60.5 Z-7.5 I-9.5
X79.5 Z-8. I9.5
X60.5 Z-8.5 I-9.5
X79.5 Z-9. I9.5
X60.5 I-9.5
X79.5 I9.5
X79.2 Y148.3 I-0.3
G1 X79.05
G18 G3 X78.75 Z-8.7 K0.3
G0 Z5.
X100.2 Y132.25
Z2.
G1 Z0.3 F320.
G3 X99.9 Z0. I-0.3
G1 X99.75
G17 G3 X99.5 Y132. J-0.25
X100.5 Z-0.5 I0.5
X99.5 Z-1. I-0.5
X100.5 Z-1.5 I0.5
X99.5 Z-2. I-0.5
X100.5 Z-2.5 I0.5
X99.5 Z-3. I-0.5
X100.5 Z-3.5 I0.5
X99.5 Z-4. I-0.5
X100.5 Z-4.5 I0.5
X99.5 Z-5. I-0.5
X100.5 Z-5.5 I0.5
X99.5 Z-6. I-0.5
X100.5 Z-6.5 I0.5
X99.5 Z-7. I-0.5
X100.5 Z-7.5 I0.5
X99.5 Z-8. I-0.5
X100.5 Z-8.5 I0.5
X99.5 Z-9. I-0.5
X100.5 I0.5
X99.5 I-0.5
X99.75 Y131.75 I0.25
G1 X99.9
G18 G2 X100.2 Z-8.7 K0.3
G0 Z5.
X128.83 Y101.25
Z2.
G1 Z0.3 F320.
G3 X128.53 Z0. I-0.3
G1 X128.38
G17 G3 X128.13 Y101. J-0.25
X129.13 Z-0.5 I0.5
X128.13 Z-1. I-0.5
X129.13 Z-1.5 I0.5
X128.13 Z-2. I-0.5
X129.13 Z-2.5 I0.5
X128.13 Z-3. I-0.5
X129.13 Z-3.5 I0.5
X128.13 Z-4. I-0.5
X129.13 Z-4.5 I0.5
X128.13 Z-5. I-0.5
X129.13 Z-5.5 I0.5
X128.13 Z-6. I-0.5
X129.13 Z-6.5 I0.5
X128.13 Z-7. I-0.5
X129.13 Z-7.5 I0.5
X128.13 Z-8. I-0.5
X129.13 Z-8.5 I0.5
X128.13 Z-9. I-0.5
X129.13 I0.5
X128.13 I-0.5
X128.38 Y100.75 I0.25
G1 X128.53
G18 G2 X128.83 Z-8.7 K0.3
G0 Z5.
X98.83 Y101.25
Z2.
G1 Z0.3 F320.
G3 X98.53 Z0. I-0.3
G1 X98.38
G17 G3 X98.13 Y101. J-0.25
X99.13 Z-0.5 I0.5
X98.13 Z-1. I-0.5
X99.13 Z-1.5 I0.5
X98.13 Z-2. I-0.5
X99.13 Z-2.5 I0.5
X98.13 Z-3. I-0.5
X99.13 Z-3.5 I0.5
X98.13 Z-4. I-0.5
X99.13 Z-4.5 I0.5
X98.13 Z-5. I-0.5
X99.13 Z-5.5 I0.5
X98.13 Z-6. I-0.5
X99.13 Z-6.5 I0.5
X98.13 Z-7. I-0.5
X99.13 Z-7.5 I0.5
X98.13 Z-8. I-0.5
X99.13 Z-8.5 I0.5
X98.13 Z-9. I-0.5
X99.13 I0.5
X98.13 I-0.5
X98.38 Y100.75 I0.25
G1 X98.53
G18 G2 X98.83 Z-8.7 K0.3
G0 Z5.
X68.43 Y87.75
Z2.
G1 Z0.3 F320.
G2 X68.73 Z0. I0.3
G1 X68.88
G17 G3 X69.13 Y88. J0.25
X68.13 Z-0.5 I-0.5
X69.13 Z-1. I0.5
X68.13 Z-1.5 I-0.5
X69.13 Z-2. I0.5
X68.13 Z-2.5 I-0.5
X69.13 Z-3. I0.5
X68.13 Z-3.5 I-0.5
X69.13 Z-4. I0.5
X68.13 Z-4.5 I-0.5
X69.13 Z-5. I0.5
X68.13 Z-5.5 I-0.5
X69.13 Z-6. I0.5
X68.13 Z-6.5 I-0.5
X69.13 Z-7. I0.5
X68.13 Z-7.5 I-0.5
X69.13 Z-8. I0.5
X68.13 Z-8.5 I-0.5
X69.13 Z-9. I0.5
X68.13 I-0.5
X69.13 I0.5
X68.88 Y88.25 I-0.25
G1 X68.73
G18 G3 X68.43 Z-8.7 K0.3
G0 Z5.
X68.83 Y101.25
Z2.
G1 Z0.3 F320.
G3 X68.53 Z0. I-0.3
G1 X68.38
G17 G3 X68.13 Y101. J-0.25
X69.13 Z-0.5 I0.5
X68.13 Z-1. I-0.5
X69.13 Z-1.5 I0.5
X68.13 Z-2. I-0.5
X69.13 Z-2.5 I0.5
X68.13 Z-3. I-0.5
X69.13 Z-3.5 I0.5
X68.13 Z-4. I-0.5
X69.13 Z-4.5 I0.5
X68.13 Z-5. I-0.5
X69.13 Z-5.5 I0.5
X68.13 Z-6. I-0.5
X69.13 Z-6.5 I0.5
X68.13 Z-7. I-0.5
X69.13 Z-7.5 I0.5
X68.13 Z-8. I-0.5
X69.13 Z-8.5 I0.5
X68.13 Z-9. I-0.5
X69.13 I0.5
X68.13 I-0.5
X68.38 Y100.75 I0.25
G1 X68.53
G18 G2 X68.83 Z-8.7 K0.3
G0 Z5.
X58.48 Y113.3
Z2.
G1 Z0.3 F320.
G3 X58.18 Z0. I-0.3
G1 X58.03
G17 G3 X57.73 Y113. J-0.3
X61.53 Z-0.5 I1.9
X57.73 Z-1. I-1.9
X61.53 Z-1.5 I1.9
X57.73 Z-2. I-1.9
X61.53 Z-2.5 I1.9
X57.73 Z-3. I-1.9
X61.53 Z-3.5 I1.9
X57.73 Z-4. I-1.9
X61.53 Z-4.5 I1.9
X57.73 Z-5. I-1.9
X61.53 Z-5.5 I1.9
X57.73 Z-6. I-1.9
X61.53 Z-6.5 I1.9
X57.73 Z-7. I-1.9
X61.53 Z-7.5 I1.9
X57.73 Z-8. I-1.9
X61.53 Z-8.5 I1.9
X57.73 Z-9. I-1.9
X61.53 I1.9
X57.73 I-1.9
X58.03 Y112.7 I0.3
G1 X58.18
G18 G2 X58.48 Z-8.7 K0.3
G0 Z5.
X38.43 Y100.75
Z2.
G1 Z0.3 F320.
G2 X38.73 Z0. I0.3
G1 X38.88
G17 G3 X39.13 Y101. J0.25
X38.13 Z-0.5 I-0.5
X39.13 Z-1. I0.5
X38.13 Z-1.5 I-0.5
X39.13 Z-2. I0.5
X38.13 Z-2.5 I-0.5
X39.13 Z-3. I0.5
X38.13 Z-3.5 I-0.5
X39.13 Z-4. I0.5
X38.13 Z-4.5 I-0.5
X39.13 Z-5. I0.5
X38.13 Z-5.5 I-0.5
X39.13 Z-6. I0.5
X38.13 Z-6.5 I-0.5
X39.13 Z-7. I0.5
X38.13 Z-7.5 I-0.5
X39.13 Z-8. I0.5
X38.13 Z-8.5 I-0.5
X39.13 Z-9. I0.5
X38.13 I-0.5
X39.13 I0.5
X38.88 Y101.25 I-0.25
G1 X38.73
G18 G3 X38.43 Z-8.7 K0.3
G0 Z5.
X18.78 Y112.7
Z2.
G1 Z0.3 F320.
G2 X19.08 Z0. I0.3
G1 X19.23
G17 G3 X19.53 Y113. J0.3
X15.73 Z-0.5 I-1.9
X19.53 Z-1. I1.9
X15.73 Z-1.5 I-1.9
X19.53 Z-2. I1.9
X15.73 Z-2.5 I-1.9
X19.53 Z-3. I1.9
X15.73 Z-3.5 I-1.9
X19.53 Z-4. I1.9
X15.73 Z-4.5 I-1.9
X19.53 Z-5. I1.9
X15.73 Z-5.5 I-1.9
X19.53 Z-6. I1.9
X15.73 Z-6.5 I-1.9
X19.53 Z-7. I1.9
X15.73 Z-7.5 I-1.9
X19.53 Z-8. I1.9
X15.73 Z-8.5 I-1.9
X19.53 Z-9. I1.9
X15.73 I-1.9
X19.53 I1.9
X19.23 Y113.3 I-0.3
G1 X19.08
G18 G3 X18.78 Z-8.7 K0.3
G0 Z5.
X8.43 Y100.75
Z2.
G1 Z0.3 F320.
G2 X8.73 Z0. I0.3
G1 X8.88
G17 G3 X9.13 Y101. J0.25
X8.13 Z-0.5 I-0.5
X9.13 Z-1. I0.5
X8.13 Z-1.5 I-0.5
X9.13 Z-2. I0.5
X8.13 Z-2.5 I-0.5
X9.13 Z-3. I0.5
X8.13 Z-3.5 I-0.5
X9.13 Z-4. I0.5
X8.13 Z-4.5 I-0.5
X9.13 Z-5. I0.5
X8.13 Z-5.5 I-0.5
X9.13 Z-6. I0.5
X8.13 Z-6.5 I-0.5
X9.13 Z-7. I0.5
X8.13 Z-7.5 I-0.5
X9.13 Z-8. I0.5
X8.13 Z-8.5 I-0.5
X9.13 Z-9. I0.5
X8.13 I-0.5
X9.13 I0.5
X8.88 Y101.25 I-0.25
G1 X8.73
G18 G3 X8.43 Z-8.7 K0.3
G0 Z5.
X8.83 Y88.25
Z2.
G1 Z0.3 F320.
G3 X8.53 Z0. I-0.3
G1 X8.38
G17 G3 X8.13 Y88. J-0.25
X9.13 Z-0.5 I0.5
X8.13 Z-1. I-0.5
X9.13 Z-1.5 I0.5
X8.13 Z-2. I-0.5
X9.13 Z-2.5 I0.5
X8.13 Z-3. I-0.5
X9.13 Z-3.5 I0.5
X8.13 Z-4. I-0.5
X9.13 Z-4.5 I0.5
X8.13 Z-5. I-0.5
X9.13 Z-5.5 I0.5
X8.13 Z-6. I-0.5
X9.13 Z-6.5 I0.5
X8.13 Z-7. I-0.5
X9.13 Z-7.5 I0.5
X8.13 Z-8. I-0.5
X9.13 Z-8.5 I0.5
X8.13 Z-9. I-0.5
X9.13 I0.5
X8.13 I-0.5
X8.38 Y87.75 I0.25
G1 X8.53
G18 G2 X8.83 Z-8.7 K0.3
G0 Z5.
X28.63 Y73.3
Z2.
G1 Z0.3 F320.
G3 X28.33 Z0. I-0.3
G1 X28.18
G17 G3 X27.88 Y73. J-0.3
X29.38 Z-0.5 I0.75
X27.88 Z-1. I-0.75
X29.38 Z-1.5 I0.75
X27.88 Z-2. I-0.75
X29.38 Z-2.5 I0.75
X27.88 Z-3. I-0.75
X29.38 Z-3.5 I0.75
X27.88 Z-4. I-0.75
X29.38 Z-4.5 I0.75
X27.88 Z-5. I-0.75
X29.38 Z-5.5 I0.75
X27.88 Z-6. I-0.75
X29.38 Z-6.5 I0.75
X27.88 Z-7. I-0.75
X29.38 Z-7.5 I0.75
X27.88 Z-8. I-0.75
X29.38 Z-8.5 I0.75
X27.88 Z-9. I-0.75
X29.38 I0.75
X27.88 I-0.75
X28.18 Y72.7 I0.3
G1 X28.33
G18 G2 X28.63 Z-8.7 K0.3
G0 Z5.
X48.63
Z2.
G1 Z0.3 F320.
G2 X48.93 Z0. I0.3
G1 X49.08
G17 G3 X49.38 Y73. J0.3
X47.88 Z-0.5 I-0.75
X49.38 Z-1. I0.75
X47.88 Z-1.5 I-0.75
X49.38 Z-2. I0.75
X47.88 Z-2.5 I-0.75
X49.38 Z-3. I0.75
X47.88 Z-3.5 I-0.75
X49.38 Z-4. I0.75
X47.88 Z-4.5 I-0.75
X49.38 Z-5. I0.75
X47.88 Z-5.5 I-0.75
X49.38 Z-6. I0.75
X47.88 Z-6.5 I-0.75
X49.38 Z-7. I0.75
X47.88 Z-7.5 I-0.75
X49.38 Z-8. I0.75
X47.88 Z-8.5 I-0.75
X49.38 Z-9. I0.75
X47.88 I-0.75
X49.38 I0.75
X49.08 Y73.3 I-0.3
G1 X48.93
G18 G3 X48.63 Z-8.7 K0.3
G0 Z5.
Y53.3
Z2.
G1 Z0.3 F320.
G3 X48.33 Z0. I-0.3
G1 X48.18
G17 G3 X47.88 Y53. J-0.3
X49.38 Z-0.5 I0.75
X47.88 Z-1. I-0.75
X49.38 Z-1.5 I0.75
X47.88 Z-2. I-0.75
X49.38 Z-2.5 I0.75
X47.88 Z-3. I-0.75
X49.38 Z-3.5 I0.75
X47.88 Z-4. I-0.75
X49.38 Z-4.5 I0.75
X47.88 Z-5. I-0.75
X49.38 Z-5.5 I0.75
X47.88 Z-6. I-0.75
X49.38 Z-6.5 I0.75
X47.88 Z-7. I-0.75
X49.38 Z-7.5 I0.75
X47.88 Z-8. I-0.75
X49.38 Z-8.5 I0.75
X47.88 Z-9. I-0.75
X49.38 I0.75
X47.88 I-0.75
X48.18 Y52.7 I0.3
G1 X48.33
G18 G2 X48.63 Z-8.7 K0.3
G0 Z5.
X32.88 Y63.3
Z2.
G1 Z0.3 F320.
G3 X32.58 Z0. I-0.3
G1 X32.43
G17 G3 X32.13 Y63. J-0.3
X45.13 Z-0.5 I6.5
X32.13 Z-1. I-6.5
X45.13 Z-1.5 I6.5
X32.13 Z-2. I-6.5
X45.13 Z-2.5 I6.5
X32.13 Z-3. I-6.5
X45.13 Z-3.5 I6.5
X32.13 Z-4. I-6.5
X45.13 Z-4.5 I6.5
X32.13 Z-5. I-6.5
X45.13 Z-5.5 I6.5
X32.13 Z-6. I-6.5
X45.13 Z-6.5 I6.5
X32.13 Z-7. I-6.5
X45.13 Z-7.5 I6.5
X32.13 Z-8. I-6.5
X45.13 Z-8.5 I6.5
X32.13 Z-9. I-6.5
X45.13 I6.5
X32.13 I-6.5
X32.43 Y62.7 I0.3
G1 X32.58
G18 G2 X32.88 Z-8.7 K0.3
G0 Z5.
X28.63 Y52.7
Z2.
G1 Z0.3 F320.
G2 X28.93 Z0. I0.3
G1 X29.08
G17 G3 X29.38 Y53. J0.3
X27.88 Z-0.5 I-0.75
X29.38 Z-1. I0.75
X27.88 Z-1.5 I-0.75
X29.38 Z-2. I0.75
X27.88 Z-2.5 I-0.75
X29.38 Z-3. I0.75
X27.88 Z-3.5 I-0.75
X29.38 Z-4. I0.75
X27.88 Z-4.5 I-0.75
X29.38 Z-5. I0.75
X27.88 Z-5.5 I-0.75
X29.38 Z-6. I0.75
X27.88 Z-6.5 I-0.75
X29.38 Z-7. I0.75
X27.88 Z-7.5 I-0.75
X29.38 Z-8. I0.75
X27.88 Z-8.5 I-0.75
X29.38 Z-9. I0.75
X27.88 I-0.75
X29.38 I0.75
X29.08 Y53.3 I-0.3
G1 X28.93
G18 G3 X28.63 Z-8.7 K0.3
G0 Z5.
X8.43 Y37.75
Z2.
G1 Z0.3 F320.
G2 X8.73 Z0. I0.3
G1 X8.88
G17 G3 X9.13 Y38. J0.25
X8.13 Z-0.5 I-0.5
X9.13 Z-1. I0.5
X8.13 Z-1.5 I-0.5
X9.13 Z-2. I0.5
X8.13 Z-2.5 I-0.5
X9.13 Z-3. I0.5
X8.13 Z-3.5 I-0.5
X9.13 Z-4. I0.5
X8.13 Z-4.5 I-0.5
X9.13 Z-5. I0.5
X8.13 Z-5.5 I-0.5
X9.13 Z-6. I0.5
X8.13 Z-6.5 I-0.5
X9.13 Z-7. I0.5
X8.13 Z-7.5 I-0.5
X9.13 Z-8. I0.5
X8.13 Z-8.5 I-0.5
X9.13 Z-9. I0.5
X8.13 I-0.5
X9.13 I0.5
X8.88 Y38.25 I-0.25
G1 X8.73
G18 G3 X8.43 Z-8.7 K0.3
G0 Z5.
X28.63 Y33.3
Z2.
G1 Z0.3 F320.
G3 X28.33 Z0. I-0.3
G1 X28.18
G17 G3 X27.88 Y33. J-0.3
X29.38 Z-0.5 I0.75
X27.88 Z-1. I-0.75
X29.38 Z-1.5 I0.75
X27.88 Z-2. I-0.75
X29.38 Z-2.5 I0.75
X27.88 Z-3. I-0.75
X29.38 Z-3.5 I0.75
X27.88 Z-4. I-0.75
X29.38 Z-4.5 I0.75
X27.88 Z-5. I-0.75
X29.38 Z-5.5 I0.75
X27.88 Z-6. I-0.75
X29.38 Z-6.5 I0.75
X27.88 Z-7. I-0.75
X29.38 Z-7.5 I0.75
X27.88 Z-8. I-0.75
X29.38 Z-8.5 I0.75
X27.88 Z-9. I-0.75
X29.38 I0.75
X27.88 I-0.75
X28.18 Y32.7 I0.3
G1 X28.33
G18 G2 X28.63 Z-8.7 K0.3
G0 Z5.
X48.63
Z2.
G1 Z0.3 F320.
G2 X48.93 Z0. I0.3
G1 X49.08
G17 G3 X49.38 Y33. J0.3
X47.88 Z-0.5 I-0.75
X49.38 Z-1. I0.75
X47.88 Z-1.5 I-0.75
X49.38 Z-2. I0.75
X47.88 Z-2.5 I-0.75
X49.38 Z-3. I0.75
X47.88 Z-3.5 I-0.75
X49.38 Z-4. I0.75
X47.88 Z-4.5 I-0.75
X49.38 Z-5. I0.75
X47.88 Z-5.5 I-0.75
X49.38 Z-6. I0.75
X47.88 Z-6.5 I-0.75
X49.38 Z-7. I0.75
X47.88 Z-7.5 I-0.75
X49.38 Z-8. I0.75
X47.88 Z-8.5 I-0.75
X49.38 Z-9. I0.75
X47.88 I-0.75
X49.38 I0.75
X49.08 Y33.3 I-0.3
G1 X48.93
G18 G3 X48.63 Z-8.7 K0.3
G0 Z5.
X68.83 Y38.25
Z2.
G1 Z0.3 F320.
G3 X68.53 Z0. I-0.3
G1 X68.38
G17 G3 X68.13 Y38. J-0.25
X69.13 Z-0.5 I0.5
X68.13 Z-1. I-0.5
X69.13 Z-1.5 I0.5
X68.13 Z-2. I-0.5
X69.13 Z-2.5 I0.5
X68.13 Z-3. I-0.5
X69.13 Z-3.5 I0.5
X68.13 Z-4. I-0.5
X69.13 Z-4.5 I0.5
X68.13 Z-5. I-0.5
X69.13 Z-5.5 I0.5
X68.13 Z-6. I-0.5
X69.13 Z-6.5 I0.5
X68.13 Z-7. I-0.5
X69.13 Z-7.5 I0.5
X68.13 Z-8. I-0.5
X69.13 Z-8.5 I0.5
X68.13 Z-9. I-0.5
X69.13 I0.5
X68.13 I-0.5
X68.38 Y37.75 I0.25
G1 X68.53
G18 G2 X68.83 Z-8.7 K0.3
G0 Z5.
X48.63 Y13.3
Z2.
G1 Z0.3 F320.
G3 X48.33 Z0. I-0.3
G1 X48.18
G17 G3 X47.88 Y13. J-0.3
X49.38 Z-0.5 I0.75
X47.88 Z-1. I-0.75
X49.38 Z-1.5 I0.75
X47.88 Z-2. I-0.75
X49.38 Z-2.5 I0.75
X47.88 Z-3. I-0.75
X49.38 Z-3.5 I0.75
X47.88 Z-4. I-0.75
X49.38 Z-4.5 I0.75
X47.88 Z-5. I-0.75
X49.38 Z-5.5 I0.75
X47.88 Z-6. I-0.75
X49.38 Z-6.5 I0.75
X47.88 Z-7. I-0.75
X49.38 Z-7.5 I0.75
X47.88 Z-8. I-0.75
X49.38 Z-8.5 I0.75
X47.88 Z-9. I-0.75
X49.38 I0.75
X47.88 I-0.75
X48.18 Y12.7 I0.3
G1 X48.33
G18 G2 X48.63 Z-8.7 K0.3
G0 Z5.
X28.63
Z2.
G1 Z0.3 F320.
G2 X28.93 Z0. I0.3
G1 X29.08
G17 G3 X29.38 Y13. J0.3
X27.88 Z-0.5 I-0.75
X29.38 Z-1. I0.75
X27.88 Z-1.5 I-0.75
X29.38 Z-2. I0.75
X27.88 Z-2.5 I-0.75
X29.38 Z-3. I0.75
X27.88 Z-3.5 I-0.75
X29.38 Z-4. I0.75
X27.88 Z-4.5 I-0.75
X29.38 Z-5. I0.75
X27.88 Z-5.5 I-0.75
X29.38 Z-6. I0.75
X27.88 Z-6.5 I-0.75
X29.38 Z-7. I0.75
X27.88 Z-7.5 I-0.75
X29.38 Z-8. I0.75
X27.88 Z-8.5 I-0.75
X29.38 Z-9. I0.75
X27.88 I-0.75
X29.38 I0.75
X29.08 Y13.3 I-0.3
G1 X28.93
G18 G3 X28.63 Z-8.7 K0.3
G0 Z15.
G17
(2D CONTOUR1)
G0 X135.404 Y113.787
Z15.
Z5.
G1 Z2. F320.
Z-0.82
X135.397 Y113.786 Z-0.858
X135.375 Y113.785 Z-0.891
X135.343 Y113.783 Z-0.912
X135.304 Y113.781 Z-0.92
X135.204 Y113.775
G3 X135.11 Y113.67 I0.006 J-0.1
G2 X135.13 Y113. I-11.48 J-0.67 F100.
G1 Y86.333
G2 X132.83 Y79.433 I-11.5
G1 X77.83 Y6.1
G2 X68.63 Y1.5 I-9.2 J6.9
G1 X13.63
G2 X2.13 Y13. J11.5
G1 Y113.
G2 X13.63 Y124.5 I11.5
G1 X123.63
G2 X135.11 Y113.67 J-11.5
G3 X135.216 Y113.576 I0.1 J0.006 F320.
G1 X135.316 Y113.581
X135.354 Y113.584 Z-0.912
X135.387 Y113.586 Z-0.891
X135.408 Y113.587 Z-0.858
X135.416 Z-0.82
G0 Z5.
X135.404 Y113.787
G1 Z1.08 F320.
Z-1.74
X135.397 Y113.786 Z-1.778
X135.375 Y113.785 Z-1.811
X135.343 Y113.783 Z-1.832
X135.304 Y113.781 Z-1.84
X135.204 Y113.775
G3 X135.11 Y113.67 I0.006 J-0.1
G2 X135.13 Y113. I-11.48 J-0.67 F100.
G1 Y86.333
G2 X132.83 Y79.433 I-11.5
G1 X77.83 Y6.1
G2 X68.63 Y1.5 I-9.2 J6.9
G1 X13.63
G2 X2.13 Y13. J11.5
G1 Y113.
G2 X13.63 Y124.5 I11.5
G1 X123.63
G2 X135.11 Y113.67 J-11.5
G3 X135.216 Y113.576 I0.1 J0.006 F320.
G1 X135.316 Y113.581
X135.354 Y113.584 Z-1.832
X135.387 Y113.586 Z-1.811
X135.408 Y113.587 Z-1.778
X135.416 Z-1.74
G0 Z5.
X135.404 Y113.787
G1 Z0.16 F320.
Z-2.66
X135.397 Y113.786 Z-2.698
X135.375 Y113.785 Z-2.731
X135.343 Y113.783 Z-2.752
X135.304 Y113.781 Z-2.76
X135.204 Y113.775
G3 X135.11 Y113.67 I0.006 J-0.1
G2 X135.13 Y113. I-11.48 J-0.67 F100.
G1 Y86.333
G2 X132.83 Y79.433 I-11.5
G1 X77.83 Y6.1
G2 X68.63 Y1.5 I-9.2 J6.9
G1 X13.63
G2 X2.13 Y13. J11.5
G1 Y113.
G2 X13.63 Y124.5 I11.5
G1 X123.63
G2 X135.11 Y113.67 J-11.5
G3 X135.216 Y113.576 I0.1 J0.006 F320.
G1 X135.316 Y113.581
X135.354 Y113.584 Z-2.752
X135.387 Y113.586 Z-2.731
X135.408 Y113.587 Z-2.698
X135.416 Z-2.66
G0 Z5.
X135.404 Y113.787
G1 Z-0.76 F320.
Z-3.58
X135.397 Y113.786 Z-3.618
X135.375 Y113.785 Z-3.651
X135.343 Y113.783 Z-3.672
X135.304 Y113.781 Z-3.68
X135.204 Y113.775
G3 X135.11 Y113.67 I0.006 J-0.1
G2 X135.13 Y113. I-11.48 J-0.67 F100.
G1 Y86.333
G2 X132.83 Y79.433 I-11.5
G1 X77.83 Y6.1
G2 X68.63 Y1.5 I-9.2 J6.9
G1 X13.63
G2 X2.13 Y13. J11.5
G1 Y113.
G2 X13.63 Y124.5 I11.5
G1 X123.63
G2 X135.11 Y113.67 J-11.5
G3 X135.216 Y113.576 I0.1 J0.006 F320.
G1 X135.316 Y113.581
X135.354 Y113.584 Z-3.672
X135.387 Y113.586 Z-3.651
X135.408 Y113.587 Z-3.618
X135.416 Z-3.58
G0 Z5.
X135.404 Y113.787
G1 Z-1.68 F320.
Z-4.5
X135.397 Y113.786 Z-4.538
X135.375 Y113.785 Z-4.571
X135.343 Y113.783 Z-4.592
X135.304 Y113.781 Z-4.6
X135.204 Y113.775
G3 X135.11 Y113.67 I0.006 J-0.1
G2 X135.13 Y113. I-11.48 J-0.67 F100.
G1 Y86.333
G2 X132.83 Y79.433 I-11.5
G1 X77.83 Y6.1
G2 X68.63 Y1.5 I-9.2 J6.9
G1 X13.63
G2 X2.13 Y13. J11.5
G1 Y113.
G2 X13.63 Y124.5 I11.5
G1 X123.63
G2 X135.11 Y113.67 J-11.5
G3 X135.216 Y113.576 I0.1 J0.006 F320.
G1 X135.316 Y113.581
X135.354 Y113.584 Z-4.592
X135.387 Y113.586 Z-4.571
X135.408 Y113.587 Z-4.538
X135.416 Z-4.5
G0 Z5.
X135.404 Y113.787
G1 Z-2.6 F320.
Z-5.42
X135.397 Y113.786 Z-5.458
X135.375 Y113.785 Z-5.491
X135.343 Y113.783 Z-5.512
X135.304 Y113.781 Z-5.52
X135.204 Y113.775
G3 X135.11 Y113.67 I0.006 J-0.1
G2 X135.13 Y113. I-11.48 J-0.67 F100.
G1 Y86.333
G2 X132.83 Y79.433 I-11.5
G1 X77.83 Y6.1
G2 X68.63 Y1.5 I-9.2 J6.9
G1 X13.63
G2 X2.13 Y13. J11.5
G1 Y113.
G2 X13.63 Y124.5 I11.5
G1 X123.63
G2 X135.11 Y113.67 J-11.5
G3 X135.216 Y113.576 I0.1 J0.006 F320.
G1 X135.316 Y113.581
X135.354 Y113.584 Z-5.512
X135.387 Y113.586 Z-5.491
X135.408 Y113.587 Z-5.458
X135.416 Z-5.42
G0 Z5.
X135.404 Y113.787
G1 Z-3.52 F320.
Z-6.34
X135.397 Y113.786 Z-6.378
X135.375 Y113.785 Z-6.411
X135.343 Y113.783 Z-6.432
X135.304 Y113.781 Z-6.44
X135.204 Y113.775
G3 X135.11 Y113.67 I0.006 J-0.1
G2 X135.13 Y113. I-11.48 J-0.67 F100.
G1 Y86.333
G2 X132.83 Y79.433 I-11.5
G1 X77.83 Y6.1
G2 X68.63 Y1.5 I-9.2 J6.9
G1 X13.63
G2 X2.13 Y13. J11.5
G1 Y113.
G2 X13.63 Y124.5 I11.5
G1 X123.63
G2 X135.11 Y113.67 J-11.5
G3 X135.216 Y113.576 I0.1 J0.006 F320.
G1 X135.316 Y113.581
X135.354 Y113.584 Z-6.432
X135.387 Y113.586 Z-6.411
X135.408 Y113.587 Z-6.378
X135.416 Z-6.34
G0 Z5.
X135.404 Y113.787
G1 Z-4.44 F320.
Z-7.26
X135.397 Y113.786 Z-7.298
X135.375 Y113.785 Z-7.331
X135.343 Y113.783 Z-7.352
X135.304 Y113.781 Z-7.36
X135.204 Y113.775
G3 X135.11 Y113.67 I0.006 J-0.1
G2 X135.13 Y113. I-11.48 J-0.67 F100.
G1 Y86.333
G2 X132.83 Y79.433 I-11.5
G1 X77.83 Y6.1
G2 X68.63 Y1.5 I-9.2 J6.9
G1 X13.63
G2 X2.13 Y13. J11.5
G1 Y113.
G2 X13.63 Y124.5 I11.5
G1 X123.63
G2 X135.11 Y113.67 J-11.5
G3 X135.216 Y113.576 I0.1 J0.006 F320.
G1 X135.316 Y113.581
X135.354 Y113.584 Z-7.352
X135.387 Y113.586 Z-7.331
X135.408 Y113.587 Z-7.298
X135.416 Z-7.26
G0 Z5.
X135.404 Y113.787
G1 Z-5.36 F320.
Z-8.18
X135.397 Y113.786 Z-8.218
X135.375 Y113.785 Z-8.251
X135.343 Y113.783 Z-8.272
X135.304 Y113.781 Z-8.28
X135.204 Y113.775
G3 X135.11 Y113.67 I0.006 J-0.1
G2 X135.13 Y113. I-11.48 J-0.67 F100.
G1 Y86.333
G2 X132.83 Y79.433 I-11.5
G1 X121.64 Y64.513
Z-8.2
X118.9 Y60.859
Z-8.28 F30.
X77.83 Y6.1 F100.
G2 X68.63 Y1.5 I-9.2 J6.9
G1 X43.187
Z-8.2
X38.687
Z-8.28 F30.
X13.63 F100.
G2 X2.13 Y13. J11.5
G1 Y66.614
Z-8.2
Y71.114
Z-8.28 F30.
Y113. F100.
G2 X13.63 Y124.5 I11.5
G1 X63.547
Z-8.2
X68.102
Z-8.28 F30.
X108.436 F100.
Z-8.2
X113.022
Z-8.28 F30.
X123.63 F100.
G2 X135.11 Y113.67 J-11.5
G3 X135.216 Y113.576 I0.1 J0.006 F320.
G1 X135.316 Y113.581
X135.354 Y113.584 Z-8.272
X135.387 Y113.586 Z-8.251
X135.408 Y113.587 Z-8.218
X135.416 Z-8.18
G0 Z5.
X135.404 Y113.787
G1 Z-6.28 F320.
Z-9.1
X135.397 Y113.786 Z-9.138
X135.375 Y113.785 Z-9.171
X135.343 Y113.783 Z-9.192
X135.304 Y113.781 Z-9.2
X135.204 Y113.775
G3 X135.11 Y113.67 I0.006 J-0.1
G2 X135.13 Y113. I-11.48 J-0.67 F100.
G1 Y86.333
G2 X132.83 Y79.433 I-11.5
G1 X121.64 Y64.513
Z-8.2
X118.9 Y60.859
Z-9.2 F30.
X77.83 Y6.1 F100.
G2 X68.63 Y1.5 I-9.2 J6.9
G1 X43.187
Z-8.2
X38.687
Z-9.2 F30.
X13.63 F100.
G2 X2.13 Y13. J11.5
G1 Y66.614
Z-8.2
Y71.114
Z-9.2 F30.
Y113. F100.
G2 X13.63 Y124.5 I11.5
G1 X63.547
Z-8.2
X68.102
Z-9.2 F30.
X108.436 F100.
Z-8.2
X113.022
Z-9.2 F30.
X123.63 F100.
G2 X135.11 Y113.67 J-11.5
G3 X135.216 Y113.576 I0.1 J0.006 F320.
G1 X135.316 Y113.581
X135.354 Y113.584 Z-9.192
X135.387 Y113.586 Z-9.171
X135.408 Y113.587 Z-9.138
X135.416 Z-9.1
G0 Z5.
X146.371 Y125.2
G1 Z2. F320.
Z-0.82
G19 G3 Y125.3 Z-0.92 J0.1
G1 Y125.4
G17 G3 X146.271 Y125.5 I-0.1
G1 X100. F100.
G2 X93.5 Y132. J6.5
G1 Y182.
G2 X100. Y188.5 I6.5
G1 X160.
G2 X166.5 Y182. J-6.5
G1 Y132.
G2 X160. Y125.5 I-6.5
G1 X146.271
G3 X146.171 Y125.4 J-0.1 F320.
G1 Y125.3
G19 G2 Y125.2 Z-0.82 K0.1
G0 Z5.
X146.371
G1 Z1.08 F320.
Z-1.74
G3 Y125.3 Z-1.84 J0.1
G1 Y125.4
G17 G3 X146.271 Y125.5 I-0.1
G1 X100. F100.
G2 X93.5 Y132. J6.5
G1 Y182.
G2 X100. Y188.5 I6.5
G1 X160.
G2 X166.5 Y182. J-6.5
G1 Y132.
G2 X160. Y125.5 I-6.5
G1 X146.271
G3 X146.171 Y125.4 J-0.1 F320.
G1 Y125.3
G19 G2 Y125.2 Z-1.74 K0.1
G0 Z5.
X146.371
G1 Z0.16 F320.
Z-2.66
G3 Y125.3 Z-2.76 J0.1
G1 Y125.4
G17 G3 X146.271 Y125.5 I-0.1
G1 X100. F100.
G2 X93.5 Y132. J6.5
G1 Y182.
G2 X100. Y188.5 I6.5
G1 X160.
G2 X166.5 Y182. J-6.5
G1 Y132.
G2 X160. Y125.5 I-6.5
G1 X146.271
G3 X146.171 Y125.4 J-0.1 F320.
G1 Y125.3
G19 G2 Y125.2 Z-2.66 K0.1
G0 Z5.
X146.371
G1 Z-0.76 F320.
Z-3.58
G3 Y125.3 Z-3.68 J0.1
G1 Y125.4
G17 G3 X146.271 Y125.5 I-0.1
G1 X100. F100.
G2 X93.5 Y132. J6.5
G1 Y182.
G2 X100. Y188.5 I6.5
G1 X160.
G2 X166.5 Y182. J-6.5
G1 Y132.
G2 X160. Y125.5 I-6.5
G1 X146.271
G3 X146.171 Y125.4 J-0.1 F320.
G1 Y125.3
G19 G2 Y125.2 Z-3.58 K0.1
G0 Z5.
X146.371
G1 Z-1.68 F320.
Z-4.5
G3 Y125.3 Z-4.6 J0.1
G1 Y125.4
G17 G3 X146.271 Y125.5 I-0.1
G1 X100. F100.
G2 X93.5 Y132. J6.5
G1 Y182.
G2 X100. Y188.5 I6.5
G1 X160.
G2 X166.5 Y182. J-6.5
G1 Y132.
G2 X160. Y125.5 I-6.5
G1 X146.271
G3 X146.171 Y125.4 J-0.1 F320.
G1 Y125.3
G19 G2 Y125.2 Z-4.5 K0.1
G0 Z5.
X146.371
G1 Z-2.6 F320.
Z-5.42
G3 Y125.3 Z-5.52 J0.1
G1 Y125.4
G17 G3 X146.271 Y125.5 I-0.1
G1 X100. F100.
G2 X93.5 Y132. J6.5
G1 Y182.
G2 X100. Y188.5 I6.5
G1 X160.
G2 X166.5 Y182. J-6.5
G1 Y132.
G2 X160. Y125.5 I-6.5
G1 X146.271
G3 X146.171 Y125.4 J-0.1 F320.
G1 Y125.3
G19 G2 Y125.2 Z-5.42 K0.1
G0 Z5.
X146.371
G1 Z-3.52 F320.
Z-6.34
G3 Y125.3 Z-6.44 J0.1
G1 Y125.4
G17 G3 X146.271 Y125.5 I-0.1
G1 X100. F100.
G2 X93.5 Y132. J6.5
G1 Y182.
G2 X100. Y188.5 I6.5
G1 X160.
G2 X166.5 Y182. J-6.5
G1 Y132.
G2 X160. Y125.5 I-6.5
G1 X146.271
G3 X146.171 Y125.4 J-0.1 F320.
G1 Y125.3
G19 G2 Y125.2 Z-6.34 K0.1
G0 Z5.
X146.371
G1 Z-4.44 F320.
Z-7.26
G3 Y125.3 Z-7.36 J0.1
G1 Y125.4
G17 G3 X146.271 Y125.5 I-0.1
G1 X100. F100.
G2 X93.5 Y132. J6.5
G1 Y182.
G2 X100. Y188.5 I6.5
G1 X160.
G2 X166.5 Y182. J-6.5
G1 Y132.
G2 X160. Y125.5 I-6.5
G1 X146.271
G3 X146.171 Y125.4 J-0.1 F320.
G1 Y125.3
G19 G2 Y125.2 Z-7.26 K0.1
G0 Z5.
X146.371
G1 Z-5.36 F320.
Z-8.18
G3 Y125.3 Z-8.28 J0.1
G1 Y125.4
G17 G3 X146.271 Y125.5 I-0.1
G1 X113.022 F100.
Z-8.2
X108.436
Z-8.28 F30.
X100. F100.
G2 X93.5 Y132. J6.5
G1 Y146.241
Z-8.2
Y150.81
Z-8.28 F30.
Y182. F100.
G2 X100. Y188.5 I6.5
G1 X128.898
Z-8.2
X133.398
Z-8.28 F30.
X160. F100.
G2 X166.5 Y182. J-6.5
G1 Y156.092
Z-8.2
Y151.592
Z-8.28 F30.
Y132. F100.
G2 X160. Y125.5 I-6.5
G1 X146.271
G3 X146.171 Y125.4 J-0.1 F320.
G1 Y125.3
G19 G2 Y125.2 Z-8.18 K0.1
G0 Z5.
X146.371
G1 Z-6.28 F320.
Z-9.1
G3 Y125.3 Z-9.2 J0.1
G1 Y125.4
G17 G3 X146.271 Y125.5 I-0.1
G1 X113.022 F100.
Z-8.2
X108.436
Z-9.2 F30.
X100. F100.
G2 X93.5 Y132. J6.5
G1 Y146.241
Z-8.2
Y150.81
Z-9.2 F30.
Y182. F100.
G2 X100. Y188.5 I6.5
G1 X128.898
Z-8.2
X133.398
Z-9.2 F30.
X160. F100.
G2 X166.5 Y182. J-6.5
G1 Y156.092
Z-8.2
Y151.592
Z-9.2 F30.
Y132. F100.
G2 X160. Y125.5 I-6.5
G1 X146.271
G3 X146.171 Y125.4 J-0.1 F320.
G1 Y125.3
G19 G2 Y125.2 Z-9.1 K0.1
G0 Z5.
X154.915 Y107.713
G1 Z2. F320.
Z-0.82
X154.921 Y107.708 Z-0.858
X154.938 Y107.695 Z-0.891
X154.964 Y107.676 Z-0.912
X154.995 Y107.653 Z-0.92
X155.075 Y107.593
G17 G3 X155.215 Y107.613 I0.06 J0.08
G1 X164.43 Y119.9 F100.
G2 X173.63 Y124.5 I9.2 J-6.9
G1 X228.63
G2 X240.13 Y113. J-11.5
G1 Y13.
G2 X228.63 Y1.5 I-11.5
G1 X118.63
G2 X107.13 Y13. J11.5
G1 Y39.667
G2 X109.43 Y46.567 I11.5
G1 X133.673 Y78.891
X155.215 Y107.613
G3 X155.195 Y107.753 I-0.08 J0.06 F320.
G1 X155.115 Y107.813
X155.084 Y107.836 Z-0.912
X155.058 Y107.855 Z-0.891
X155.041 Y107.868 Z-0.858
X155.035 Y107.873 Z-0.82
G0 Z5.
X154.915 Y107.713
G1 Z1.08 F320.
Z-1.74
X154.921 Y107.708 Z-1.778
X154.938 Y107.695 Z-1.811
X154.964 Y107.676 Z-1.832
X154.995 Y107.653 Z-1.84
X155.075 Y107.593
G3 X155.215 Y107.613 I0.06 J0.08
G1 X164.43 Y119.9 F100.
G2 X173.63 Y124.5 I9.2 J-6.9
G1 X228.63
G2 X240.13 Y113. J-11.5
G1 Y13.
G2 X228.63 Y1.5 I-11.5
G1 X118.63
G2 X107.13 Y13. J11.5
G1 Y39.667
G2 X109.43 Y46.567 I11.5
G1 X133.673 Y78.891
X155.215 Y107.613
G3 X155.195 Y107.753 I-0.08 J0.06 F320.
G1 X155.115 Y107.813
X155.084 Y107.836 Z-1.832
X155.058 Y107.855 Z-1.811
X155.041 Y107.868 Z-1.778
X155.035 Y107.873 Z-1.74
G0 Z5.
X154.915 Y107.713
G1 Z0.16 F320.
Z-2.66
X154.921 Y107.708 Z-2.698
X154.938 Y107.695 Z-2.731
X154.964 Y107.676 Z-2.752
X154.995 Y107.653 Z-2.76
X155.075 Y107.593
G3 X155.215 Y107.613 I0.06 J0.08
G1 X164.43 Y119.9 F100.
G2 X173.63 Y124.5 I9.2 J-6.9
G1 X228.63
G2 X240.13 Y113. J-11.5
G1 Y13.
G2 X228.63 Y1.5 I-11.5
G1 X118.63
G2 X107.13 Y13. J11.5
G1 Y39.667
G2 X109.43 Y46.567 I11.5
G1 X133.673 Y78.891
X155.215 Y107.613
G3 X155.195 Y107.753 I-0.08 J0.06 F320.
G1 X155.115 Y107.813
X155.084 Y107.836 Z-2.752
X155.058 Y107.855 Z-2.731
X155.041 Y107.868 Z-2.698
X155.035 Y107.873 Z-2.66
G0 Z5.
X154.915 Y107.713
G1 Z-0.76 F320.
Z-3.58
X154.921 Y107.708 Z-3.618
X154.938 Y107.695 Z-3.651
X154.964 Y107.676 Z-3.672
X154.995 Y107.653 Z-3.68
X155.075 Y107.593
G3 X155.215 Y107.613 I0.06 J0.08
G1 X164.43 Y119.9 F100.
G2 X173.63 Y124.5 I9.2 J-6.9
G1 X228.63
G2 X240.13 Y113. J-11.5
G1 Y13.
G2 X228.63 Y1.5 I-11.5
G1 X118.63
G2 X107.13 Y13. J11.5
G1 Y39.667
G2 X109.43 Y46.567 I11.5
G1 X133.673 Y78.891
X155.215 Y107.613
G3 X155.195 Y107.753 I-0.08 J0.06 F320.
G1 X155.115 Y107.813
X155.084 Y107.836 Z-3.672
X155.058 Y107.855 Z-3.651
X155.041 Y107.868 Z-3.618
X155.035 Y107.873 Z-3.58
G0 Z5.
X154.915 Y107.713
G1 Z-1.68 F320.
Z-4.5
X154.921 Y107.708 Z-4.538
X154.938 Y107.695 Z-4.571
X154.964 Y107.676 Z-4.592
X154.995 Y107.653 Z-4.6
X155.075 Y107.593
G3 X155.215 Y107.613 I0.06 J0.08
G1 X164.43 Y119.9 F100.
G2 X173.63 Y124.5 I9.2 J-6.9
G1 X228.63
G2 X240.13 Y113. J-11.5
G1 Y13.
G2 X228.63 Y1.5 I-11.5
G1 X118.63
G2 X107.13 Y13. J11.5
G1 Y39.667
G2 X109.43 Y46.567 I11.5
G1 X133.673 Y78.891
X155.215 Y107.613
G3 X155.195 Y107.753 I-0.08 J0.06 F320.
G1 X155.115 Y107.813
X155.084 Y107.836 Z-4.592
X155.058 Y107.855 Z-4.571
X155.041 Y107.868 Z-4.538
X155.035 Y107.873 Z-4.5
G0 Z5.
X154.915 Y107.713
G1 Z-2.6 F320.
Z-5.42
X154.921 Y107.708 Z-5.458
X154.938 Y107.695 Z-5.491
X154.964 Y107.676 Z-5.512
X154.995 Y107.653 Z-5.52
X155.075 Y107.593
G3 X155.215 Y107.613 I0.06 J0.08
G1 X164.43 Y119.9 F100.
G2 X173.63 Y124.5 I9.2 J-6.9
G1 X228.63
G2 X240.13 Y113. J-11.5
G1 Y13.
G2 X228.63 Y1.5 I-11.5
G1 X118.63
G2 X107.13 Y13. J11.5
G1 Y39.667
G2 X109.43 Y46.567 I11.5
G1 X133.673 Y78.891
X155.215 Y107.613
G3 X155.195 Y107.753 I-0.08 J0.06 F320.
G1 X155.115 Y107.813
X155.084 Y107.836 Z-5.512
X155.058 Y107.855 Z-5.491
X155.041 Y107.868 Z-5.458
X155.035 Y107.873 Z-5.42
G0 Z5.
X154.915 Y107.713
G1 Z-3.52 F320.
Z-6.34
X154.921 Y107.708 Z-6.378
X154.938 Y107.695 Z-6.411
X154.964 Y107.676 Z-6.432
X154.995 Y107.653 Z-6.44
X155.075 Y107.593
G3 X155.215 Y107.613 I0.06 J0.08
G1 X164.43 Y119.9 F100.
G2 X173.63 Y124.5 I9.2 J-6.9
G1 X228.63
G2 X240.13 Y113. J-11.5
G1 Y13.
G2 X228.63 Y1.5 I-11.5
G1 X118.63
G2 X107.13 Y13. J11.5
G1 Y39.667
G2 X109.43 Y46.567 I11.5
G1 X133.673 Y78.891
X155.215 Y107.613
G3 X155.195 Y107.753 I-0.08 J0.06 F320.
G1 X155.115 Y107.813
X155.084 Y107.836 Z-6.432
X155.058 Y107.855 Z-6.411
X155.041 Y107.868 Z-6.378
X155.035 Y107.873 Z-6.34
G0 Z5.
X154.915 Y107.713
G1 Z-4.44 F320.
Z-7.26
X154.921 Y107.708 Z-7.298
X154.938 Y107.695 Z-7.331
X154.964 Y107.676 Z-7.352
X154.995 Y107.653 Z-7.36
X155.075 Y107.593
G3 X155.215 Y107.613 I0.06 J0.08
G1 X164.43 Y119.9 F100.
G2 X173.63 Y124.5 I9.2 J-6.9
G1 X228.63
G2 X240.13 Y113. J-11.5
G1 Y13.
G2 X228.63 Y1.5 I-11.5
G1 X118.63
G2 X107.13 Y13. J11.5
G1 Y39.667
G2 X109.43 Y46.567 I11.5
G1 X133.673 Y78.891
X155.215 Y107.613
G3 X155.195 Y107.753 I-0.08 J0.06 F320.
G1 X155.115 Y107.813
X155.084 Y107.836 Z-7.352
X155.058 Y107.855 Z-7.331
X155.041 Y107.868 Z-7.298
X155.035 Y107.873 Z-7.26
G0 Z5.
X154.915 Y107.713
G1 Z-5.36 F320.
Z-8.18
X154.921 Y107.708 Z-8.218
X154.938 Y107.695 Z-8.251
X154.964 Y107.676 Z-8.272
X154.995 Y107.653 Z-8.28
X155.075 Y107.593
G3 X155.215 Y107.613 I0.06 J0.08
G1 X164.43 Y119.9 F100.
G2 X173.63 Y124.5 I9.2 J-6.9
G1 X187.31
Z-8.2
X192.058
Z-8.28 F30.
X228.63 F100.
G2 X240.13 Y113. J-11.5
G1 Y65.744
Z-8.2
Y61.244
Z-8.28 F30.
Y13. F100.
G2 X228.63 Y1.5 I-11.5
G1 X182.244
Z-8.2
X177.744
Z-8.28 F30.
X118.63 F100.
G2 X107.13 Y13. J11.5
G1 Y39.667
G2 X109.43 Y46.567 I11.5
G1 X119.7 Y60.259
Z-8.2
X122.44 Y63.913
Z-8.28 F30.
X155.215 Y107.613 F100.
G3 X155.195 Y107.753 I-0.08 J0.06 F320.
G1 X155.115 Y107.813
X155.084 Y107.836 Z-8.272
X155.058 Y107.855 Z-8.251
X155.041 Y107.868 Z-8.218
X155.035 Y107.873 Z-8.18
G0 Z5.
X154.915 Y107.713
G1 Z-6.28 F320.
Z-9.1
X154.921 Y107.708 Z-9.138
X154.938 Y107.695 Z-9.171
X154.964 Y107.676 Z-9.192
X154.995 Y107.653 Z-9.2
X155.075 Y107.593
G3 X155.215 Y107.613 I0.06 J0.08
G1 X164.43 Y119.9 F100.
G2 X173.63 Y124.5 I9.2 J-6.9
G1 X187.31
Z-8.2
X192.058
Z-9.2 F30.
X228.63 F100.
G2 X240.13 Y113. J-11.5
G1 Y65.744
Z-8.2
Y61.244
Z-9.2 F30.
Y13. F100.
G2 X228.63 Y1.5 I-11.5
G1 X182.244
Z-8.2
X177.744
Z-9.2 F30.
X118.63 F100.
G2 X107.13 Y13. J11.5
G1 Y39.667
G2 X109.43 Y46.567 I11.5
G1 X119.7 Y60.259
Z-8.2
X122.44 Y63.913
Z-9.2 F30.
X155.215 Y107.613 F100.
G3 X155.195 Y107.753 I-0.08 J0.06 F320.
G1 X155.115 Y107.813
X155.084 Y107.836 Z-9.192
X155.058 Y107.855 Z-9.171
X155.041 Y107.868 Z-9.138
X155.035 Y107.873 Z-9.1
G0 Z5.
X168.688 Y127.12
G1 Z2. F320.
Z-0.82
X168.694 Y127.125 Z-0.858
X168.71 Y127.139 Z-0.891
X168.734 Y127.16 Z-0.912
X168.763 Y127.186 Z-0.92
X168.839 Y127.251
G3 X168.849 Y127.392 I-0.066 J0.075
G2 X167.5 Y131. I4.151 J3.608 F100.
G1 Y176.
G2 X173. Y181.5 I5.5
G1 X205.
G2 X210.5 Y176. J-5.5
G1 Y131.
G2 X205. Y125.5 I-5.5
G1 X173.
G2 X168.849 Y127.392 J5.5
G3 X168.708 Y127.402 I-0.075 J-0.066 F320.
G1 X168.632 Y127.337
X168.603 Y127.311 Z-0.912
X168.579 Y127.29 Z-0.891
X168.562 Y127.276 Z-0.858
X168.557 Y127.271 Z-0.82
G0 Z5.
X168.688 Y127.12
G1 Z1.08 F320.
Z-1.74
X168.694 Y127.125 Z-1.778
X168.71 Y127.139 Z-1.811
X168.734 Y127.16 Z-1.832
X168.763 Y127.186 Z-1.84
X168.839 Y127.251
G3 X168.849 Y127.392 I-0.066 J0.075
G2 X167.5 Y131. I4.151 J3.608 F100.
G1 Y176.
G2 X173. Y181.5 I5.5
G1 X205.
G2 X210.5 Y176. J-5.5
G1 Y131.
G2 X205. Y125.5 I-5.5
G1 X173.
G2 X168.849 Y127.392 J5.5
G3 X168.708 Y127.402 I-0.075 J-0.066 F320.
G1 X168.632 Y127.337
X168.603 Y127.311 Z-1.832
X168.579 Y127.29 Z-1.811
X168.562 Y127.276 Z-1.778
X168.557 Y127.271 Z-1.74
G0 Z5.
X168.688 Y127.12
G1 Z0.16 F320.
Z-2.66
X168.694 Y127.125 Z-2.698
X168.71 Y127.139 Z-2.731
X168.734 Y127.16 Z-2.752
X168.763 Y127.186 Z-2.76
X168.839 Y127.251
G3 X168.849 Y127.392 I-0.066 J0.075
G2 X167.5 Y131. I4.151 J3.608 F100.
G1 Y176.
G2 X173. Y181.5 I5.5
G1 X205.
G2 X210.5 Y176. J-5.5
G1 Y131.
G2 X205. Y125.5 I-5.5
G1 X173.
G2 X168.849 Y127.392 J5.5
G3 X168.708 Y127.402 I-0.075 J-0.066 F320.
G1 X168.632 Y127.337
X168.603 Y127.311 Z-2.752
X168.579 Y127.29 Z-2.731
X168.562 Y127.276 Z-2.698
X168.557 Y127.271 Z-2.66
G0 Z5.
X168.688 Y127.12
G1 Z-0.76 F320.
Z-3.58
X168.694 Y127.125 Z-3.618
X168.71 Y127.139 Z-3.651
X168.734 Y127.16 Z-3.672
X168.763 Y127.186 Z-3.68
X168.839 Y127.251
G3 X168.849 Y127.392 I-0.066 J0.075
G2 X167.5 Y131. I4.151 J3.608 F100.
G1 Y176.
G2 X173. Y181.5 I5.5
G1 X205.
G2 X210.5 Y176. J-5.5
G1 Y131.
G2 X205. Y125.5 I-5.5
G1 X173.
G2 X168.849 Y127.392 J5.5
G3 X168.708 Y127.402 I-0.075 J-0.066 F320.
G1 X168.632 Y127.337
X168.603 Y127.311 Z-3.672
X168.579 Y127.29 Z-3.651
X168.562 Y127.276 Z-3.618
X168.557 Y127.271 Z-3.58
G0 Z5.
X168.688 Y127.12
G1 Z-1.68 F320.
Z-4.5
X168.694 Y127.125 Z-4.538
X168.71 Y127.139 Z-4.571
X168.734 Y127.16 Z-4.592
X168.763 Y127.186 Z-4.6
X168.839 Y127.251
G3 X168.849 Y127.392 I-0.066 J0.075
G2 X167.5 Y131. I4.151 J3.608 F100.
G1 Y176.
G2 X173. Y181.5 I5.5
G1 X205.
G2 X210.5 Y176. J-5.5
G1 Y131.
G2 X205. Y125.5 I-5.5
G1 X173.
G2 X168.849 Y127.392 J5.5
G3 X168.708 Y127.402 I-0.075 J-0.066 F320.
G1 X168.632 Y127.337
X168.603 Y127.311 Z-4.592
X168.579 Y127.29 Z-4.571
X168.562 Y127.276 Z-4.538
X168.557 Y127.271 Z-4.5
G0 Z5.
X168.688 Y127.12
G1 Z-2.6 F320.
Z-5.42
X168.694 Y127.125 Z-5.458
X168.71 Y127.139 Z-5.491
X168.734 Y127.16 Z-5.512
X168.763 Y127.186 Z-5.52
X168.839 Y127.251
G3 X168.849 Y127.392 I-0.066 J0.075
G2 X167.5 Y131. I4.151 J3.608 F100.
G1 Y176.
G2 X173. Y181.5 I5.5
G1 X205.
G2 X210.5 Y176. J-5.5
G1 Y131.
G2 X205. Y125.5 I-5.5
G1 X173.
G2 X168.849 Y127.392 J5.5
G3 X168.708 Y127.402 I-0.075 J-0.066 F320.
G1 X168.632 Y127.337
X168.603 Y127.311 Z-5.512
X168.579 Y127.29 Z-5.491
X168.562 Y127.276 Z-5.458
X168.557 Y127.271 Z-5.42
G0 Z5.
X168.688 Y127.12
G1 Z-3.52 F320.
Z-6.34
X168.694 Y127.125 Z-6.378
X168.71 Y127.139 Z-6.411
X168.734 Y127.16 Z-6.432
X168.763 Y127.186 Z-6.44
X168.839 Y127.251
G3 X168.849 Y127.392 I-0.066 J0.075
G2 X167.5 Y131. I4.151 J3.608 F100.
G1 Y176.
G2 X173. Y181.5 I5.5
G1 X205.
G2 X210.5 Y176. J-5.5
G1 Y131.
G2 X205. Y125.5 I-5.5
G1 X173.
G2 X168.849 Y127.392 J5.5
G3 X168.708 Y127.402 I-0.075 J-0.066 F320.
G1 X168.632 Y127.337
X168.603 Y127.311 Z-6.432
X168.579 Y127.29 Z-6.411
X168.562 Y127.276 Z-6.378
X168.557 Y127.271 Z-6.34
G0 Z5.
X168.688 Y127.12
G1 Z-4.44 F320.
Z-7.26
X168.694 Y127.125 Z-7.298
X168.71 Y127.139 Z-7.331
X168.734 Y127.16 Z-7.352
X168.763 Y127.186 Z-7.36
X168.839 Y127.251
G3 X168.849 Y127.392 I-0.066 J0.075
G2 X167.5 Y131. I4.151 J3.608 F100.
G1 Y176.
G2 X173. Y181.5 I5.5
G1 X205.
G2 X210.5 Y176. J-5.5
G1 Y131.
G2 X205. Y125.5 I-5.5
G1 X173.
G2 X168.849 Y127.392 J5.5
G3 X168.708 Y127.402 I-0.075 J-0.066 F320.
G1 X168.632 Y127.337
X168.603 Y127.311 Z-7.352
X168.579 Y127.29 Z-7.331
X168.562 Y127.276 Z-7.298
X168.557 Y127.271 Z-7.26
G0 Z5.
X168.688 Y127.12
G1 Z-5.36 F320.
Z-8.18
X168.694 Y127.125 Z-8.218
X168.71 Y127.139 Z-8.251
X168.734 Y127.16 Z-8.272
X168.763 Y127.186 Z-8.28
X168.839 Y127.251
G3 X168.849 Y127.392 I-0.066 J0.075
G2 X167.5 Y131. I4.151 J3.608 F100.
G1 Y151.592
Z-8.2
Y156.092
Z-8.28 F30.
Y176. F100.
G2 X173. Y181.5 I5.5
G1 X186.743
Z-8.2
X191.243
Z-8.28 F30.
X205. F100.
G2 X210.5 Y176. J-5.5
G1 Y155.43
Z-8.2
Y150.93
Z-8.28 F30.
Y131. F100.
G2 X205. Y125.5 I-5.5
G1 X192.058
Z-8.2
X187.31
Z-8.28 F30.
X173. F100.
G2 X168.849 Y127.392 J5.5
G3 X168.708 Y127.402 I-0.075 J-0.066 F320.
G1 X168.632 Y127.337
X168.603 Y127.311 Z-8.272
X168.579 Y127.29 Z-8.251
X168.562 Y127.276 Z-8.218
X168.557 Y127.271 Z-8.18
G0 Z5.
X168.688 Y127.12
G1 Z-6.28 F320.
Z-9.1
X168.694 Y127.125 Z-9.138
X168.71 Y127.139 Z-9.171
X168.734 Y127.16 Z-9.192
X168.763 Y127.186 Z-9.2
X168.839 Y127.251
G3 X168.849 Y127.392 I-0.066 J0.075
G2 X167.5 Y131. I4.151 J3.608 F100.
G1 Y151.592
Z-8.2
Y156.092
Z-9.2 F30.
Y176. F100.
G2 X173. Y181.5 I5.5
G1 X186.743
Z-8.2
X191.243
Z-9.2 F30.
X205. F100.
G2 X210.5 Y176. J-5.5
G1 Y155.43
Z-8.2
Y150.93
Z-9.2 F30.
Y131. F100.
G2 X205. Y125.5 I-5.5
G1 X192.058
Z-8.2
X187.31
Z-9.2 F30.
X173. F100.
G2 X168.849 Y127.392 J5.5
G3 X168.708 Y127.402 I-0.075 J-0.066 F320.
G1 X168.632 Y127.337
X168.603 Y127.311 Z-9.192
X168.579 Y127.29 Z-9.171
X168.562 Y127.276 Z-9.138
X168.557 Y127.271 Z-9.1
G0 Z5.
X91.81 Y127.757
G1 Z2. F320.
Z-0.82
X91.803 Y127.761 Z-0.858
X91.786 Y127.774 Z-0.891
X91.759 Y127.792 Z-0.912
X91.728 Y127.814 Z-0.92
X91.646 Y127.872
G3 X91.506 Y127.847 I-0.057 J-0.082
G2 X87. Y125.5 I-4.506 J3.153 F100.
G1 X44.157
G2 X40.268 Y127.111 J5.5
G1 X16.611 Y150.767
G3 X14.843 Y151.5 I-1.768 J-1.767
G1 X7.
G2 X1.5 Y157. J5.5
G1 Y189.
G2 X7. Y194.5 I5.5
G1 X31.343
G2 X35.232 Y192.889 J-5.5
G1 X56.889 Y171.233
G3 X58.657 Y170.5 I1.768 J1.767
G1 X87.
G2 X92.5 Y165. J-5.5
G1 Y131.
G2 X91.506 Y127.847 I-5.5
G3 X91.531 Y127.708 I0.082 J-0.057 F320.
G1 X91.613 Y127.65
X91.644 Y127.628 Z-0.912
X91.671 Y127.61 Z-0.891
X91.689 Y127.597 Z-0.858
X91.695 Y127.593 Z-0.82
G0 Z5.
X91.81 Y127.757
G1 Z1.08 F320.
Z-1.74
X91.803 Y127.761 Z-1.778
X91.786 Y127.774 Z-1.811
X91.759 Y127.792 Z-1.832
X91.728 Y127.814 Z-1.84
X91.646 Y127.872
G3 X91.506 Y127.847 I-0.057 J-0.082
G2 X87. Y125.5 I-4.506 J3.153 F100.
G1 X44.157
G2 X40.268 Y127.111 J5.5
G1 X16.611 Y150.767
G3 X14.843 Y151.5 I-1.768 J-1.767
G1 X7.
G2 X1.5 Y157. J5.5
G1 Y189.
G2 X7. Y194.5 I5.5
G1 X31.343
G2 X35.232 Y192.889 J-5.5
G1 X56.889 Y171.233
G3 X58.657 Y170.5 I1.768 J1.767
G1 X87.
G2 X92.5 Y165. J-5.5
G1 Y131.
G2 X91.506 Y127.847 I-5.5
G3 X91.531 Y127.708 I0.082 J-0.057 F320.
G1 X91.613 Y127.65
X91.644 Y127.628 Z-1.832
X91.671 Y127.61 Z-1.811
X91.689 Y127.597 Z-1.778
X91.695 Y127.593 Z-1.74
G0 Z5.
X91.81 Y127.757
G1 Z0.16 F320.
Z-2.66
X91.803 Y127.761 Z-2.698
X91.786 Y127.774 Z-2.731
X91.759 Y127.792 Z-2.752
X91.728 Y127.814 Z-2.76
X91.646 Y127.872
G3 X91.506 Y127.847 I-0.057 J-0.082
G2 X87. Y125.5 I-4.506 J3.153 F100.
G1 X44.157
G2 X40.268 Y127.111 J5.5
G1 X16.611 Y150.767
G3 X14.843 Y151.5 I-1.768 J-1.767
G1 X7.
G2 X1.5 Y157. J5.5
G1 Y189.
G2 X7. Y194.5 I5.5
G1 X31.343
G2 X35.232 Y192.889 J-5.5
G1 X56.889 Y171.233
G3 X58.657 Y170.5 I1.768 J1.767
G1 X87.
G2 X92.5 Y165. J-5.5
G1 Y131.
G2 X91.506 Y127.847 I-5.5
G3 X91.531 Y127.708 I0.082 J-0.057 F320.
G1 X91.613 Y127.65
X91.644 Y127.628 Z-2.752
X91.671 Y127.61 Z-2.731
X91.689 Y127.597 Z-2.698
X91.695 Y127.593 Z-2.66
G0 Z5.
X91.81 Y127.757
G1 Z-0.76 F320.
Z-3.58
X91.803 Y127.761 Z-3.618
X91.786 Y127.774 Z-3.651
X91.759 Y127.792 Z-3.672
X91.728 Y127.814 Z-3.68
X91.646 Y127.872
G3 X91.506 Y127.847 I-0.057 J-0.082
G2 X87. Y125.5 I-4.506 J3.153 F100.
G1 X44.157
G2 X40.268 Y127.111 J5.5
G1 X16.611 Y150.767
G3 X14.843 Y151.5 I-1.768 J-1.767
G1 X7.
G2 X1.5 Y157. J5.5
G1 Y189.
G2 X7. Y194.5 I5.5
G1 X31.343
G2 X35.232 Y192.889 J-5.5
G1 X56.889 Y171.233
G3 X58.657 Y170.5 I1.768 J1.767
G1 X87.
G2 X92.5 Y165. J-5.5
G1 Y131.
G2 X91.506 Y127.847 I-5.5
G3 X91.531 Y127.708 I0.082 J-0.057 F320.
G1 X91.613 Y127.65
X91.644 Y127.628 Z-3.672
X91.671 Y127.61 Z-3.651
X91.689 Y127.597 Z-3.618
X91.695 Y127.593 Z-3.58
G0 Z5.
X91.81 Y127.757
G1 Z-1.68 F320.
Z-4.5
X91.803 Y127.761 Z-4.538
X91.786 Y127.774 Z-4.571
X91.759 Y127.792 Z-4.592
X91.728 Y127.814 Z-4.6
X91.646 Y127.872
G3 X91.506 Y127.847 I-0.057 J-0.082
G2 X87. Y125.5 I-4.506 J3.153 F100.
G1 X44.157
G2 X40.268 Y127.111 J5.5
G1 X16.611 Y150.767
G3 X14.843 Y151.5 I-1.768 J-1.767
G1 X7.
G2 X1.5 Y157. J5.5
G1 Y189.
G2 X7. Y194.5 I5.5
G1 X31.343
G2 X35.232 Y192.889 J-5.5
G1 X56.889 Y171.233
G3 X58.657 Y170.5 I1.768 J1.767
G1 X87.
G2 X92.5 Y165. J-5.5
G1 Y131.
G2 X91.506 Y127.847 I-5.5
G3 X91.531 Y127.708 I0.082 J-0.057 F320.
G1 X91.613 Y127.65
X91.644 Y127.628 Z-4.592
X91.671 Y127.61 Z-4.571
X91.689 Y127.597 Z-4.538
X91.695 Y127.593 Z-4.5
G0 Z5.
X91.81 Y127.757
G1 Z-2.6 F320.
Z-5.42
X91.803 Y127.761 Z-5.458
X91.786 Y127.774 Z-5.491
X91.759 Y127.792 Z-5.512
X91.728 Y127.814 Z-5.52
X91.646 Y127.872
G3 X91.506 Y127.847 I-0.057 J-0.082
G2 X87. Y125.5 I-4.506 J3.153 F100.
G1 X44.157
G2 X40.268 Y127.111 J5.5
G1 X16.611 Y150.767
G3 X14.843 Y151.5 I-1.768 J-1.767
G1 X7.
G2 X1.5 Y157. J5.5
G1 Y189.
G2 X7. Y194.5 I5.5
G1 X31.343
G2 X35.232 Y192.889 J-5.5
G1 X56.889 Y171.233
G3 X58.657 Y170.5 I1.768 J1.767
G1 X87.
G2 X92.5 Y165. J-5.5
G1 Y131.
G2 X91.506 Y127.847 I-5.5
G3 X91.531 Y127.708 I0.082 J-0.057 F320.
G1 X91.613 Y127.65
X91.644 Y127.628 Z-5.512
X91.671 Y127.61 Z-5.491
X91.689 Y127.597 Z-5.458
X91.695 Y127.593 Z-5.42
G0 Z5.
X91.81 Y127.757
G1 Z-3.52 F320.
Z-6.34
X91.803 Y127.761 Z-6.378
X91.786 Y127.774 Z-6.411
X91.759 Y127.792 Z-6.432
X91.728 Y127.814 Z-6.44
X91.646 Y127.872
G3 X91.506 Y127.847 I-0.057 J-0.082
G2 X87. Y125.5 I-4.506 J3.153 F100.
G1 X44.157
G2 X40.268 Y127.111 J5.5
G1 X16.611 Y150.767
G3 X14.843 Y151.5 I-1.768 J-1.767
G1 X7.
G2 X1.5 Y157. J5.5
G1 Y189.
G2 X7. Y194.5 I5.5
G1 X31.343
G2 X35.232 Y192.889 J-5.5
G1 X56.889 Y171.233
G3 X58.657 Y170.5 I1.768 J1.767
G1 X87.
G2 X92.5 Y165. J-5.5
G1 Y131.
G2 X91.506 Y127.847 I-5.5
G3 X91.531 Y127.708 I0.082 J-0.057 F320.
G1 X91.613 Y127.65
X91.644 Y127.628 Z-6.432
X91.671 Y127.61 Z-6.411
X91.689 Y127.597 Z-6.378
X91.695 Y127.593 Z-6.34
G0 Z5.
X91.81 Y127.757
G1 Z-4.44 F320.
Z-7.26
X91.803 Y127.761 Z-7.298
X91.786 Y127.774 Z-7.331
X91.759 Y127.792 Z-7.352
X91.728 Y127.814 Z-7.36
X91.646 Y127.872
G3 X91.506 Y127.847 I-0.057 J-0.082
G2 X87. Y125.5 I-4.506 J3.153 F100.
G1 X44.157
G2 X40.268 Y127.111 J5.5
G1 X16.611 Y150.767
G3 X14.843 Y151.5 I-1.768 J-1.767
G1 X7.
G2 X1.5 Y157. J5.5
G1 Y189.
G2 X7. Y194.5 I5.5
G1 X31.343
G2 X35.232 Y192.889 J-5.5
G1 X56.889 Y171.233
G3 X58.657 Y170.5 I1.768 J1.767
G1 X87.
G2 X92.5 Y165. J-5.5
G1 Y131.
G2 X91.506 Y127.847 I-5.5
G3 X91.531 Y127.708 I0.082 J-0.057 F320.
G1 X91.613 Y127.65
X91.644 Y127.628 Z-7.352
X91.671 Y127.61 Z-7.331
X91.689 Y127.597 Z-7.298
X91.695 Y127.593 Z-7.26
G0 Z5.
X91.81 Y127.757
G1 Z-5.36 F320.
Z-8.18
X91.803 Y127.761 Z-8.218
X91.786 Y127.774 Z-8.251
X91.759 Y127.792 Z-8.272
X91.728 Y127.814 Z-8.28
X91.646 Y127.872
G3 X91.506 Y127.847 I-0.057 J-0.082
G2 X87. Y125.5 I-4.506 J3.153 F100.
G1 X68.102
Z-8.2
X63.547
Z-8.28 F30.
X44.157 F100.
G2 X40.268 Y127.111 J5.5
G1 X16.611 Y150.767
G3 X14.843 Y151.5 I-1.768 J-1.767
G1 X7.
G2 X1.5 Y157. J5.5
G1 Y169.247
Z-8.2
Y173.747
Z-8.28 F30.
Y189. F100.
G2 X7. Y194.5 I5.5
G1 X16.613
Z-8.2
X21.113
Z-8.28 F30.
X31.343 F100.
G2 X35.232 Y192.889 J-5.5
G1 X56.889 Y171.233
G3 X58.657 Y170.5 I1.768 J1.767
G1 X71.824
Z-8.2
X76.324
Z-8.28 F30.
X87. F100.
G2 X92.5 Y165. J-5.5
G1 Y150.81
Z-8.2
Y146.241
Z-8.28 F30.
Y131. F100.
G2 X91.506 Y127.847 I-5.5
G3 X91.531 Y127.708 I0.082 J-0.057 F320.
G1 X91.613 Y127.65
X91.644 Y127.628 Z-8.272
X91.671 Y127.61 Z-8.251
X91.689 Y127.597 Z-8.218
X91.695 Y127.593 Z-8.18
G0 Z5.
X91.81 Y127.757
G1 Z-6.28 F320.
Z-9.1
X91.803 Y127.761 Z-9.138
X91.786 Y127.774 Z-9.171
X91.759 Y127.792 Z-9.192
X91.728 Y127.814 Z-9.2
X91.646 Y127.872
G3 X91.506 Y127.847 I-0.057 J-0.082
G2 X87. Y125.5 I-4.506 J3.153 F100.
G1 X68.102
Z-8.2
X63.547
Z-9.2 F30.
X44.157 F100.
G2 X40.268 Y127.111 J5.5
G1 X16.611 Y150.767
G3 X14.843 Y151.5 I-1.768 J-1.767
G1 X7.
G2 X1.5 Y157. J5.5
G1 Y169.247
Z-8.2
Y173.747
Z-9.2 F30.
Y189. F100.
G2 X7. Y194.5 I5.5
G1 X16.613
Z-8.2
X21.113
Z-9.2 F30.
X31.343 F100.
G2 X35.232 Y192.889 J-5.5
G1 X56.889 Y171.233
G3 X58.657 Y170.5 I1.768 J1.767
G1 X71.824
Z-8.2
X76.324
Z-9.2 F30.
X87. F100.
G2 X92.5 Y165. J-5.5
G1 Y150.81
Z-8.2
Y146.241
Z-9.2 F30.
Y131. F100.
G2 X91.506 Y127.847 I-5.5
G3 X91.531 Y127.708 I0.082 J-0.057 F320.
G1 X91.613 Y127.65
X91.644 Y127.628 Z-9.192
X91.671 Y127.61 Z-9.171
X91.689 Y127.597 Z-9.138
X91.695 Y127.593 Z-9.1
G0 Z15.
G91
G28 Z0.
M5
G28 X0. Y0.
M30
%
