%
O00001005
(T2  D=3. CR=0. - ZMIN=-9.2 - FLAT END MILL)
G90 G94 G17
G21
G91
G28 Z0.
G90
(2D CONTOUR1)
T2 M6
S8000 M3
G54
G0 X167.849 Y123.287
G43 Z15. H2
G0 Z5.
G1 Z2. F320.
Z-0.82
X167.852 Y123.28 Z-0.858
X167.863 Y123.261 Z-0.891
X167.878 Y123.233 Z-0.912
X167.897 Y123.2 Z-0.92
X167.945 Y123.112
G3 X168.081 Y123.073 I0.088 J0.048
G2 X173.63 Y124.5 I5.549 J-10.073
G1 X205.
X228.63
G2 X240.13 Y113. J-11.5
G1 Y13.
G2 X228.63 Y1.5 I-11.5
G1 X118.63
G2 X107.13 Y13. J11.5
G1 Y39.667
G2 X109.43 Y46.567 I11.5
G1 X164.43 Y119.9
G2 X168.081 Y123.073 I9.2 J-6.9
G3 X168.12 Y123.208 I-0.048 J0.088
G1 X168.072 Y123.296
X168.053 Y123.33 Z-0.912
X168.038 Y123.358 Z-0.891
X168.027 Y123.377 Z-0.858
X168.024 Y123.384 Z-0.82
G0 Z5.
X167.849 Y123.287
G1 Z1.08 F320.
Z-1.74
X167.852 Y123.28 Z-1.778
X167.863 Y123.261 Z-1.811
X167.878 Y123.233 Z-1.832
X167.897 Y123.2 Z-1.84
X167.945 Y123.112
G3 X168.081 Y123.073 I0.088 J0.048
G2 X173.63 Y124.5 I5.549 J-10.073
G1 X205.
X228.63
G2 X240.13 Y113. J-11.5
G1 Y13.
G2 X228.63 Y1.5 I-11.5
G1 X118.63
G2 X107.13 Y13. J11.5
G1 Y39.667
G2 X109.43 Y46.567 I11.5
G1 X164.43 Y119.9
G2 X168.081 Y123.073 I9.2 J-6.9
G3 X168.12 Y123.208 I-0.048 J0.088
G1 X168.072 Y123.296
X168.053 Y123.33 Z-1.832
X168.038 Y123.358 Z-1.811
X168.027 Y123.377 Z-1.778
X168.024 Y123.384 Z-1.74
G0 Z5.
X167.849 Y123.287
G1 Z0.16 F320.
Z-2.66
X167.852 Y123.28 Z-2.698
X167.863 Y123.261 Z-2.731
X167.878 Y123.233 Z-2.752
X167.897 Y123.2 Z-2.76
X167.945 Y123.112
G3 X168.081 Y123.073 I0.088 J0.048
G2 X173.63 Y124.5 I5.549 J-10.073
G1 X205.
X228.63
G2 X240.13 Y113. J-11.5
G1 Y13.
G2 X228.63 Y1.5 I-11.5
G1 X118.63
G2 X107.13 Y13. J11.5
G1 Y39.667
G2 X109.43 Y46.567 I11.5
G1 X164.43 Y119.9
G2 X168.081 Y123.073 I9.2 J-6.9
G3 X168.12 Y123.208 I-0.048 J0.088
G1 X168.072 Y123.296
X168.053 Y123.33 Z-2.752
X168.038 Y123.358 Z-2.731
X168.027 Y123.377 Z-2.698
X168.024 Y123.384 Z-2.66
G0 Z5.
X167.849 Y123.287
G1 Z-0.76 F320.
Z-3.58
X167.852 Y123.28 Z-3.618
X167.863 Y123.261 Z-3.651
X167.878 Y123.233 Z-3.672
X167.897 Y123.2 Z-3.68
X167.945 Y123.112
G3 X168.081 Y123.073 I0.088 J0.048
G2 X173.63 Y124.5 I5.549 J-10.073
G1 X205.
X228.63
G2 X240.13 Y113. J-11.5
G1 Y13.
G2 X228.63 Y1.5 I-11.5
G1 X118.63
G2 X107.13 Y13. J11.5
G1 Y39.667
G2 X109.43 Y46.567 I11.5
G1 X164.43 Y119.9
G2 X168.081 Y123.073 I9.2 J-6.9
G3 X168.12 Y123.208 I-0.048 J0.088
G1 X168.072 Y123.296
X168.053 Y123.33 Z-3.672
X168.038 Y123.358 Z-3.651
X168.027 Y123.377 Z-3.618
X168.024 Y123.384 Z-3.58
G0 Z5.
X167.849 Y123.287
G1 Z-1.68 F320.
Z-4.5
X167.852 Y123.28 Z-4.538
X167.863 Y123.261 Z-4.571
X167.878 Y123.233 Z-4.592
X167.897 Y123.2 Z-4.6
X167.945 Y123.112
G3 X168.081 Y123.073 I0.088 J0.048
G2 X173.63 Y124.5 I5.549 J-10.073
G1 X205.
X228.63
G2 X240.13 Y113. J-11.5
G1 Y13.
G2 X228.63 Y1.5 I-11.5
G1 X118.63
G2 X107.13 Y13. J11.5
G1 Y39.667
G2 X109.43 Y46.567 I11.5
G1 X164.43 Y119.9
G2 X168.081 Y123.073 I9.2 J-6.9
G3 X168.12 Y123.208 I-0.048 J0.088
G1 X168.072 Y123.296
X168.053 Y123.33 Z-4.592
X168.038 Y123.358 Z-4.571
X168.027 Y123.377 Z-4.538
X168.024 Y123.384 Z-4.5
G0 Z5.
X167.849 Y123.287
G1 Z-2.6 F320.
Z-5.42
X167.852 Y123.28 Z-5.458
X167.863 Y123.261 Z-5.491
X167.878 Y123.233 Z-5.512
X167.897 Y123.2 Z-5.52
X167.945 Y123.112
G3 X168.081 Y123.073 I0.088 J0.048
G2 X173.63 Y124.5 I5.549 J-10.073
G1 X205.
X228.63
G2 X240.13 Y113. J-11.5
G1 Y13.
G2 X228.63 Y1.5 I-11.5
G1 X118.63
G2 X107.13 Y13. J11.5
G1 Y39.667
G2 X109.43 Y46.567 I11.5
G1 X164.43 Y119.9
G2 X168.081 Y123.073 I9.2 J-6.9
G3 X168.12 Y123.208 I-0.048 J0.088
G1 X168.072 Y123.296
X168.053 Y123.33 Z-5.512
X168.038 Y123.358 Z-5.491
X168.027 Y123.377 Z-5.458
X168.024 Y123.384 Z-5.42
G0 Z5.
X167.849 Y123.287
G1 Z-3.52 F320.
Z-6.34
X167.852 Y123.28 Z-6.378
X167.863 Y123.261 Z-6.411
X167.878 Y123.233 Z-6.432
X167.897 Y123.2 Z-6.44
X167.945 Y123.112
G3 X168.081 Y123.073 I0.088 J0.048
G2 X173.63 Y124.5 I5.549 J-10.073
G1 X205.
X228.63
G2 X240.13 Y113. J-11.5
G1 Y13.
G2 X228.63 Y1.5 I-11.5
G1 X118.63
G2 X107.13 Y13. J11.5
G1 Y39.667
G2 X109.43 Y46.567 I11.5
G1 X164.43 Y119.9
G2 X168.081 Y123.073 I9.2 J-6.9
G3 X168.12 Y123.208 I-0.048 J0.088
G1 X168.072 Y123.296
X168.053 Y123.33 Z-6.432
X168.038 Y123.358 Z-6.411
X168.027 Y123.377 Z-6.378
X168.024 Y123.384 Z-6.34
G0 Z5.
X167.849 Y123.287
G1 Z-4.44 F320.
Z-7.26
X167.852 Y123.28 Z-7.298
X167.863 Y123.261 Z-7.331
X167.878 Y123.233 Z-7.352
X167.897 Y123.2 Z-7.36
X167.945 Y123.112
G3 X168.081 Y123.073 I0.088 J0.048
G2 X173.63 Y124.5 I5.549 J-10.073
G1 X205.
X228.63
G2 X240.13 Y113. J-11.5
G1 Y13.
G2 X228.63 Y1.5 I-11.5
G1 X118.63
G2 X107.13 Y13. J11.5
G1 Y39.667
G2 X109.43 Y46.567 I11.5
G1 X164.43 Y119.9
G2 X168.081 Y123.073 I9.2 J-6.9
G3 X168.12 Y123.208 I-0.048 J0.088
G1 X168.072 Y123.296
X168.053 Y123.33 Z-7.352
X168.038 Y123.358 Z-7.331
X168.027 Y123.377 Z-7.298
X168.024 Y123.384 Z-7.26
G0 Z5.
X167.849 Y123.287
G1 Z-5.36 F320.
Z-8.18
X167.852 Y123.28 Z-8.218
X167.863 Y123.261 Z-8.251
X167.878 Y123.233 Z-8.272
X167.897 Y123.2 Z-8.28
X167.945 Y123.112
G3 X168.081 Y123.073 I0.088 J0.048
G2 X173.63 Y124.5 I5.549 J-10.073
G1 X187.31
Z-8.2
X192.058
Z-8.28 F30.
X228.63 F320.
G2 X240.13 Y113. J-11.5
G1 Y65.744
Z-8.2
Y61.244
Z-8.28 F30.
Y13. F320.
G2 X228.63 Y1.5 I-11.5
G1 X182.244
Z-8.2
X177.744
Z-8.28 F30.
X118.63 F320.
G2 X107.732 Y9.329 J11.5
G1 Z-8.2
G2 X107.13 Y13. I10.898 J3.671
G1 Y13.788
Z-8.28 F30.
Y39.667 F320.
G2 X109.43 Y46.567 I11.5
G1 X119.7 Y60.259
Z-8.2
X122.4 Y63.859
Z-8.28 F30.
X164.43 Y119.9 F320.
G2 X168.081 Y123.073 I9.2 J-6.9
G3 X168.12 Y123.208 I-0.048 J0.088
G1 X168.072 Y123.296
X168.053 Y123.33 Z-8.272
X168.038 Y123.358 Z-8.251
X168.027 Y123.377 Z-8.218
X168.024 Y123.384 Z-8.18
G0 Z5.
X167.849 Y123.287
G1 Z-6.28 F320.
Z-9.1
X167.852 Y123.28 Z-9.138
X167.863 Y123.261 Z-9.171
X167.878 Y123.233 Z-9.192
X167.897 Y123.2 Z-9.2
X167.945 Y123.112
G3 X168.081 Y123.073 I0.088 J0.048
G2 X173.63 Y124.5 I5.549 J-10.073
G1 X187.31
Z-8.2
X192.058
Z-9.2 F30.
X228.63 F320.
G2 X240.13 Y113. J-11.5
G1 Y65.744
Z-8.2
Y61.244
Z-9.2 F30.
Y13. F320.
G2 X228.63 Y1.5 I-11.5
G1 X182.244
Z-8.2
X177.744
Z-9.2 F30.
X118.63 F320.
G2 X107.732 Y9.329 J11.5
G1 Z-8.2
G2 X107.13 Y13. I10.898 J3.671
G1 Y13.788
Z-9.2 F30.
Y39.667 F320.
G2 X109.43 Y46.567 I11.5
G1 X119.7 Y60.259
Z-8.2
X122.4 Y63.859
Z-9.2 F30.
X164.43 Y119.9 F320.
G2 X168.081 Y123.073 I9.2 J-6.9
G3 X168.12 Y123.208 I-0.048 J0.088
G1 X168.072 Y123.296
X168.053 Y123.33 Z-9.192
X168.038 Y123.358 Z-9.171
X168.027 Y123.377 Z-9.138
X168.024 Y123.384 Z-9.1
G0 Z5.
X168.688 Y127.12
G1 Z2. F320.
Z-0.82
X168.694 Y127.125 Z-0.858
X168.71 Y127.139 Z-0.891
X168.734 Y127.16 Z-0.912
X168.763 Y127.186 Z-0.92
X168.839 Y127.251
G3 X168.849 Y127.392 I-0.066 J0.075
G2 X167.5 Y131. I4.151 J3.608
G1 Y176.
G2 X173. Y181.5 I5.5
G1 X205.
G2 X210.5 Y176. J-5.5
G1 Y131.
G2 X205. Y125.5 I-5.5
G1 X173.
G2 X168.849 Y127.392 J5.5
G3 X168.708 Y127.402 I-0.075 J-0.066
G1 X168.632 Y127.337
X168.603 Y127.311 Z-0.912
X168.579 Y127.29 Z-0.891
X168.562 Y127.276 Z-0.858
X168.557 Y127.271 Z-0.82
G0 Z5.
X168.688 Y127.12
G1 Z1.08 F320.
Z-1.74
X168.694 Y127.125 Z-1.778
X168.71 Y127.139 Z-1.811
X168.734 Y127.16 Z-1.832
X168.763 Y127.186 Z-1.84
X168.839 Y127.251
G3 X168.849 Y127.392 I-0.066 J0.075
G2 X167.5 Y131. I4.151 J3.608
G1 Y176.
G2 X173. Y181.5 I5.5
G1 X205.
G2 X210.5 Y176. J-5.5
G1 Y131.
G2 X205. Y125.5 I-5.5
G1 X173.
G2 X168.849 Y127.392 J5.5
G3 X168.708 Y127.402 I-0.075 J-0.066
G1 X168.632 Y127.337
X168.603 Y127.311 Z-1.832
X168.579 Y127.29 Z-1.811
X168.562 Y127.276 Z-1.778
X168.557 Y127.271 Z-1.74
G0 Z5.
X168.688 Y127.12
G1 Z0.16 F320.
Z-2.66
X168.694 Y127.125 Z-2.698
X168.71 Y127.139 Z-2.731
X168.734 Y127.16 Z-2.752
X168.763 Y127.186 Z-2.76
X168.839 Y127.251
G3 X168.849 Y127.392 I-0.066 J0.075
G2 X167.5 Y131. I4.151 J3.608
G1 Y176.
G2 X173. Y181.5 I5.5
G1 X205.
G2 X210.5 Y176. J-5.5
G1 Y131.
G2 X205. Y125.5 I-5.5
G1 X173.
G2 X168.849 Y127.392 J5.5
G3 X168.708 Y127.402 I-0.075 J-0.066
G1 X168.632 Y127.337
X168.603 Y127.311 Z-2.752
X168.579 Y127.29 Z-2.731
X168.562 Y127.276 Z-2.698
X168.557 Y127.271 Z-2.66
G0 Z5.
X168.688 Y127.12
G1 Z-0.76 F320.
Z-3.58
X168.694 Y127.125 Z-3.618
X168.71 Y127.139 Z-3.651
X168.734 Y127.16 Z-3.672
X168.763 Y127.186 Z-3.68
X168.839 Y127.251
G3 X168.849 Y127.392 I-0.066 J0.075
G2 X167.5 Y131. I4.151 J3.608
G1 Y176.
G2 X173. Y181.5 I5.5
G1 X205.
G2 X210.5 Y176. J-5.5
G1 Y131.
G2 X205. Y125.5 I-5.5
G1 X173.
G2 X168.849 Y127.392 J5.5
G3 X168.708 Y127.402 I-0.075 J-0.066
G1 X168.632 Y127.337
X168.603 Y127.311 Z-3.672
X168.579 Y127.29 Z-3.651
X168.562 Y127.276 Z-3.618
X168.557 Y127.271 Z-3.58
G0 Z5.
X168.688 Y127.12
G1 Z-1.68 F320.
Z-4.5
X168.694 Y127.125 Z-4.538
X168.71 Y127.139 Z-4.571
X168.734 Y127.16 Z-4.592
X168.763 Y127.186 Z-4.6
X168.839 Y127.251
G3 X168.849 Y127.392 I-0.066 J0.075
G2 X167.5 Y131. I4.151 J3.608
G1 Y176.
G2 X173. Y181.5 I5.5
G1 X205.
G2 X210.5 Y176. J-5.5
G1 Y131.
G2 X205. Y125.5 I-5.5
G1 X173.
G2 X168.849 Y127.392 J5.5
G3 X168.708 Y127.402 I-0.075 J-0.066
G1 X168.632 Y127.337
X168.603 Y127.311 Z-4.592
X168.579 Y127.29 Z-4.571
X168.562 Y127.276 Z-4.538
X168.557 Y127.271 Z-4.5
G0 Z5.
X168.688 Y127.12
G1 Z-2.6 F320.
Z-5.42
X168.694 Y127.125 Z-5.458
X168.71 Y127.139 Z-5.491
X168.734 Y127.16 Z-5.512
X168.763 Y127.186 Z-5.52
X168.839 Y127.251
G3 X168.849 Y127.392 I-0.066 J0.075
G2 X167.5 Y131. I4.151 J3.608
G1 Y176.
G2 X173. Y181.5 I5.5
G1 X205.
G2 X210.5 Y176. J-5.5
G1 Y131.
G2 X205. Y125.5 I-5.5
G1 X173.
G2 X168.849 Y127.392 J5.5
G3 X168.708 Y127.402 I-0.075 J-0.066
G1 X168.632 Y127.337
X168.603 Y127.311 Z-5.512
X168.579 Y127.29 Z-5.491
X168.562 Y127.276 Z-5.458
X168.557 Y127.271 Z-5.42
G0 Z5.
X168.688 Y127.12
G1 Z-3.52 F320.
Z-6.34
X168.694 Y127.125 Z-6.378
X168.71 Y127.139 Z-6.411
X168.734 Y127.16 Z-6.432
X168.763 Y127.186 Z-6.44
X168.839 Y127.251
G3 X168.849 Y127.392 I-0.066 J0.075
G2 X167.5 Y131. I4.151 J3.608
G1 Y176.
G2 X173. Y181.5 I5.5
G1 X205.
G2 X210.5 Y176. J-5.5
G1 Y131.
G2 X205. Y125.5 I-5.5
G1 X173.
G2 X168.849 Y127.392 J5.5
G3 X168.708 Y127.402 I-0.075 J-0.066
G1 X168.632 Y127.337
X168.603 Y127.311 Z-6.432
X168.579 Y127.29 Z-6.411
X168.562 Y127.276 Z-6.378
X168.557 Y127.271 Z-6.34
G0 Z5.
X168.688 Y127.12
G1 Z-4.44 F320.
Z-7.26
X168.694 Y127.125 Z-7.298
X168.71 Y127.139 Z-7.331
X168.734 Y127.16 Z-7.352
X168.763 Y127.186 Z-7.36
X168.839 Y127.251
G3 X168.849 Y127.392 I-0.066 J0.075
G2 X167.5 Y131. I4.151 J3.608
G1 Y176.
G2 X173. Y181.5 I5.5
G1 X205.
G2 X210.5 Y176. J-5.5
G1 Y131.
G2 X205. Y125.5 I-5.5
G1 X173.
G2 X168.849 Y127.392 J5.5
G3 X168.708 Y127.402 I-0.075 J-0.066
G1 X168.632 Y127.337
X168.603 Y127.311 Z-7.352
X168.579 Y127.29 Z-7.331
X168.562 Y127.276 Z-7.298
X168.557 Y127.271 Z-7.26
G0 Z5.
X168.688 Y127.12
G1 Z-5.36 F320.
Z-8.18
X168.694 Y127.125 Z-8.218
X168.71 Y127.139 Z-8.251
X168.734 Y127.16 Z-8.272
X168.763 Y127.186 Z-8.28
X168.839 Y127.251
G3 X168.849 Y127.392 I-0.066 J0.075
G2 X167.5 Y131. I4.151 J3.608
G1 Y151.592
Z-8.2
Y156.092
Z-8.28 F30.
Y176. F320.
G2 X173. Y181.5 I5.5
G1 X186.743
Z-8.2
X191.243
Z-8.28 F30.
X205. F320.
G2 X210.5 Y176. J-5.5
G1 Y155.43
Z-8.2
Y150.93
Z-8.28 F30.
Y131. F320.
G2 X205. Y125.5 I-5.5
G1 X192.058
Z-8.2
X187.31
Z-8.28 F30.
X173. F320.
G2 X168.849 Y127.392 J5.5
G3 X168.708 Y127.402 I-0.075 J-0.066
G1 X168.632 Y127.337
X168.603 Y127.311 Z-8.272
X168.579 Y127.29 Z-8.251
X168.562 Y127.276 Z-8.218
X168.557 Y127.271 Z-8.18
G0 Z5.
X168.688 Y127.12
G1 Z-6.28 F320.
Z-9.1
X168.694 Y127.125 Z-9.138
X168.71 Y127.139 Z-9.171
X168.734 Y127.16 Z-9.192
X168.763 Y127.186 Z-9.2
X168.839 Y127.251
G3 X168.849 Y127.392 I-0.066 J0.075
G2 X167.5 Y131. I4.151 J3.608
G1 Y151.592
Z-8.2
Y156.092
Z-9.2 F30.
Y176. F320.
G2 X173. Y181.5 I5.5
G1 X186.743
Z-8.2
X191.243
Z-9.2 F30.
X205. F320.
G2 X210.5 Y176. J-5.5
G1 Y155.43
Z-8.2
Y150.93
Z-9.2 F30.
Y131. F320.
G2 X205. Y125.5 I-5.5
G1 X192.058
Z-8.2
X187.31
Z-9.2 F30.
X173. F320.
G2 X168.849 Y127.392 J5.5
G3 X168.708 Y127.402 I-0.075 J-0.066
G1 X168.632 Y127.337
X168.603 Y127.311 Z-9.192
X168.579 Y127.29 Z-9.171
X168.562 Y127.276 Z-9.138
X168.557 Y127.271 Z-9.1
G0 Z5.
X164.973 Y127.361
G1 Z2. F320.
Z-0.82
X164.967 Y127.366 Z-0.858
X164.951 Y127.381 Z-0.891
X164.928 Y127.403 Z-0.912
X164.9 Y127.43 Z-0.92
X164.828 Y127.499
G3 X164.687 Y127.496 I-0.069 J-0.072
G2 X160. Y125.5 I-4.687 J4.504
G1 X100.
G2 X93.5 Y132. J6.5
G1 Y165.045
Y182.
G2 X100. Y188.5 I6.5
G1 X160.
G2 X166.5 Y182. J-6.5
G1 Y132.
G2 X164.687 Y127.496 I-6.5
G3 X164.69 Y127.355 I0.072 J-0.069
G1 X164.762 Y127.286
X164.789 Y127.259 Z-0.912
X164.813 Y127.237 Z-0.891
X164.828 Y127.222 Z-0.858
X164.834 Y127.216 Z-0.82
G0 Z5.
X164.973 Y127.361
G1 Z1.08 F320.
Z-1.74
X164.967 Y127.366 Z-1.778
X164.951 Y127.381 Z-1.811
X164.928 Y127.403 Z-1.832
X164.9 Y127.43 Z-1.84
X164.828 Y127.499
G3 X164.687 Y127.496 I-0.069 J-0.072
G2 X160. Y125.5 I-4.687 J4.504
G1 X100.
G2 X93.5 Y132. J6.5
G1 Y165.045
Y182.
G2 X100. Y188.5 I6.5
G1 X160.
G2 X166.5 Y182. J-6.5
G1 Y132.
G2 X164.687 Y127.496 I-6.5
G3 X164.69 Y127.355 I0.072 J-0.069
G1 X164.762 Y127.286
X164.789 Y127.259 Z-1.832
X164.813 Y127.237 Z-1.811
X164.828 Y127.222 Z-1.778
X164.834 Y127.216 Z-1.74
G0 Z5.
X164.973 Y127.361
G1 Z0.16 F320.
Z-2.66
X164.967 Y127.366 Z-2.698
X164.951 Y127.381 Z-2.731
X164.928 Y127.403 Z-2.752
X164.9 Y127.43 Z-2.76
X164.828 Y127.499
G3 X164.687 Y127.496 I-0.069 J-0.072
G2 X160. Y125.5 I-4.687 J4.504
G1 X100.
G2 X93.5 Y132. J6.5
G1 Y165.045
Y182.
G2 X100. Y188.5 I6.5
G1 X160.
G2 X166.5 Y182. J-6.5
G1 Y132.
G2 X164.687 Y127.496 I-6.5
G3 X164.69 Y127.355 I0.072 J-0.069
G1 X164.762 Y127.286
X164.789 Y127.259 Z-2.752
X164.813 Y127.237 Z-2.731
X164.828 Y127.222 Z-2.698
X164.834 Y127.216 Z-2.66
G0 Z5.
X164.973 Y127.361
G1 Z-0.76 F320.
Z-3.58
X164.967 Y127.366 Z-3.618
X164.951 Y127.381 Z-3.651
X164.928 Y127.403 Z-3.672
X164.9 Y127.43 Z-3.68
X164.828 Y127.499
G3 X164.687 Y127.496 I-0.069 J-0.072
G2 X160. Y125.5 I-4.687 J4.504
G1 X100.
G2 X93.5 Y132. J6.5
G1 Y165.045
Y182.
G2 X100. Y188.5 I6.5
G1 X160.
G2 X166.5 Y182. J-6.5
G1 Y132.
G2 X164.687 Y127.496 I-6.5
G3 X164.69 Y127.355 I0.072 J-0.069
G1 X164.762 Y127.286
X164.789 Y127.259 Z-3.672
X164.813 Y127.237 Z-3.651
X164.828 Y127.222 Z-3.618
X164.834 Y127.216 Z-3.58
G0 Z5.
X164.973 Y127.361
G1 Z-1.68 F320.
Z-4.5
X164.967 Y127.366 Z-4.538
X164.951 Y127.381 Z-4.571
X164.928 Y127.403 Z-4.592
X164.9 Y127.43 Z-4.6
X164.828 Y127.499
G3 X164.687 Y127.496 I-0.069 J-0.072
G2 X160. Y125.5 I-4.687 J4.504
G1 X100.
G2 X93.5 Y132. J6.5
G1 Y165.045
Y182.
G2 X100. Y188.5 I6.5
G1 X160.
G2 X166.5 Y182. J-6.5
G1 Y132.
G2 X164.687 Y127.496 I-6.5
G3 X164.69 Y127.355 I0.072 J-0.069
G1 X164.762 Y127.286
X164.789 Y127.259 Z-4.592
X164.813 Y127.237 Z-4.571
X164.828 Y127.222 Z-4.538
X164.834 Y127.216 Z-4.5
G0 Z5.
X164.973 Y127.361
G1 Z-2.6 F320.
Z-5.42
X164.967 Y127.366 Z-5.458
X164.951 Y127.381 Z-5.491
X164.928 Y127.403 Z-5.512
X164.9 Y127.43 Z-5.52
X164.828 Y127.499
G3 X164.687 Y127.496 I-0.069 J-0.072
G2 X160. Y125.5 I-4.687 J4.504
G1 X100.
G2 X93.5 Y132. J6.5
G1 Y165.045
Y182.
G2 X100. Y188.5 I6.5
G1 X160.
G2 X166.5 Y182. J-6.5
G1 Y132.
G2 X164.687 Y127.496 I-6.5
G3 X164.69 Y127.355 I0.072 J-0.069
G1 X164.762 Y127.286
X164.789 Y127.259 Z-5.512
X164.813 Y127.237 Z-5.491
X164.828 Y127.222 Z-5.458
X164.834 Y127.216 Z-5.42
G0 Z5.
X164.973 Y127.361
G1 Z-3.52 F320.
Z-6.34
X164.967 Y127.366 Z-6.378
X164.951 Y127.381 Z-6.411
X164.928 Y127.403 Z-6.432
X164.9 Y127.43 Z-6.44
X164.828 Y127.499
G3 X164.687 Y127.496 I-0.069 J-0.072
G2 X160. Y125.5 I-4.687 J4.504
G1 X100.
G2 X93.5 Y132. J6.5
G1 Y165.045
Y182.
G2 X100. Y188.5 I6.5
G1 X160.
G2 X166.5 Y182. J-6.5
G1 Y132.
G2 X164.687 Y127.496 I-6.5
G3 X164.69 Y127.355 I0.072 J-0.069
G1 X164.762 Y127.286
X164.789 Y127.259 Z-6.432
X164.813 Y127.237 Z-6.411
X164.828 Y127.222 Z-6.378
X164.834 Y127.216 Z-6.34
G0 Z5.
X164.973 Y127.361
G1 Z-4.44 F320.
Z-7.26
X164.967 Y127.366 Z-7.298
X164.951 Y127.381 Z-7.331
X164.928 Y127.403 Z-7.352
X164.9 Y127.43 Z-7.36
X164.828 Y127.499
G3 X164.687 Y127.496 I-0.069 J-0.072
G2 X160. Y125.5 I-4.687 J4.504
G1 X100.
G2 X93.5 Y132. J6.5
G1 Y165.045
Y182.
G2 X100. Y188.5 I6.5
G1 X160.
G2 X166.5 Y182. J-6.5
G1 Y132.
G2 X164.687 Y127.496 I-6.5
G3 X164.69 Y127.355 I0.072 J-0.069
G1 X164.762 Y127.286
X164.789 Y127.259 Z-7.352
X164.813 Y127.237 Z-7.331
X164.828 Y127.222 Z-7.298
X164.834 Y127.216 Z-7.26
G0 Z5.
X164.973 Y127.361
G1 Z-5.36 F320.
Z-8.18
X164.967 Y127.366 Z-8.218
X164.951 Y127.381 Z-8.251
X164.928 Y127.403 Z-8.272
X164.9 Y127.43 Z-8.28
X164.828 Y127.499
G3 X164.687 Y127.496 I-0.069 J-0.072
G2 X160. Y125.5 I-4.687 J4.504
G1 X113.022
Z-8.2
X108.522
Z-8.28 F30.
X100. F320.
G2 X93.5 Y132. J6.5
G1 Y146.241
Z-8.2
Y150.81
Z-8.28 F30.
Y182. F320.
G2 X100. Y188.5 I6.5
G1 X128.898
Z-8.2
X133.398
Z-8.28 F30.
X160. F320.
G2 X166.5 Y182. J-6.5
G1 Y156.092
Z-8.2
Y151.592
Z-8.28 F30.
Y132. F320.
G2 X164.687 Y127.496 I-6.5
G3 X164.69 Y127.355 I0.072 J-0.069
G1 X164.762 Y127.286
X164.789 Y127.259 Z-8.272
X164.813 Y127.237 Z-8.251
X164.828 Y127.222 Z-8.218
X164.834 Y127.216 Z-8.18
G0 Z5.
X164.973 Y127.361
G1 Z-6.28 F320.
Z-9.1
X164.967 Y127.366 Z-9.138
X164.951 Y127.381 Z-9.171
X164.928 Y127.403 Z-9.192
X164.9 Y127.43 Z-9.2
X164.828 Y127.499
G3 X164.687 Y127.496 I-0.069 J-0.072
G2 X160. Y125.5 I-4.687 J4.504
G1 X113.022
Z-8.2
X108.522
Z-9.2 F30.
X100. F320.
G2 X93.5 Y132. J6.5
G1 Y146.241
Z-8.2
Y150.81
Z-9.2 F30.
Y182. F320.
G2 X100. Y188.5 I6.5
G1 X128.898
Z-8.2
X133.398
Z-9.2 F30.
X160. F320.
G2 X166.5 Y182. J-6.5
G1 Y156.092
Z-8.2
Y151.592
Z-9.2 F30.
Y132. F320.
G2 X164.687 Y127.496 I-6.5
G3 X164.69 Y127.355 I0.072 J-0.069
G1 X164.762 Y127.286
X164.789 Y127.259 Z-9.192
X164.813 Y127.237 Z-9.171
X164.828 Y127.222 Z-9.138
X164.834 Y127.216 Z-9.1
G0 Z5.
X92.8 Y131.1
G1 Z2. F320.
Z-0.82
G18 G3 X92.7 Z-0.92 I-0.1
G1 X92.6
G17 G3 X92.5 Y131. J-0.1
G2 X87. Y125.5 I-5.5
G1 X44.157
G2 X40.268 Y127.111 J5.5
G1 X16.611 Y150.767
G3 X14.843 Y151.5 I-1.768 J-1.767
G1 X7.
G2 X1.5 Y157. J5.5
G1 Y189.
G2 X7. Y194.5 I5.5
G1 X31.343
G2 X35.232 Y192.889 J-5.5
G1 X56.889 Y171.233
G3 X58.657 Y170.5 I1.768 J1.767
G1 X87.
G2 X92.5 Y165. J-5.5
G1 Y131.
G3 X92.6 Y130.9 I0.1
G1 X92.7
G18 G2 X92.8 Z-0.82 K0.1
G0 Z5.
Y131.1
G1 Z1.08 F320.
Z-1.74
G3 X92.7 Z-1.84 I-0.1
G1 X92.6
G17 G3 X92.5 Y131. J-0.1
G2 X87. Y125.5 I-5.5
G1 X44.157
G2 X40.268 Y127.111 J5.5
G1 X16.611 Y150.767
G3 X14.843 Y151.5 I-1.768 J-1.767
G1 X7.
G2 X1.5 Y157. J5.5
G1 Y189.
G2 X7. Y194.5 I5.5
G1 X31.343
G2 X35.232 Y192.889 J-5.5
G1 X56.889 Y171.233
G3 X58.657 Y170.5 I1.768 J1.767
G1 X87.
G2 X92.5 Y165. J-5.5
G1 Y131.
G3 X92.6 Y130.9 I0.1
G1 X92.7
G18 G2 X92.8 Z-1.74 K0.1
G0 Z5.
Y131.1
G1 Z0.16 F320.
Z-2.66
G3 X92.7 Z-2.76 I-0.1
G1 X92.6
G17 G3 X92.5 Y131. J-0.1
G2 X87. Y125.5 I-5.5
G1 X44.157
G2 X40.268 Y127.111 J5.5
G1 X16.611 Y150.767
G3 X14.843 Y151.5 I-1.768 J-1.767
G1 X7.
G2 X1.5 Y157. J5.5
G1 Y189.
G2 X7. Y194.5 I5.5
G1 X31.343
G2 X35.232 Y192.889 J-5.5
G1 X56.889 Y171.233
G3 X58.657 Y170.5 I1.768 J1.767
G1 X87.
G2 X92.5 Y165. J-5.5
G1 Y131.
G3 X92.6 Y130.9 I0.1
G1 X92.7
G18 G2 X92.8 Z-2.66 K0.1
G0 Z5.
Y131.1
G1 Z-0.76 F320.
Z-3.58
G3 X92.7 Z-3.68 I-0.1
G1 X92.6
G17 G3 X92.5 Y131. J-0.1
G2 X87. Y125.5 I-5.5
G1 X44.157
G2 X40.268 Y127.111 J5.5
G1 X16.611 Y150.767
G3 X14.843 Y151.5 I-1.768 J-1.767
G1 X7.
G2 X1.5 Y157. J5.5
G1 Y189.
G2 X7. Y194.5 I5.5
G1 X31.343
G2 X35.232 Y192.889 J-5.5
G1 X56.889 Y171.233
G3 X58.657 Y170.5 I1.768 J1.767
G1 X87.
G2 X92.5 Y165. J-5.5
G1 Y131.
G3 X92.6 Y130.9 I0.1
G1 X92.7
G18 G2 X92.8 Z-3.58 K0.1
G0 Z5.
Y131.1
G1 Z-1.68 F320.
Z-4.5
G3 X92.7 Z-4.6 I-0.1
G1 X92.6
G17 G3 X92.5 Y131. J-0.1
G2 X87. Y125.5 I-5.5
G1 X44.157
G2 X40.268 Y127.111 J5.5
G1 X16.611 Y150.767
G3 X14.843 Y151.5 I-1.768 J-1.767
G1 X7.
G2 X1.5 Y157. J5.5
G1 Y189.
G2 X7. Y194.5 I5.5
G1 X31.343
G2 X35.232 Y192.889 J-5.5
G1 X56.889 Y171.233
G3 X58.657 Y170.5 I1.768 J1.767
G1 X87.
G2 X92.5 Y165. J-5.5
G1 Y131.
G3 X92.6 Y130.9 I0.1
G1 X92.7
G18 G2 X92.8 Z-4.5 K0.1
G0 Z5.
Y131.1
G1 Z-2.6 F320.
Z-5.42
G3 X92.7 Z-5.52 I-0.1
G1 X92.6
G17 G3 X92.5 Y131. J-0.1
G2 X87. Y125.5 I-5.5
G1 X44.157
G2 X40.268 Y127.111 J5.5
G1 X16.611 Y150.767
G3 X14.843 Y151.5 I-1.768 J-1.767
G1 X7.
G2 X1.5 Y157. J5.5
G1 Y189.
G2 X7. Y194.5 I5.5
G1 X31.343
G2 X35.232 Y192.889 J-5.5
G1 X56.889 Y171.233
G3 X58.657 Y170.5 I1.768 J1.767
G1 X87.
G2 X92.5 Y165. J-5.5
G1 Y131.
G3 X92.6 Y130.9 I0.1
G1 X92.7
G18 G2 X92.8 Z-5.42 K0.1
G0 Z5.
Y131.1
G1 Z-3.52 F320.
Z-6.34
G3 X92.7 Z-6.44 I-0.1
G1 X92.6
G17 G3 X92.5 Y131. J-0.1
G2 X87. Y125.5 I-5.5
G1 X44.157
G2 X40.268 Y127.111 J5.5
G1 X16.611 Y150.767
G3 X14.843 Y151.5 I-1.768 J-1.767
G1 X7.
G2 X1.5 Y157. J5.5
G1 Y189.
G2 X7. Y194.5 I5.5
G1 X31.343
G2 X35.232 Y192.889 J-5.5
G1 X56.889 Y171.233
G3 X58.657 Y170.5 I1.768 J1.767
G1 X87.
G2 X92.5 Y165. J-5.5
G1 Y131.
G3 X92.6 Y130.9 I0.1
G1 X92.7
G18 G2 X92.8 Z-6.34 K0.1
G0 Z5.
Y131.1
G1 Z-4.44 F320.
Z-7.26
G3 X92.7 Z-7.36 I-0.1
G1 X92.6
G17 G3 X92.5 Y131. J-0.1
G2 X87. Y125.5 I-5.5
G1 X44.157
G2 X40.268 Y127.111 J5.5
G1 X16.611 Y150.767
G3 X14.843 Y151.5 I-1.768 J-1.767
G1 X7.
G2 X1.5 Y157. J5.5
G1 Y189.
G2 X7. Y194.5 I5.5
G1 X31.343
G2 X35.232 Y192.889 J-5.5
G1 X56.889 Y171.233
G3 X58.657 Y170.5 I1.768 J1.767
G1 X87.
G2 X92.5 Y165. J-5.5
G1 Y131.
G3 X92.6 Y130.9 I0.1
G1 X92.7
G18 G2 X92.8 Z-7.26 K0.1
G0 Z5.
Y131.1
G1 Z-5.36 F320.
Z-8.18
G3 X92.7 Z-8.28 I-0.1
G1 X92.6
G17 G3 X92.5 Y131. J-0.1
G2 X87. Y125.5 I-5.5
G1 X68.047
Z-8.2
X63.547
Z-8.28 F30.
X44.157 F320.
G2 X43.3 Y125.567 J5.5
G1 Z-8.2
G2 X40.268 Y127.111 I0.858 J5.433
G1 X39.461 Y127.919
Z-8.28 F30.
X16.611 Y150.767 F320.
G3 X14.843 Y151.5 I-1.768 J-1.767
G1 X7.
G2 X1.5 Y157. J5.5
G1 Y169.247
Z-8.2
Y173.747
Z-8.28 F30.
Y189. F320.
G2 X7. Y194.5 I5.5
G1 X16.613
Z-8.2
X21.113
Z-8.28 F30.
X31.343 F320.
G2 X35.232 Y192.889 J-5.5
G1 X56.889 Y171.233
G3 X58.657 Y170.5 I1.768 J1.767
G1 X71.824
Z-8.2
X76.324
Z-8.28 F30.
X87. F320.
G2 X92.5 Y165. J-5.5
G1 Y150.81
Z-8.2
Y146.241
Z-8.28 F30.
Y131. F320.
G3 X92.6 Y130.9 I0.1
G1 X92.7
G18 G2 X92.8 Z-8.18 K0.1
G0 Z5.
Y131.1
G1 Z-6.28 F320.
Z-9.1
G3 X92.7 Z-9.2 I-0.1
G1 X92.6
G17 G3 X92.5 Y131. J-0.1
G2 X87. Y125.5 I-5.5
G1 X68.047
Z-8.2
X63.547
Z-9.2 F30.
X44.157 F320.
G2 X43.3 Y125.567 J5.5
G1 Z-8.2
G2 X40.268 Y127.111 I0.858 J5.433
G1 X39.461 Y127.919
Z-9.2 F30.
X16.611 Y150.767 F320.
G3 X14.843 Y151.5 I-1.768 J-1.767
G1 X7.
G2 X1.5 Y157. J5.5
G1 Y169.247
Z-8.2
Y173.747
Z-9.2 F30.
Y189. F320.
G2 X7. Y194.5 I5.5
G1 X16.613
Z-8.2
X21.113
Z-9.2 F30.
X31.343 F320.
G2 X35.232 Y192.889 J-5.5
G1 X56.889 Y171.233
G3 X58.657 Y170.5 I1.768 J1.767
G1 X71.824
Z-8.2
X76.324
Z-9.2 F30.
X87. F320.
G2 X92.5 Y165. J-5.5
G1 Y150.81
Z-8.2
Y146.241
Z-9.2 F30.
Y131. F320.
G3 X92.6 Y130.9 I0.1
G1 X92.7
G18 G2 X92.8 Z-9.1 K0.1
G0 Z15.
G17
G91
G28 Z0.
M5
G0
G28 X0. Y0.
M30
%
