%
O00001006
(T2  D=3. CR=0. - ZMIN=-9.2 - FLAT END MILL)
G90 G94 G17
G21
G91
G28 Z0.
G90
(2D CONTOUR1)
T2 M6
S8000 M3
G54
G0 X1.2 Y159.9
G43 Z15. H2
G0 Z5.
G1 Z2. F320.
Z-0.82
G18 G2 X1.3 Z-0.92 I0.1
G1 X1.4
G17 G3 X1.5 Y160. J0.1
G1 Y189.
G2 X7. Y194.5 I5.5
G1 X31.343
G2 X35.232 Y192.889 J-5.5
G1 X56.889 Y171.233
G3 X58.657 Y170.5 I1.768 J1.767
G1 X87.
G2 X92.5 Y165. J-5.5
G1 Y131.
G2 X87. Y125.5 I-5.5
G1 X44.157
G2 X40.268 Y127.111 J5.5
G1 X16.611 Y150.767
G3 X14.843 Y151.5 I-1.768 J-1.767
G1 X7.
G2 X1.5 Y157. J5.5
G1 Y160.
G3 X1.4 Y160.1 I-0.1
G1 X1.3
G18 G3 X1.2 Z-0.82 K0.1
G0 Z5.
Y159.9
G1 Z1.08 F320.
Z-1.74
G2 X1.3 Z-1.84 I0.1
G1 X1.4
G17 G3 X1.5 Y160. J0.1
G1 Y189.
G2 X7. Y194.5 I5.5
G1 X31.343
G2 X35.232 Y192.889 J-5.5
G1 X56.889 Y171.233
G3 X58.657 Y170.5 I1.768 J1.767
G1 X87.
G2 X92.5 Y165. J-5.5
G1 Y131.
G2 X87. Y125.5 I-5.5
G1 X44.157
G2 X40.268 Y127.111 J5.5
G1 X16.611 Y150.767
G3 X14.843 Y151.5 I-1.768 J-1.767
G1 X7.
G2 X1.5 Y157. J5.5
G1 Y160.
G3 X1.4 Y160.1 I-0.1
G1 X1.3
G18 G3 X1.2 Z-1.74 K0.1
G0 Z5.
Y159.9
G1 Z0.16 F320.
Z-2.66
G2 X1.3 Z-2.76 I0.1
G1 X1.4
G17 G3 X1.5 Y160. J0.1
G1 Y189.
G2 X7. Y194.5 I5.5
G1 X31.343
G2 X35.232 Y192.889 J-5.5
G1 X56.889 Y171.233
G3 X58.657 Y170.5 I1.768 J1.767
G1 X87.
G2 X92.5 Y165. J-5.5
G1 Y131.
G2 X87. Y125.5 I-5.5
G1 X44.157
G2 X40.268 Y127.111 J5.5
G1 X16.611 Y150.767
G3 X14.843 Y151.5 I-1.768 J-1.767
G1 X7.
G2 X1.5 Y157. J5.5
G1 Y160.
G3 X1.4 Y160.1 I-0.1
G1 X1.3
G18 G3 X1.2 Z-2.66 K0.1
G0 Z5.
Y159.9
G1 Z-0.76 F320.
Z-3.58
G2 X1.3 Z-3.68 I0.1
G1 X1.4
G17 G3 X1.5 Y160. J0.1
G1 Y189.
G2 X7. Y194.5 I5.5
G1 X31.343
G2 X35.232 Y192.889 J-5.5
G1 X56.889 Y171.233
G3 X58.657 Y170.5 I1.768 J1.767
G1 X87.
G2 X92.5 Y165. J-5.5
G1 Y131.
G2 X87. Y125.5 I-5.5
G1 X44.157
G2 X40.268 Y127.111 J5.5
G1 X16.611 Y150.767
G3 X14.843 Y151.5 I-1.768 J-1.767
G1 X7.
G2 X1.5 Y157. J5.5
G1 Y160.
G3 X1.4 Y160.1 I-0.1
G1 X1.3
G18 G3 X1.2 Z-3.58 K0.1
G0 Z5.
Y159.9
G1 Z-1.68 F320.
Z-4.5
G2 X1.3 Z-4.6 I0.1
G1 X1.4
G17 G3 X1.5 Y160. J0.1
G1 Y189.
G2 X7. Y194.5 I5.5
G1 X31.343
G2 X35.232 Y192.889 J-5.5
G1 X56.889 Y171.233
G3 X58.657 Y170.5 I1.768 J1.767
G1 X87.
G2 X92.5 Y165. J-5.5
G1 Y131.
G2 X87. Y125.5 I-5.5
G1 X44.157
G2 X40.268 Y127.111 J5.5
G1 X16.611 Y150.767
G3 X14.843 Y151.5 I-1.768 J-1.767
G1 X7.
G2 X1.5 Y157. J5.5
G1 Y160.
G3 X1.4 Y160.1 I-0.1
G1 X1.3
G18 G3 X1.2 Z-4.5 K0.1
G0 Z5.
Y159.9
G1 Z-2.6 F320.
Z-5.42
G2 X1.3 Z-5.52 I0.1
G1 X1.4
G17 G3 X1.5 Y160. J0.1
G1 Y189.
G2 X7. Y194.5 I5.5
G1 X31.343
G2 X35.232 Y192.889 J-5.5
G1 X56.889 Y171.233
G3 X58.657 Y170.5 I1.768 J1.767
G1 X87.
G2 X92.5 Y165. J-5.5
G1 Y131.
G2 X87. Y125.5 I-5.5
G1 X44.157
G2 X40.268 Y127.111 J5.5
G1 X16.611 Y150.767
G3 X14.843 Y151.5 I-1.768 J-1.767
G1 X7.
G2 X1.5 Y157. J5.5
G1 Y160.
G3 X1.4 Y160.1 I-0.1
G1 X1.3
G18 G3 X1.2 Z-5.42 K0.1
G0 Z5.
Y159.9
G1 Z-3.52 F320.
Z-6.34
G2 X1.3 Z-6.44 I0.1
G1 X1.4
G17 G3 X1.5 Y160. J0.1
G1 Y189.
G2 X7. Y194.5 I5.5
G1 X31.343
G2 X35.232 Y192.889 J-5.5
G1 X56.889 Y171.233
G3 X58.657 Y170.5 I1.768 J1.767
G1 X87.
G2 X92.5 Y165. J-5.5
G1 Y131.
G2 X87. Y125.5 I-5.5
G1 X44.157
G2 X40.268 Y127.111 J5.5
G1 X16.611 Y150.767
G3 X14.843 Y151.5 I-1.768 J-1.767
G1 X7.
G2 X1.5 Y157. J5.5
G1 Y160.
G3 X1.4 Y160.1 I-0.1
G1 X1.3
G18 G3 X1.2 Z-6.34 K0.1
G0 Z5.
Y159.9
G1 Z-4.44 F320.
Z-7.26
G2 X1.3 Z-7.36 I0.1
G1 X1.4
G17 G3 X1.5 Y160. J0.1
G1 Y189.
G2 X7. Y194.5 I5.5
G1 X31.343
G2 X35.232 Y192.889 J-5.5
G1 X56.889 Y171.233
G3 X58.657 Y170.5 I1.768 J1.767
G1 X87.
G2 X92.5 Y165. J-5.5
G1 Y131.
G2 X87. Y125.5 I-5.5
G1 X44.157
G2 X40.268 Y127.111 J5.5
G1 X16.611 Y150.767
G3 X14.843 Y151.5 I-1.768 J-1.767
G1 X7.
G2 X1.5 Y157. J5.5
G1 Y160.
G3 X1.4 Y160.1 I-0.1
G1 X1.3
G18 G3 X1.2 Z-7.26 K0.1
G0 Z5.
Y159.9
G1 Z-5.36 F320.
Z-8.18
G2 X1.3 Z-8.28 I0.1
G1 X1.4
G17 G3 X1.5 Y160. J0.1
G1 Y172.35
Z-8.2
Y176.85
Z-8.28 F30.
Y189. F320.
G2 X7. Y194.5 I5.5
G1 X15.389
Z-8.2
X19.889
Z-8.28 F30.
X31.343 F320.
G2 X35.232 Y192.889 J-5.5
G1 X56.889 Y171.233
G3 X58.657 Y170.5 I1.768 J1.767
G1 X87.
G2 X92.5 Y165. J-5.5
G1 Y131.
G2 X87. Y125.5 I-5.5
G1 X68.398
Z-8.2
X63.898
Z-8.28 F30.
X44.157 F320.
G2 X40.268 Y127.111 J5.5
G1 X16.611 Y150.767
G3 X14.843 Y151.5 I-1.768 J-1.767
G1 X7.
G2 X1.5 Y157. J5.5
G1 Y160.
G3 X1.4 Y160.1 I-0.1
G1 X1.3
G18 G3 X1.2 Z-8.18 K0.1
G0 Z5.
Y159.9
G1 Z-6.28 F320.
Z-9.1
G2 X1.3 Z-9.2 I0.1
G1 X1.4
G17 G3 X1.5 Y160. J0.1
G1 Y172.35
Z-8.2
Y176.85
Z-9.2 F30.
Y189. F320.
G2 X7. Y194.5 I5.5
G1 X15.389
Z-8.2
X19.889
Z-9.2 F30.
X31.343 F320.
G2 X35.232 Y192.889 J-5.5
G1 X56.889 Y171.233
G3 X58.657 Y170.5 I1.768 J1.767
G1 X87.
G2 X92.5 Y165. J-5.5
G1 Y131.
G2 X87. Y125.5 I-5.5
G1 X68.398
Z-8.2
X63.898
Z-9.2 F30.
X44.157 F320.
G2 X40.268 Y127.111 J5.5
G1 X16.611 Y150.767
G3 X14.843 Y151.5 I-1.768 J-1.767
G1 X7.
G2 X1.5 Y157. J5.5
G1 Y160.
G3 X1.4 Y160.1 I-0.1
G1 X1.3
G18 G3 X1.2 Z-9.1 K0.1
G0 Z15.
G17
G91
G28 Z0.
M5
G0
G28 X0. Y0.
M30
%
